;FLAVOR:Marlin-polargraph
;MINX:-15.000
;MINY:-8.000
;MAXX:20.000
;MAXY:30.000
;Start of user gcode
M300
M200
;End of user gcode
G28 X Y
M201 X100.0 Y100.0
M203 X3000.0 Y3000.0
M204 S100.0
M205 X10 Y10
M280 P0 S90.0 T50.0
M0 Ready 0xff9900 and click
G0 X-15.000 Y-7.000 F3000.0
M280 P0 S25.0 T50.0
G1 X3.000 Y4.000 F3000.0
M280 P0 S90.0 T50.0
G0 X12.000 Y18.000 F3000.0
M280 P0 S25.0 T50.0
G1 X7.000 Y8.000 F3000.0
M280 P0 S90.0 T50.0
G0 X5.000 Y2.000 F3000.0
M280 P0 S25.0 T50.0
G1 X6.000 Y10.000 F3000.0
M280 P0 S90.0 T50.0
M0 Ready 0x0044ff and click
G0 X-15.000 Y-7.000 F3000.0
M280 P0 S25.0 T50.0
G1 X20.000 Y30.000 F3000.0
M280 P0 S90.0 T50.0
G0 X-4.000 Y-8.000 F3000.0
M280 P0 S25.0 T50.0
G1 X10.000 Y15.000 F3000.0
M280 P0 S90.0 T50.0
;Start of user gcode
M400
M200
;End of user gcode
;End of Gcode