( Made using CamBam - http://www.cambam.co.uk )
( Untitled 2012-03-13 11:15:57 AM )
( T0 : 0.0 )
G020 G90 G64 G40
G00 Z90.0
( T0 : 0.0 )
T0 M6
( Engrave1 )
G017
M3 S10000
G00 X-3.7274 Y-0.4318
G01 F8.5 Z10
G01 X-4.074 Y-1.3266
G01 X-3.9459
G01 X-3.7133 Y-0.6766
G03 X-3.6663 Y-0.5301 I-1.9444 J0.7046
G03 X-3.6181 Y-0.6766 I1.7956 J0.5099
G01 X-3.3764 Y-1.3266
G01 X-3.2556
G01 X-3.6059 Y-0.4318
G01 X-3.7274
G00 Z90.0
G00 X-3.7837 Y0.0697
G01 Z10
G01 X-3.5083 Y0.8933
G03 X-3.4528 Y1.0654 I-8.4855 J2.8323
G03 X-3.3909 Y0.879 I7.9821 J2.5459
G01 X-3.1124 Y0.0697
G01 X-2.9053
G01 Y1.2329
G01 X-3.0537
G01 Y0.2593
G01 X-3.3917 Y1.2329
G01 X-3.5306
G01 X-3.867 Y0.2426
G01 Y1.2329
G01 X-4.0154
G01 Y0.0697
G01 X-3.7837
G00 Z90.0
G00 X-4.6156
G01 Z10
G01 Y1.769
G01 X5.034
G01 Y-1.758
G01 X-4.6156
G01 Y0.0697
G00 Z90.0
G00 X-4.9542
G01 Z10
G01 Y2.0511
G01 X5.3444
G01 Y-2.0119
G01 X-4.9542
G01 Y0.0697
G00 Z90.0
G00 X-3.1911 Y-0.5412
G01 Z10
G03 X-3.2006 Y-0.6027 I0.1637 J-0.0567
G03 X-3.1793 Y-0.6894 I0.1777 J-0.0022
G03 X-3.1225 Y-0.7529 I0.1608 J0.0867
G03 X-3.0432 Y-0.7889 I0.1503 J0.2258
G03 X-2.9455 Y-0.8054 I0.1863 J0.8063
G02 X-2.8466 Y-0.8197 I-0.2059 J-1.7707
G02 X-2.7496 Y-0.8432 I-0.1073 J-0.6547
G02 X-2.749 Y-0.8719 I-1.8865 J-0.0545
G02 X-2.7548 Y-0.9224 I-0.1979 J-0.0029
G02 X-2.7801 Y-0.9665 I-0.0854 J0.0198
G02 X-2.8393 Y-0.9963 I-0.0912 J0.1074
G02 X-2.9052 Y-1.0037 I-0.0626 J0.2604
G02 X-2.9646 Y-0.9986 I-0.0031 J0.3112
G02 X-3.02 Y-0.9763 I0.0229 J0.1364
G02 X-3.0551 Y-0.9329 I0.0749 J0.0966
G02 X-3.0743 Y-0.8804 I0.226 J0.1124
G01 X-3.1817 Y-0.8951
G03 X-3.164 Y-0.9534 I0.3261 J0.0672
G03 X-3.1335 Y-1.0062 I0.2028 J0.0821
G03 X-3.0896 Y-1.0457 I0.1406 J0.1118
G03 X-3.0364 Y-1.0715 I0.1363 J0.2138
G03 X-2.8893 Y-1.0947 I0.1395 J0.4069
G03 X-2.8211 Y-1.0907 I0.0028 J0.5458
G03 X-2.7545 Y-1.0751 I-0.034 J0.2953
G03 X-2.7131 Y-1.0553 I-0.0837 J0.2277
G03 X-2.6782 Y-1.0257 I-0.0703 J0.1184
G03 X-2.644 Y-0.9512 I-0.1341 J0.1066
G03 X-2.6393 Y-0.9007 I-0.3711 J0.0595
G03 X-2.6385 Y-0.8499 I-1.3309 J0.0478
G01 Y-0.7034
G02 X-2.6376 Y-0.6063 I4.5266 J0.0066
G02 X-2.6318 Y-0.5094 I0.9202 J-0.0065
G02 X-2.6037 Y-0.4318 I0.2463 J-0.0454
G01 X-2.7184
G03 X-2.7404 Y-0.5118 I0.2111 J-0.101
G03 X-2.8582 Y-0.4386 I-0.2731 J-0.3079
G03 X-2.9791 Y-0.4172 I-0.1182 J-0.3159
G03 X-3.066 Y-0.4279 I-0.0041 J-0.3246
G03 X-3.1433 Y-0.4691 I0.048 J-0.1833
G03 X-3.1911 Y-0.5412 I0.1158 J-0.1288
G00 Z90.0
G00 X-3.0792 Y-0.5761
G01 Z10
G02 X-3.0505 Y-0.5325 I0.0897 J-0.0279
G02 X-3.0043 Y-0.5092 I0.0725 J-0.086
G02 X-2.9528 Y-0.5033 I0.049 J-0.1991
G02 X-2.8399 Y-0.5307 I0.0041 J-0.2289
G02 X-2.7673 Y-0.607 I-0.0829 J-0.1516
G02 X-2.7528 Y-0.661 I-0.1698 J-0.0743
G02 X-2.7496 Y-0.7169 I-0.4289 J-0.0531
G01 Y-0.7572
G03 X-2.8382 Y-0.7315 I-0.1965 J-0.5128
G03 X-2.929 Y-0.7157 I-0.2774 J-1.3222
G02 X-2.9775 Y-0.7073 I0.1127 J0.8006
G02 X-3.0248 Y-0.6937 I0.0489 J0.2584
G02 X-3.0682 Y-0.6577 I0.0363 J0.0877
G02 X-3.0834 Y-0.6058 I0.0771 J0.0509
G02 X-3.0792 Y-0.5761 I0.0939 J0.0018
G00 Z90.0
G00 X-2.4682
G01 Z10
G01 Y-1.08
G01 X-2.3693
G01 Y-0.9879
G03 X-2.2804 Y-1.0688 I0.1969 J0.127
G03 X-2.163 Y-1.0947 I0.1124 J0.2309
G03 X-2.0556 Y-1.0733 I0.0031 J0.2654
G03 X-2.0149 Y-1.051 I-0.0792 J0.1929
G03 X-1.9818 Y-1.0184 I-0.0813 J0.1156
G03 X-1.9476 Y-0.9372 I-0.1745 J0.1213
G03 X-1.9424 Y-0.8839 I-0.3821 J0.0637
G03 X-1.9415 Y-0.8304 I-1.296 J0.0502
G01 Y-0.4318
G01 X-2.0513
G01 Y-0.8261
G02 X-2.0536 Y-0.8767 I-0.5037 J-0.0026
G02 X-2.0642 Y-0.9262 I-0.1974 J0.0161
G02 X-2.1099 Y-0.9793 I-0.0968 J0.0372
G02 X-2.1862 Y-0.9995 I-0.0729 J0.1216
G02 X-2.3077 Y-0.9549 I-0.0032 J0.1791
G02 X-2.3348 Y-0.9184 I0.0783 J0.0865
G02 X-2.3538 Y-0.8534 I0.2036 J0.0946
G02 X-2.3583 Y-0.7858 I0.4518 J0.0645
G01 Y-0.4318
G01 X-2.4682
G01 Y-0.5761
G00 Z90.0
G00 X-1.8013 Y-0.6758
G01 Z10
G03 X-1.8066 Y-0.7535 I0.4779 J-0.0715
G03 X-1.7988 Y-0.8472 I0.5344 J-0.0025
G03 X-1.7718 Y-0.9372 I0.387 J0.0668
G03 X-1.6662 Y-1.055 I0.2227 J0.0934
G03 X-1.5112 Y-1.0947 I0.1528 J0.2743
G03 X-1.4202 Y-1.0827 I0.0033 J0.3275
G03 X-1.3384 Y-1.041 I-0.0631 J0.2244
G03 X-1.2815 Y-0.9732 I-0.1366 J0.1726
G03 X-1.2524 Y-0.8896 I-0.2525 J0.1347
G01 X-1.3592 Y-0.8731
G02 X-1.3784 Y-0.9266 I-0.2222 J0.0496
G02 X-1.4135 Y-0.9714 I-0.1305 J0.0662
G02 X-1.5069 Y-1.0043 I-0.0898 J0.1057
G02 X-1.5812 Y-0.9898 I-0.0025 J0.1843
G02 X-1.6418 Y-0.9445 I0.0686 J0.155
G02 X-1.6839 Y-0.855 I0.1568 J0.1285
G02 X-1.6937 Y-0.7565 I0.4399 J0.0932
G02 X-1.6844 Y-0.6575 I0.4778 J0.0054
G02 X-1.6695 Y-0.6096 I0.2558 J-0.0533
G02 X-1.6436 Y-0.5667 I0.1564 J-0.0653
G02 X-1.513 Y-0.5075 I0.1257 J-0.1036
G02 X-1.4551 Y-0.5169 I0.0018 J-0.1721
G02 X-1.405 Y-0.5472 I-0.0489 J-0.1376
G02 X-1.367 Y-0.6035 I-0.1065 J-0.1127
G02 X-1.35 Y-0.6693 I-0.2552 J-0.1009
G01 X-1.242 Y-0.6552
G03 X-1.2716 Y-0.5594 I-0.3254 J-0.0482
G03 X-1.3329 Y-0.4801 I-0.2278 J-0.1126
G03 X-1.4165 Y-0.432 I-0.1635 J-0.1878
G03 X-1.5118 Y-0.4172 I-0.0924 J-0.2801
G03 X-1.6282 Y-0.4374 I-0.0043 J-0.3206
G03 X-1.726 Y-0.5039 I0.095 J-0.245
G03 X-1.7898 Y-0.6211 I0.2125 J-0.1917
G03 X-1.8013 Y-0.6758 I0.4665 J-0.1262
G00 Z90.0
G00 X-1.1879 Y-0.7175
G01 Z10
G03 X-1.1889 Y-0.7559 I0.4736 J-0.0322
G03 X-1.1682 Y-0.9003 I0.4626 J-0.0074
G03 X-1.0888 Y-1.0227 I0.2581 J0.0806
G03 X-0.9935 Y-1.0775 I0.1888 J0.2177
G03 X-0.885 Y-1.0947 I0.1055 J0.3158
G03 X-0.7664 Y-1.0739 I0.004 J0.3249
G03 X-0.6664 Y-1.0068 I-0.1011 J0.2587
G03 X-0.6 Y-0.8944 I-0.2035 J0.1961
G03 X-0.5816 Y-0.7651 I-0.4055 J0.1237
G03 X-0.5891 Y-0.6643 I-0.6222 J0.0045
G03 X-0.6194 Y-0.5679 I-0.3177 J-0.0471
G03 X-0.7287 Y-0.4569 I-0.2343 J-0.1212
G03 X-0.885 Y-0.4172 I-0.1534 J-0.2767
G03 X-1.0043 Y-0.4376 I-0.0043 J-0.3348
G03 X-1.1053 Y-0.5045 I0.0972 J-0.2562
G03 X-1.1715 Y-0.6221 I0.2064 J-0.1936
G03 X-1.1879 Y-0.7175 I0.4572 J-0.1275
G00 Z90.0
G00 X-1.0752 Y-0.7247
G01 Z10
G02 X-1.0653 Y-0.6578 I0.4103 J-0.0263
G02 X-1.0217 Y-0.5692 I0.2048 J-0.0459
G02 X-0.885 Y-0.5075 I0.1331 J-0.1128
G02 X-0.7488 Y-0.5698 I0.0031 J-0.1731
G02 X-0.7051 Y-0.6599 I-0.1623 J-0.1345
G02 X-0.6945 Y-0.7596 I-0.4179 J-0.0945
G02 X-0.7055 Y-0.8555 I-0.3822 J-0.0047
G02 X-0.7495 Y-0.9415 I-0.1997 J0.0478
G02 X-0.885 Y-1.0037 I-0.1327 J0.1102
G02 X-1.0217 Y-0.9421 I-0.0036 J0.1745
G02 X-1.0654 Y-0.8538 I0.1586 J0.1334
G02 X-1.076 Y-0.7559 I0.3993 J0.0929
G02 X-1.0752 Y-0.7247 I0.4111 J0.005
G00 Z90.0
G00 X-0.4553
G01 Z10
G01 Y-1.08
G01 X-0.3454
G01 Y-0.7205
G02 X-0.3444 Y-0.6624 I1.4786 J0.0036
G02 X-0.3387 Y-0.6046 I0.3797 J-0.0083
G02 X-0.2947 Y-0.5362 I0.1134 J-0.0246
G02 X-0.2117 Y-0.5118 I0.0785 J-0.1135
G02 X-0.119 Y-0.5368 I0.0005 J-0.1825
G02 X-0.0579 Y-0.6058 I-0.0693 J-0.1228
G02 X-0.043 Y-0.6684 I-0.2252 J-0.0867
G02 X-0.0396 Y-0.7327 I-0.5467 J-0.0612
G01 Y-1.08
G01 X0.0702
G01 Y-0.4318
G01 X-0.028
G01 Y-0.5271
G03 X-0.1164 Y-0.4451 I-0.2129 J-0.1411
G03 X-0.2337 Y-0.4172 I-0.1132 J-0.2154
G03 X-0.3411 Y-0.4392 I-0.0019 J-0.2643
G03 X-0.3816 Y-0.4619 I0.092 J-0.2112
G03 X-0.415 Y-0.4941 I0.0855 J-0.1221
G03 X-0.4485 Y-0.5759 I0.1764 J-0.1202
G03 X-0.4541 Y-0.627 I0.3548 J-0.0646
G03 X-0.4553 Y-0.6784 I1.039 J-0.0488
G01 Y-0.7247
G00 Z90.0
G00 X0.2141 Y-0.9794
G01 Z10
G01 X0.1758 Y-1.08
G01 X0.2918
G01 X0.431 Y-0.6918
G03 X0.4725 Y-0.5612 I-1.7817 J0.638
G03 X0.5134 Y-0.6845 I1.8234 J0.5364
G01 X0.6574 Y-1.08
G01 X0.7703
G01 X0.525 Y-0.4318
G01 X0.4224
G01 X0.2141 Y-0.9794
G00 Z90.0
G00 X0.8403 Y-0.8514
G01 Z10
G03 X0.8486 Y-0.8855 I0.4645 J0.0949
G03 X0.915 Y-1.0043 I0.2841 J0.0807
G03 X1.0144 Y-1.0732 I0.2022 J0.1858
G03 X1.1335 Y-1.0947 I0.1149 J0.2965
G03 X1.2493 Y-1.0735 I0.0039 J0.3059
G03 X1.3459 Y-1.0062 I-0.102 J0.2494
G03 X1.4109 Y-0.8895 I-0.2135 J0.1954
G03 X1.4283 Y-0.7572 I-0.449 J0.1264
G03 X1.4277 Y-0.7279 I-1.0966 J-0.0082
G01 X0.9443
G02 X0.9599 Y-0.6407 I0.3354 J-0.0152
G02 X1.0047 Y-0.5643 I0.1919 J-0.0611
G02 X1.1402 Y-0.5075 I0.1312 J-0.1231
G02 X1.2433 Y-0.5393 I0.0046 J-0.1684
G02 X1.2846 Y-0.585 I-0.1021 J-0.1336
G02 X1.3111 Y-0.6406 I-0.2417 J-0.1493
G01 X1.4246 Y-0.6265
G03 X1.388 Y-0.5409 I-0.3042 J-0.0793
G03 X1.3251 Y-0.4721 I-0.2174 J-0.1357
G03 X1.2369 Y-0.4293 I-0.1547 J-0.2068
G03 X1.1396 Y-0.4172 I-0.0938 J-0.3553
G03 X1.0175 Y-0.437 I-0.0049 J-0.3567
G03 X0.9138 Y-0.5045 I0.0909 J-0.2531
G03 X0.8484 Y-0.6194 I0.2096 J-0.1951
G03 X0.8307 Y-0.7504 I0.4329 J-0.1252
G03 X0.8403 Y-0.8514 I0.474 J-0.0061
G00 Z90.0
G00 X0.9521 Y-0.8367
G01 Z10
G02 X0.9504 Y-0.8182 I0.2367 J0.0312
G01 X1.3123
G02 X1.3006 Y-0.8826 I-0.3247 J0.026
G02 X1.2708 Y-0.9409 I-0.1583 J0.0441
G02 X1.1347 Y-1.0043 I-0.1318 J0.1049
G02 X1.0071 Y-0.9537 I-0.0041 J0.1756
G02 X0.966 Y-0.8913 I0.127 J0.1285
G02 X0.9521 Y-0.8367 I0.2228 J0.0859
G00 Z90.0
G00 X1.5613
G01 Z10
G01 Y-1.08
G01 X1.6602
G01 Y-0.9818
G03 X1.6904 Y-1.0307 I0.4403 J0.238
G03 X1.7298 Y-1.0727 I0.1471 J0.0985
G03 X1.8006 Y-1.0947 I0.0703 J0.1014
G03 X1.9135 Y-1.0593 I-0.0055 J0.2153
G01 X1.8757 Y-0.9574
G02 X1.7951 Y-0.9812 I-0.0833 J0.1339
G02 X1.7304 Y-0.9592 I-0.0009 J0.1037
G02 X1.6895 Y-0.8994 I0.0705 J0.0921
G02 X1.6712 Y-0.7712 I0.4105 J0.124
G01 Y-0.4318
G01 X1.5613
G01 Y-0.8367
G00 Z90.0
G00 X2.3515
G01 Z10
G01 Y-1.3266
G01 X2.5298
G01 X2.7416 Y-0.6931
G03 X2.7843 Y-0.5606 I-6.5273 J2.1787
G03 X2.8319 Y-0.7041 I6.1401 J1.9584
G01 X3.0461 Y-1.3266
G01 X3.2054
G01 Y-0.4318
G01 X3.0913
G01 Y-1.1807
G01 X2.8313 Y-0.4318
G01 X2.7245
G01 X2.4657 Y-1.1936
G01 Y-0.4318
G01 X2.3515
G01 Y-0.8367
G00 Z90.0
G00 X3.383
G01 Z10
G01 Y-1.08
G01 X3.4929
G01 Y-0.4318
G01 X3.383
G01 Y-0.8367
G00 Z90.0
G00 X3.6601
G01 Z10
G01 Y-1.08
G01 X3.759
G01 Y-0.9879
G03 X3.8479 Y-1.0688 I0.1969 J0.127
G03 X3.9653 Y-1.0947 I0.1124 J0.2309
G03 X4.0727 Y-1.0733 I0.0031 J0.2654
G03 X4.1135 Y-1.051 I-0.0792 J0.1929
G03 X4.1466 Y-1.0184 I-0.0813 J0.1156
G03 X4.1808 Y-0.9372 I-0.1745 J0.1213
G03 X4.1859 Y-0.8839 I-0.3821 J0.0637
G03 X4.1869 Y-0.8304 I-1.296 J0.0502
G01 Y-0.4318
G01 X4.077
G01 Y-0.8261
G02 X4.0747 Y-0.8767 I-0.5037 J-0.0026
G02 X4.0642 Y-0.9262 I-0.1974 J0.0161
G02 X4.0184 Y-0.9793 I-0.0968 J0.0372
G02 X3.9421 Y-0.9995 I-0.0729 J0.1216
G02 X3.8207 Y-0.9549 I-0.0032 J0.1791
G02 X3.7935 Y-0.9184 I0.0783 J0.0865
G02 X3.7746 Y-0.8534 I0.2036 J0.0946
G02 X3.77 Y-0.7858 I0.4518 J0.0645
G01 Y-0.4318
G01 X3.6601
G01 Y-0.8367
G00 Z90.0
G00 X3.4929 Y-1.2003
G01 Z10
G01 X3.383
G01 Y-1.3266
G01 X3.4929
G01 Y-1.2003
G00 Z90.0
G00 X4.3559
G01 Z10
G01 Y-1.3266
G01 X4.4658
G01 Y-1.2003
G01 X4.3559
G00 Z90.0
G00 Y-1.08
G01 Z10
G01 X4.4658
G01 Y-0.4318
G01 X4.3559
G01 Y-1.08
G00 Z90.0
G00 X4.1597 Y0.3747
G01 Z10
G03 X4.252 Y0.3987 I-0.0532 J0.3942
G03 X4.3776 Y0.4862 I-0.1326 J0.3242
G03 X4.462 Y0.6379 I-0.2776 J0.254
G03 X4.4847 Y0.81 I-0.5837 J0.1643
G03 X4.4839 Y0.848 I-1.4255 J-0.0106
G01 X3.8555
G02 X3.8758 Y0.9614 I0.4361 J-0.0198
G02 X3.934 Y1.0607 I0.2495 J-0.0795
G02 X4.1102 Y1.1345 I0.1705 J-0.16
G02 X4.2443 Y1.0932 I0.006 J-0.219
G02 X4.2979 Y1.0338 I-0.1328 J-0.1736
G02 X4.3323 Y0.9615 I-0.3142 J-0.1941
G01 X4.4799 Y0.9798
G03 X4.4323 Y1.0911 I-0.3955 J-0.1031
G03 X4.3506 Y1.1805 I-0.2826 J-0.1764
G03 X4.2359 Y1.2361 I-0.2011 J-0.2688
G03 X4.1094 Y1.2519 I-0.1219 J-0.4619
G03 X3.9506 Y1.2262 I-0.0064 J-0.4637
G03 X3.8158 Y1.1384 I0.1182 J-0.329
G03 X3.7309 Y0.989 I0.2724 J-0.2536
G03 X3.7079 Y0.8187 I0.5628 J-0.1627
G03 X3.7311 Y0.6432 I0.6163 J-0.0079
G03 X3.8174 Y0.4886 I0.3693 J0.1049
G03 X3.9467 Y0.3991 I0.2628 J0.2415
G03 X4.1015 Y0.3712 I0.1494 J0.3854
G03 X4.1597 Y0.3747 I0.005 J0.3977
G00 Z90.0
G00 X4.1419 Y0.4911
G01 Z10
G02 X4.103 Y0.4886 I-0.0332 J0.2164
G02 X3.9372 Y0.5545 I-0.0054 J0.2282
G02 X3.8837 Y0.6356 I0.1651 J0.167
G02 X3.8634 Y0.7306 I0.2896 J0.1116
G01 X4.3339
G02 X4.3187 Y0.6469 I-0.4221 J0.0337
G02 X4.28 Y0.5711 I-0.2058 J0.0573
G02 X4.1419 Y0.4911 I-0.1713 J0.1363
G00 Z90.0
G00 X3.6706 Y0.4172
G01 Z10
G01 X3.6214 Y0.5497
G02 X3.5167 Y0.5188 I-0.1084 J0.174
G02 X3.4326 Y0.5473 I-0.0011 J0.1348
G02 X3.3794 Y0.6251 I0.0916 J0.1197
G02 X3.3556 Y0.7917 I0.5336 J0.1612
G01 Y1.2329
G01 X3.2128
G01 Y0.3902
G01 X3.3413
G01 Y0.518
G03 X3.3806 Y0.4543 I0.5723 J0.3093
G03 X3.4318 Y0.3997 I0.1912 J0.128
G03 X3.5238 Y0.3712 I0.0914 J0.1319
G03 X3.6706 Y0.4172 I-0.0072 J0.2799
G00 Z90.0
G00 X2.997
G01 Z10
G01 Y1.2329
G01 X2.8541
G01 Y0.3902
G01 X2.997
G01 Y0.4172
G00 Z90.0
G00 Y0.2339
G01 Z10
G01 X2.8541
G01 Y0.0697
G01 X2.997
G01 Y0.2339
G00 Z90.0
G00 X2.5955 Y0.4823
G01 Z10
G03 X2.6248 Y0.5576 I-0.1894 J0.1172
G03 X2.6309 Y0.6234 I-0.4824 J0.0774
G03 X2.632 Y0.6894 I-1.7302 J0.0621
G01 Y0.8798
G02 X2.6331 Y1.0061 I5.8846 J0.0086
G02 X2.6407 Y1.1321 I1.1963 J-0.0085
G02 X2.6772 Y1.2329 I0.3202 J-0.059
G01 X2.528
G03 X2.4995 Y1.1289 I0.2744 J-0.1313
G03 X2.3463 Y1.2241 I-0.3551 J-0.4003
G03 X2.1892 Y1.2519 I-0.1536 J-0.4107
G03 X2.0762 Y1.238 I-0.0053 J-0.422
G03 X1.9758 Y1.1845 I0.0624 J-0.2383
G03 X1.9012 Y1.0107 I0.1505 J-0.1675
G03 X1.929 Y0.898 I0.2311 J-0.0028
G03 X2.0028 Y0.8155 I0.209 J0.1127
G03 X2.1059 Y0.7687 I0.1954 J0.2935
G03 X2.2329 Y0.7473 I0.2422 J1.0481
G02 X2.3614 Y0.7287 I-0.2677 J-2.3019
G02 X2.4876 Y0.6981 I-0.1395 J-0.8511
G02 X2.4884 Y0.6608 I-2.4525 J-0.0708
G02 X2.4808 Y0.5951 I-0.2573 J-0.0038
G02 X2.4479 Y0.5378 I-0.111 J0.0257
G02 X2.3709 Y0.499 I-0.1186 J0.1396
G02 X2.2852 Y0.4894 I-0.0814 J0.3386
G02 X2.208 Y0.4961 I-0.0041 J0.4046
G02 X2.1361 Y0.5251 I0.0298 J0.1773
G02 X2.0904 Y0.5815 I0.0973 J0.1255
G02 X2.0654 Y0.6497 I0.2938 J0.1462
G01 X1.9258 Y0.6306
G03 X1.9488 Y0.5548 I0.4239 J0.0873
G03 X1.9885 Y0.4862 I0.2636 J0.1067
G03 X2.0455 Y0.4348 I0.1827 J0.1453
G03 X2.1146 Y0.4013 I0.1772 J0.2779
G03 X2.3059 Y0.3712 I0.1814 J0.529
G03 X2.3946 Y0.3763 I0.0036 J0.7096
G03 X2.4812 Y0.3966 I-0.0442 J0.3839
G03 X2.5349 Y0.4223 I-0.1088 J0.296
G03 X2.5804 Y0.4608 I-0.0914 J0.1539
G03 X2.5955 Y0.4823 I-0.1743 J0.1386
G00 Z90.0
G00 X2.4876 Y0.81
G01 Z10
G03 X2.3724 Y0.8433 I-0.2555 J-0.6666
G03 X2.2543 Y0.8639 I-0.3606 J-1.7189
G02 X2.1912 Y0.8748 I0.1465 J1.0408
G02 X2.1297 Y0.8925 I0.0635 J0.336
G02 X2.0734 Y0.9393 I0.0472 J0.1141
G02 X2.0535 Y1.0067 I0.1002 J0.0661
G02 X2.0964 Y1.1019 I0.1221 J0.0023
G02 X2.1565 Y1.1323 I0.0943 J-0.1118
G02 X2.2233 Y1.14 I0.0637 J-0.2588
G02 X2.3701 Y1.1043 I0.0053 J-0.2976
G02 X2.4645 Y1.0051 I-0.1078 J-0.1971
G02 X2.4833 Y0.9349 I-0.2208 J-0.0966
G02 X2.4876 Y0.8623 I-0.5576 J-0.069
G01 Y0.81
G00 Z90.0
G00 X1.683 Y0.7044
G01 Z10
G01 X1.1371
G01 Y1.2329
G01 X0.9832
G01 Y0.0697
G01 X1.7679
G01 Y0.2069
G01 X1.1371
G01 Y0.5672
G01 X1.683
G01 Y0.7044
G00 Z90.0
G00 X0.401 Y0.4172
G01 Z10
G01 X0.3518 Y0.5497
G02 X0.2471 Y0.5188 I-0.1084 J0.174
G02 X0.163 Y0.5473 I-0.0011 J0.1348
G02 X0.1098 Y0.6251 I0.0916 J0.1197
G02 X0.086 Y0.7917 I0.5336 J0.1612
G01 Y1.2329
G01 X-0.0568
G01 Y0.3902
G01 X0.0717
G01 Y0.518
G03 X0.111 Y0.4543 I0.5723 J0.3093
G03 X0.1622 Y0.3997 I0.1912 J0.128
G03 X0.2542 Y0.3712 I0.0914 J0.1319
G03 X0.401 Y0.4172 I-0.0072 J0.2799
G00 Z90.0
G00 X-0.2559 Y0.6262
G01 Z10
G03 X-0.2524 Y0.6379 I-0.3586 J0.1141
G03 X-0.2298 Y0.81 I-0.5837 J0.1643
G03 X-0.2306 Y0.848 I-1.4255 J-0.0106
G01 X-0.859
G02 X-0.8386 Y0.9614 I0.4361 J-0.0198
G02 X-0.7804 Y1.0607 I0.2495 J-0.0795
G02 X-0.6043 Y1.1345 I0.1705 J-0.16
G02 X-0.4702 Y1.0932 I0.006 J-0.219
G02 X-0.4166 Y1.0338 I-0.1328 J-0.1736
G02 X-0.3821 Y0.9615 I-0.3142 J-0.1941
G01 X-0.2345 Y0.9798
G03 X-0.2821 Y1.0911 I-0.3955 J-0.1031
G03 X-0.3639 Y1.1805 I-0.2826 J-0.1764
G03 X-0.4786 Y1.2361 I-0.2011 J-0.2688
G03 X-0.6051 Y1.2519 I-0.1219 J-0.4619
G03 X-0.7639 Y1.2262 I-0.0064 J-0.4637
G03 X-0.8987 Y1.1384 I0.1182 J-0.329
G03 X-0.9836 Y0.989 I0.2724 J-0.2536
G03 X-1.0066 Y0.8187 I0.5628 J-0.1627
G03 X-0.9834 Y0.6432 I0.6163 J-0.0079
G03 X-0.8971 Y0.4886 I0.3693 J0.1049
G03 X-0.7678 Y0.3991 I0.2628 J0.2415
G03 X-0.613 Y0.3712 I0.1494 J0.3854
G03 X-0.4625 Y0.3987 I0.005 J0.3977
G03 X-0.3369 Y0.4862 I-0.1326 J0.3242
G03 X-0.2559 Y0.6262 I-0.2776 J0.254
G00 Z90.0
G00 X-0.3921 Y0.6606
G01 Z10
G02 X-0.3958 Y0.6469 I-0.4105 J0.1038
G02 X-0.4345 Y0.5711 I-0.2058 J0.0573
G02 X-0.6114 Y0.4886 I-0.1713 J0.1363
G02 X-0.7773 Y0.5545 I-0.0054 J0.2282
G02 X-0.8307 Y0.6356 I0.1651 J0.167
G02 X-0.851 Y0.7306 I0.2896 J0.1116
G01 X-0.3805
G02 X-0.3921 Y0.6606 I-0.4221 J0.0337
G00 Z90.0
G00 X-1.105 Y0.3902
G01 Z10
G01 X-1.4271 Y0.7028
G01 X-1.0724 Y1.2329
G01 X-1.2486
G01 X-1.5271 Y0.802
G01 X-1.6278 Y0.8988
G01 Y1.2329
G01 X-1.7707
G01 Y0.0697
G01 X-1.6278
G01 Y0.733
G01 X-1.2898 Y0.3902
G01 X-1.105
G00 Z90.0
G00 X-2.0 Y0.5576
G01 Z10
G03 X-1.9939 Y0.6234 I-0.4824 J0.0774
G03 X-1.9928 Y0.6894 I-1.7302 J0.0621
G01 Y0.8798
G02 X-1.9917 Y1.0061 I5.8846 J0.0086
G02 X-1.9841 Y1.1321 I1.1963 J-0.0085
G02 X-1.9476 Y1.2329 I0.3202 J-0.059
G01 X-2.0968
G03 X-2.1253 Y1.1289 I0.2744 J-0.1313
G03 X-2.2785 Y1.2241 I-0.3551 J-0.4003
G03 X-2.4356 Y1.2519 I-0.1536 J-0.4107
G03 X-2.5486 Y1.238 I-0.0053 J-0.422
G03 X-2.649 Y1.1845 I0.0624 J-0.2383
G03 X-2.7236 Y1.0107 I0.1505 J-0.1675
G03 X-2.6958 Y0.898 I0.2311 J-0.0028
G03 X-2.622 Y0.8155 I0.209 J0.1127
G03 X-2.5189 Y0.7687 I0.1954 J0.2935
G03 X-2.3919 Y0.7473 I0.2422 J1.0481
G02 X-2.2634 Y0.7287 I-0.2677 J-2.3019
G02 X-2.1372 Y0.6981 I-0.1395 J-0.8511
G02 X-2.1364 Y0.6608 I-2.4525 J-0.0708
G02 X-2.144 Y0.5951 I-0.2573 J-0.0038
G02 X-2.1769 Y0.5378 I-0.111 J0.0257
G02 X-2.2539 Y0.499 I-0.1186 J0.1396
G02 X-2.3396 Y0.4894 I-0.0814 J0.3386
G02 X-2.4168 Y0.4961 I-0.0041 J0.4046
G02 X-2.4887 Y0.5251 I0.0298 J0.1773
G02 X-2.5344 Y0.5815 I0.0973 J0.1255
G02 X-2.5594 Y0.6497 I0.2938 J0.1462
G01 X-2.699 Y0.6306
G03 X-2.676 Y0.5548 I0.4239 J0.0873
G03 X-2.6363 Y0.4862 I0.2636 J0.1067
G03 X-2.5793 Y0.4348 I0.1827 J0.1453
G03 X-2.5102 Y0.4013 I0.1772 J0.2779
G03 X-2.3189 Y0.3712 I0.1814 J0.529
G03 X-2.2302 Y0.3763 I0.0036 J0.7096
G03 X-2.1436 Y0.3966 I-0.0442 J0.3839
G03 X-2.0899 Y0.4223 I-0.1088 J0.296
G03 X-2.0444 Y0.4608 I-0.0914 J0.1539
G03 X-2.0 Y0.5576 I-0.1743 J0.1386
G00 Z90.0
G00 X-2.1372 Y0.81
G01 Z10
G03 X-2.2524 Y0.8433 I-0.2555 J-0.6666
G03 X-2.3705 Y0.8639 I-0.3606 J-1.7189
G02 X-2.4336 Y0.8748 I0.1465 J1.0408
G02 X-2.4951 Y0.8925 I0.0635 J0.336
G02 X-2.5514 Y0.9393 I0.0472 J0.1141
G02 X-2.5713 Y1.0067 I0.1002 J0.0661
G02 X-2.5284 Y1.1019 I0.1221 J0.0023
G02 X-2.4683 Y1.1323 I0.0943 J-0.1118
G02 X-2.4015 Y1.14 I0.0637 J-0.2588
G02 X-2.2547 Y1.1043 I0.0053 J-0.2976
G02 X-2.1603 Y1.0051 I-0.1078 J-0.1971
G02 X-2.1415 Y0.9349 I-0.2208 J-0.0966
G02 X-2.1372 Y0.8623 I-0.5576 J-0.069
G01 Y0.81
( Pocket1 )
S10000
G00 Z90.0
G00 X-4.7842 Y1.8811
G01 F20.0 Z10
G01 F80.0 X-4.7433
G03 X-4.7842 Y1.7902 I0.1276 J-0.1122
G01 Y1.8811
G00 Z90.0
G00 Y-1.7792
G01 F20.0 Z10
G03 F80.0 X-4.7634 Y-1.8419 I0.1686 J0.0213
G01 X-4.7842
G01 Y-1.7792
G00 Z90.0
G00 X5.1617 Y1.8811
G01 F20.0 Z10
G01 F80.0 X5.1744
G01 Y1.8647
G03 X5.1617 Y1.8811 I-0.1404 J-0.0958
G01 F20.0 Y1.9211
G01 F80.0 X5.2144
G01 Y-1.8819
G01 X5.073
G03 X5.164 Y-1.758 I-0.039 J0.1239
G01 Y1.769
G03 X5.034 Y1.8989 I-0.1299 J0.0
G01 X-4.6156
G03 X-4.7455 Y1.769 I0.0 J-0.1299
G01 Y-1.758
G03 X-4.6546 Y-1.8819 I0.1299 J0.0
G01 X-4.8242
G01 Y1.9211
G01 X5.1617
G00 Z90.0
G00 X5.0918 Y1.8378
G01 F20.0 Z10
G03 F80.0 X5.034 Y1.8589 I-0.0578 J-0.0689
G01 X-4.6156
G03 X-4.7055 Y1.769 I0.0 J-0.0899
G01 Y-1.758
G03 X-4.6156 Y-1.8479 I0.0899 J0.0
G01 X5.034
G03 X5.124 Y-1.758 I0.0 J0.0899
G01 Y1.769
G03 X5.0918 Y1.8378 I-0.0899 J0.0
G01 F20.0 X5.0662 Y1.8073
G03 F80.0 X5.034 Y1.819 I-0.0321 J-0.0383
G01 X-4.6156
G03 X-4.6656 Y1.769 I0.0 J-0.05
G01 Y-1.758
G03 X-4.6156 Y-1.808 I0.05 J0.0
G01 X5.034
G03 X5.084 Y-1.758 I0.0 J0.05
G01 Y1.769
G03 X5.0662 Y1.8073 I-0.05 J0.0
G00 Z90.0
G00 Y1.9611
G01 F20.0 Z10
G01 F80.0 X5.2544
G01 Y-1.9219
G01 X-4.8642
G01 Y1.9611
G01 X5.0662
G01 F20.0 Y2.0011
G01 F80.0 X5.2944
G01 Y-1.9619
G01 X-4.9042
G01 Y2.0011
G01 X5.0662
( Pocket2 )
S10000
G00 Z90.0
G00 X-3.581 Y-0.6327
G01 F20.0 Z10
G01 F80.0 X-3.3288 Y-1.2766
G01 X-3.3417
G01 X-3.5712 Y-0.6592
G03 X-3.5713 Y-0.659 I-0.0469 J-0.0174
G02 X-3.581 Y-0.6327 I1.7005 J0.6388
G00 Z90.0
G00 X-3.637 Y-0.4896
G01 F20.0 Z10
G01 F80.0 X-3.64 Y-0.4818
G01 X-3.6533
G02 X-3.637 Y-0.4896 I-0.0131 J-0.0483
G01 F20.0 X-3.6794 Y-0.4818
G01 F80.0 X-3.6931
G01 X-3.6963 Y-0.4901
G02 X-3.6794 Y-0.4818 I0.03 J-0.04
G00 Z90.0
G00 X-3.7452 Y-0.6163
G01 F20.0 Z10
G02 F80.0 X-3.7603 Y-0.6596 I-1.9125 J0.6443
G03 X-3.7604 Y-0.6597 I0.047 J-0.017
G01 X-3.9811 Y-1.2766
G01 X-4.001
G01 X-3.7452 Y-0.6163
G00 Z90.0
G00 X-3.1506 Y-0.6069
G01 F20.0 Z10
G03 F80.0 X-3.1353 Y-0.6656 I0.1277 J0.002
G01 X-3.1352 Y-0.6657
G03 X-3.0944 Y-0.7115 I0.1168 J0.0629
G03 X-3.0716 Y-0.7248 I0.1222 J0.1844
G02 X-3.11 Y-0.6851 I0.083 J0.1188
G02 X-3.1334 Y-0.606 I0.1189 J0.0782
G02 X-3.0829 Y-0.4945 I0.1439 J0.002
G02 X-3.0827 Y-0.4943 I0.0324 J-0.038
G02 X-3.0598 Y-0.4781 I0.1048 J-0.1243
G03 X-3.11 Y-0.5064 I0.0418 J-0.1331
G03 X-3.1506 Y-0.6013 I0.0826 J-0.0915
G02 Y-0.6033 I-0.05 J-0.0014
G03 Y-0.6069 I0.1277 J-0.0016
G00 Z90.0
G00 X-3.1087 Y-0.9356
G01 F20.0 Z10
G03 F80.0 X-3.1 Y-0.9549 I0.2797 J0.1152
G03 X-3.0689 Y-0.9994 I0.1549 J0.0752
G02 X-3.0942 Y-0.9752 I0.076 J0.105
G02 X-3.1168 Y-0.9367 I0.133 J0.1039
G01 X-3.1087 Y-0.9356
G00 Z90.0
G00 X-2.8017 Y-1.0369
G01 F20.0 Z10
G03 F80.0 X-2.7477 Y-1.0046 I-0.0697 J0.1778
G03 X-2.7458 Y-1.0029 I-0.0324 J0.0381
G03 X-2.7061 Y-0.9341 I-0.0943 J0.1003
G03 X-2.699 Y-0.8712 I-0.2407 J0.0593
G03 X-2.6996 Y-0.8418 I-1.9371 J-0.0265
G03 X-2.7241 Y-0.8002 I-0.05 J-0.0014
G03 X-2.6996 Y-0.7572 I-0.0255 J0.043
G01 Y-0.717
G03 X-2.7032 Y-0.6552 I-0.4822 J0.0029
G03 X-2.7215 Y-0.587 I-0.2339 J-0.0261
G03 X-2.7223 Y-0.5852 I-0.0458 J-0.02
G03 X-2.7356 Y-0.5616 I-0.2005 J-0.0971
G03 X-2.6906 Y-0.5163 I-0.0048 J0.0498
G02 X-2.6842 Y-0.4818 I0.1832 J-0.0165
G01 X-2.6769
G03 X-2.6809 Y-0.5003 I0.2915 J-0.0729
G03 X-2.6815 Y-0.5037 I0.0492 J-0.0091
G03 X-2.6876 Y-0.6056 I0.9641 J-0.1091
G03 X-2.6885 Y-0.7035 I4.5757 J-0.0912
G01 Y-0.8499
G03 Y-0.85 I0.05 J0.0
G02 X-2.6893 Y-0.8989 I-1.2818 J-0.0028
G03 Y-0.8995 I0.05 J-0.0018
G02 X-2.6932 Y-0.9426 I-0.3258 J0.0078
G02 X-2.7168 Y-0.994 I-0.119 J0.0235
G02 X-2.7387 Y-1.0124 I-0.0666 J0.0571
G03 X-2.7389 Y-1.0125 I0.0255 J-0.043
G02 X-2.7715 Y-1.0282 I-0.0993 J0.1651
G02 X-2.8017 Y-1.0369 I-0.0835 J0.2327
G00 Z90.0
G00 X-2.4182 Y-0.9773
G01 F20.0 Z10
G02 F80.0 X-2.3803 Y-0.9391 I0.0489 J-0.0105
G02 X-2.4033 Y-0.8602 I0.2491 J0.1153
G02 X-2.4083 Y-0.7857 I0.5013 J0.0713
G01 Y-0.4818
G01 X-2.4182
G01 Y-0.9773
G00 Z90.0
G00 X-2.1336 Y-1.0431
G01 F20.0 Z10
G03 F80.0 X-2.0848 Y-1.0225 I-0.0492 J0.1853
G03 X-2.0175 Y-0.9441 I-0.0762 J0.1335
G03 X-2.017 Y-0.9428 I-0.0467 J0.0179
G03 X-2.0038 Y-0.8811 I-0.234 J0.0822
G03 X-2.0013 Y-0.826 I-0.5513 J0.0524
G01 Y-0.4818
G01 X-1.9915
G01 Y-0.8304
G03 Y-0.8305 I0.05 J0.0
G02 X-1.9924 Y-0.882 I-1.247 J-0.0032
G03 Y-0.8826 I0.05 J-0.0019
G02 X-1.9968 Y-0.9284 I-0.3372 J0.0091
G02 X-2.0225 Y-0.9894 I-0.1595 J0.0312
G02 X-2.0436 Y-1.0101 I-0.0736 J0.0541
G02 X-2.0746 Y-1.0271 I-0.0912 J0.1297
G03 X-2.0753 Y-1.0273 I0.019 J-0.0463
G02 X-2.1336 Y-1.0431 I-0.0847 J0.1981
G00 Z90.0
G00 X-1.7338 Y-0.8976
G01 F20.0 Z10
G03 F80.0 X-1.726 Y-0.9172 I0.3221 J0.1172
G02 X-1.7257 Y-0.9179 I-0.0458 J-0.02
G03 X-1.6468 Y-1.0085 I0.1766 J0.0741
G02 X-1.6799 Y-0.9769 I0.1342 J0.1737
G02 X-1.6805 Y-0.9762 I0.0381 J0.0324
G02 X-1.7329 Y-0.865 I0.1955 J0.1602
G02 X-1.7437 Y-0.7565 I0.4889 J0.1032
G02 X-1.7335 Y-0.6477 I0.5278 J0.0054
G02 X-1.7334 Y-0.6473 I0.049 J-0.0098
G02 X-1.7157 Y-0.5903 I0.3047 J-0.0635
G02 X-1.6822 Y-0.5349 I0.2025 J-0.0846
G02 X-1.6583 Y-0.5103 I0.1642 J-0.1355
G03 X-1.6891 Y-0.5376 I0.125 J-0.1721
G03 X-1.7416 Y-0.6341 I0.1756 J-0.158
G03 X-1.7566 Y-0.7529 I0.4182 J-0.1132
G02 Y-0.7537 I-0.05 J-0.0006
G03 X-1.7495 Y-0.8386 I0.4844 J-0.0023
G01 Y-0.8387
G03 X-1.7338 Y-0.8976 I0.3378 J0.0583
G00 Z90.0
G00 X-1.3858 Y-1.0134
G01 F20.0 Z10
G03 F80.0 X-1.3811 Y-1.0095 I-0.1175 J0.1477
G03 X-1.3809 Y-1.0093 I-0.0324 J0.0381
G03 X-1.3338 Y-0.9493 I-0.128 J0.1489
G03 X-1.3246 Y-0.9291 I-0.2476 J0.1258
G01 X-1.3164 Y-0.9303
G02 X-1.3255 Y-0.9495 I-0.2176 J0.0919
G02 X-1.3695 Y-1.0018 I-0.1495 J0.0812
G02 X-1.3858 Y-1.0134 I-0.1138 J0.1434
G00 Z90.0
G00 X-1.1143 Y-0.9028
G01 F20.0 Z10
G02 F80.0 X-1.1205 Y-0.8855 I0.2041 J0.0831
G02 X-1.1389 Y-0.7567 I0.3942 J0.1221
G03 Y-0.7553 I-0.05 J0.0008
G02 X-1.1233 Y-0.6355 I0.4246 J0.0056
G02 X-1.069 Y-0.5388 I0.2245 J-0.0626
G02 X-1.0217 Y-0.5013 I0.1618 J-0.1549
G03 X-1.0598 Y-0.5368 I0.1332 J-0.1807
G03 X-1.0601 Y-0.5371 I0.0381 J-0.0323
G03 X-1.1141 Y-0.6466 I0.1996 J-0.1665
G03 X-1.126 Y-0.7559 I0.4491 J-0.1044
G03 X-1.1141 Y-0.865 I0.4599 J-0.005
G03 X-1.0599 Y-0.9743 I0.2511 J0.0563
G03 X-1.0598 Y-0.9744 I0.0383 J0.0322
G03 X-1.024 Y-1.0083 I0.1713 J0.1451
G02 X-1.0559 Y-0.985 I0.124 J0.2033
G02 X-1.1143 Y-0.9028 I0.1457 J0.1653
G00 Z90.0
G00 X-1.3036 Y-0.6128
G01 F20.0 Z10
G03 F80.0 X-1.3165 Y-0.5814 I-0.2638 J-0.0906
G03 X-1.3525 Y-0.5304 I-0.1829 J-0.0906
G02 X-1.3205 Y-0.5852 I-0.159 J-0.1296
G02 X-1.3107 Y-0.6137 I-0.3017 J-0.1192
G01 X-1.3036 Y-0.6128
G00 Z90.0
G00 X-0.7413 Y-0.5073
G01 F20.0 Z10
G02 F80.0 X-0.664 Y-0.5906 I-0.1124 J-0.1819
G02 X-0.6385 Y-0.6717 I-0.2427 J-0.1208
G03 Y-0.6721 I0.0495 J0.0073
G02 X-0.6316 Y-0.7647 I-0.5653 J-0.0886
G03 Y-0.7658 I0.05 J-0.0004
G02 X-0.6478 Y-0.8797 I-0.3739 J-0.0049
G02 X-0.7024 Y-0.9721 I-0.2221 J0.069
G03 X-0.7026 Y-0.9723 I0.036 J-0.0347
G02 X-0.7499 Y-1.0102 I-0.1649 J0.1572
G03 X-0.7113 Y-0.9737 I-0.1322 J0.179
G03 X-0.6569 Y-0.8673 I-0.194 J0.1661
G03 X-0.6445 Y-0.7596 I-0.4198 J0.103
G03 X-0.6562 Y-0.6491 I-0.4785 J0.0051
G03 X-0.7104 Y-0.5379 I-0.2549 J-0.0552
G03 Y-0.5378 I-0.0385 J-0.0319
G03 X-0.7413 Y-0.5073 I-0.1714 J-0.1429
G00 Z90.0
G00 X-0.3985 Y-0.5803
G01 F20.0 Z10
G02 F80.0 X-0.3744 Y-0.5233 I0.1599 J-0.034
G02 X-0.3529 Y-0.5028 I0.0782 J-0.0606
G01 X-0.3528
G02 X-0.3212 Y-0.485 I0.1037 J-0.1476
G02 X-0.2729 Y-0.4705 I0.0856 J-0.1965
G03 X-0.3232 Y-0.4951 I0.0566 J-0.1792
G03 X-0.3247 Y-0.4961 I0.0284 J-0.0411
G03 X-0.3876 Y-0.594 I0.0993 J-0.133
G03 X-0.3879 Y-0.5959 I0.0489 J-0.0106
G03 X-0.3944 Y-0.6609 I0.4232 J-0.0748
G03 X-0.3954 Y-0.7206 I1.5276 J-0.056
G01 Y-1.03
G01 X-0.4053
G01 Y-0.6784
G03 Y-0.6783 I-0.05 J0.0
G02 X-0.4042 Y-0.6293 I0.9902 J0.0025
G03 Y-0.6289 I-0.0499 J0.0023
G02 X-0.3994 Y-0.5849 I0.3105 J-0.0116
G02 X-0.3985 Y-0.5803 I0.1608 J-0.0294
G00 Z90.0
G00 X-0.0166 Y-0.5757
G01 F20.0 Z10
G02 F80.0 X-0.0117 Y-0.5867 I-0.1716 J-0.0839
G02 X-0.0113 Y-0.5878 I-0.0462 J-0.0191
G02 X0.0067 Y-0.6632 I-0.2719 J-0.1047
G02 X0.0104 Y-0.7329 I-0.5965 J-0.0664
G01 Y-1.03
G01 X0.0202
G01 Y-0.5401
G02 X-0.0166 Y-0.5757 I-0.0483 J0.0131
G00 Z90.0
G00 X0.3658 Y-0.7212
G01 F20.0 Z10
G01 F80.0 X0.3899 Y-0.6579
G02 X0.3839 Y-0.675 I-1.7406 J0.6041
G01 X0.2566 Y-1.03
G01 X0.2484
G01 X0.3658 Y-0.7212
G00 Z90.0
G00 X0.5551 Y-0.653
G01 F20.0 Z10
G02 F80.0 X0.5526 Y-0.6461 I1.7408 J0.6281
G01 X0.6979 Y-1.03
G01 X0.6924
G01 X0.5603 Y-0.6674
G03 Y-0.6672 I-0.047 J-0.0171
G02 X0.5551 Y-0.653 I1.7356 J0.6423
G00 Z90.0
G00 X0.5067 Y-0.5248
G01 F20.0 Z10
G01 F80.0 X0.4904 Y-0.4818
G01 X0.4569
G01 X0.4417 Y-0.5218
G02 X0.5067 Y-0.5248 I0.0308 J-0.0394
G00 Z90.0
G00 X0.8959 Y-0.6352
G01 F20.0 Z10
G02 F80.0 X0.8965 Y-0.6334 I0.3854 J-0.1094
G02 X0.9501 Y-0.5388 I0.2269 J-0.0662
G02 X1.0135 Y-0.4928 I0.1582 J-0.1513
G03 X0.9682 Y-0.5301 I0.1224 J-0.1946
G03 X0.9123 Y-0.6255 I0.1837 J-0.1717
G03 X0.8943 Y-0.7256 I0.3674 J-0.1176
G03 X0.9261 Y-0.7745 I0.0499 J-0.0023
G03 X0.9004 Y-0.8209 I0.0242 J-0.0437
G03 X0.9193 Y-0.9093 I0.2883 J0.0154
G03 X0.9195 Y-0.9096 I0.0467 J0.018
G03 X0.972 Y-0.9892 I0.2147 J0.0844
G01 Y-0.9893
G03 X0.9769 Y-0.994 I0.1586 J0.1605
G02 X0.9518 Y-0.9705 I0.1403 J0.1754
G02 X0.8967 Y-0.8718 I0.1808 J0.1657
G02 X0.8807 Y-0.7511 I0.4081 J0.1153
G03 Y-0.7498 I-0.05 J0.0006
G02 X0.8959 Y-0.6352 I0.4006 J0.0052
G00 Z90.0
G00 X1.2642 Y-0.493
G01 F20.0 Z10
G02 F80.0 X1.2726 Y-0.4987 I-0.1194 J-0.183
G02 X1.2737 Y-0.4995 I-0.0292 J-0.0406
G02 X1.3272 Y-0.5588 I-0.1325 J-0.1733
G02 X1.3424 Y-0.5863 I-0.2843 J-0.1755
G01 X1.3554 Y-0.5847
G03 X1.3455 Y-0.5672 I-0.235 J-0.1211
G03 X1.2951 Y-0.5121 I-0.1749 J-0.1093
G03 X1.2642 Y-0.493 I-0.1247 J-0.1668
G00 Z90.0
G00 X1.3419 Y-0.7779
G01 F20.0 Z10
G01 F80.0 X1.3781
G02 X1.3627 Y-0.876 I-0.4162 J0.0147
G02 X1.3137 Y-0.9671 I-0.2304 J0.0652
G03 X1.3487 Y-0.8962 I-0.1715 J0.1286
G03 X1.3622 Y-0.8222 I-0.361 J0.104
G03 X1.3419 Y-0.7779 I-0.0498 J0.004
G00 Z90.0
G00 X1.6113
G01 F20.0 Z10
G01 F80.0 Y-0.9712
G02 X1.6486 Y-0.9331 I0.0489 J-0.0105
G02 X1.6416 Y-0.9136 I0.1522 J0.066
G02 X1.6212 Y-0.771 I0.4584 J0.1382
G01 Y-0.4818
G01 X1.6113
G01 Y-0.7779
G00 Z90.0
G00 X1.7506 Y-1.0248
G01 F20.0 Z10
G03 F80.0 X1.7955 Y-1.0312 I0.0437 J0.1473
G03 X1.796 Y-1.0311 I-0.0004 J0.05
G03 X1.847 Y-1.0238 I-0.0037 J0.2076
G01 X1.8511 Y-1.035
G02 X1.7999 Y-1.0447 I-0.0561 J0.1556
G02 X1.7592 Y-1.0323 I0.0002 J0.0734
G02 X1.7506 Y-1.0248 I0.0783 J0.1
G00 Z90.0
G00 X2.4015
G01 F20.0 Z10
G01 F80.0 Y-1.2766
G01 X2.4938
G01 X2.6941 Y-0.6772
G03 X2.7032 Y-0.6498 I-6.4799 J2.1629
G01 X2.513 Y-1.2096
G02 X2.4157 Y-1.1936 I-0.0473 J0.0161
G01 Y-0.4818
G01 X2.4015
G01 Y-1.0248
G00 Z90.0
G00 X2.7432 Y-0.5321
G01 F20.0 Z10
G02 F80.0 X2.8077 Y-0.5165 I0.0411 J-0.0285
G01 X2.7957 Y-0.4818
G01 X2.7603
G01 X2.7432 Y-0.5321
G00 Z90.0
G00 X3.1413
G01 F20.0 Z10
G01 F80.0 Y-0.4818
G01 X3.1554
G01 Y-1.2766
G01 X3.0818
G01 X3.063 Y-1.222
G03 X3.1413 Y-1.1807 I0.0283 J0.0412
G01 Y-0.5321
G00 Z90.0
G00 X3.433
G01 F20.0 Z10
G01 F80.0 Y-0.4818
G01 X3.4429
G01 Y-1.03
G01 X3.433
G01 Y-0.5321
G00 Z90.0
G00 X3.7101
G01 F20.0 Z10
G01 F80.0 Y-0.9773
G02 X3.748 Y-0.9391 I0.0489 J-0.0105
G02 X3.725 Y-0.8602 I0.2491 J0.1153
G02 X3.72 Y-0.7857 I0.5013 J0.0713
G01 Y-0.4818
G01 X3.7101
G01 Y-0.5321
G00 Z90.0
G00 X4.127
G01 F20.0 Z10
G01 F80.0 Y-0.4818
G01 X4.1369
G01 Y-0.8304
G03 Y-0.8305 I0.05 J0.0
G02 X4.1359 Y-0.882 I-1.247 J-0.0032
G03 Y-0.8826 I0.05 J-0.0019
G02 X4.1316 Y-0.9284 I-0.3372 J0.0091
G02 X4.1058 Y-0.9894 I-0.1595 J0.0312
G02 X4.0847 Y-1.0101 I-0.0736 J0.0541
G02 X4.0537 Y-1.0271 I-0.0912 J0.1297
G03 X4.0531 Y-1.0273 I0.019 J-0.0463
G02 X3.9947 Y-1.0431 I-0.0847 J0.1981
G03 X4.0436 Y-1.0225 I-0.0492 J0.1853
G03 X4.1109 Y-0.9441 I-0.0762 J0.1335
G03 X4.1114 Y-0.9428 I-0.0467 J0.0179
G03 X4.1245 Y-0.8811 I-0.234 J0.0822
G03 X4.127 Y-0.826 I-0.5513 J0.0524
G01 Y-0.5321
G00 Z90.0
G00 X4.4059
G01 F20.0 Z10
G01 F80.0 Y-0.4818
G01 X4.4158
G01 Y-1.03
G01 X4.4059
G01 Y-0.5321
G00 Z90.0
G00 Y-1.2503
G01 F20.0 Z10
G01 F80.0 X4.4158
G01 Y-1.2766
G01 X4.4059
G01 Y-1.2503
G00 Z90.0
G00 X3.4429
G01 F20.0 Z10
G01 F80.0 Y-1.2766
G01 X3.433
G01 Y-1.2503
G01 X3.4429
G00 Z90.0
G00 X2.947 Y0.1197
G01 F20.0 Z10
G01 F80.0 X2.9041
G01 Y0.1839
G01 X2.947
G01 Y0.1197
G00 Z90.0
G00 Y0.4402
G01 F20.0 Z10
G01 F80.0 X2.9041
G01 Y1.1829
G01 X2.947
G01 Y0.4402
G00 Z90.0
G00 X3.2628
G01 F20.0 Z10
G01 F80.0 X3.2913
G01 Y0.518
G02 X3.35 Y0.5672 I0.05 J0.0
G02 X3.3315 Y0.6109 I0.1741 J0.0998
G02 X3.3056 Y0.7919 I0.5816 J0.1754
G01 Y1.1829
G01 X3.2628
G01 Y0.4402
G00 Z90.0
G00 X3.408 Y0.5033
G01 F20.0 Z10
G03 F80.0 X3.5171 Y0.4688 I0.1076 J0.1502
G03 X3.5176 I-0.0004 J0.05
G03 X3.5933 Y0.4817 I-0.0045 J0.2549
G01 X3.6087 Y0.4403
G02 X3.5231 Y0.4212 I-0.092 J0.2108
G02 X3.4612 Y0.4402 I0.0001 J0.1104
G02 X3.4222 Y0.4821 I0.1106 J0.1421
G03 X3.4216 Y0.483 I-0.0415 J-0.0278
G02 X3.408 Y0.5033 I0.4921 J0.3443
G00 Z90.0
G00 X3.7856 Y0.6368
G01 F20.0 Z10
G02 F80.0 X3.7792 Y0.6568 I0.3148 J0.1113
G02 X3.7579 Y0.818 I0.545 J0.154
G03 Y0.8193 I-0.05 J0.0006
G02 X3.7789 Y0.9751 I0.5358 J0.0069
G02 X3.8522 Y1.1042 I0.3093 J-0.0903
G02 X3.9673 Y1.1791 I0.2166 J-0.207
G02 X4.1087 Y1.2019 I0.1358 J-0.3909
G03 X4.1099 I0.0007 J0.05
G02 X4.2231 Y1.1878 I0.0041 J-0.4277
G02 X4.3205 Y1.1405 I-0.0736 J-0.2761
G02 X4.3899 Y1.0648 I-0.1708 J-0.2258
G02 X4.4125 Y1.0218 I-0.3054 J-0.1881
G01 X4.3642 Y1.0158
G03 X4.3405 Y1.06 I-0.3805 J-0.1762
G03 X4.2746 Y1.1329 I-0.229 J-0.1404
G03 X4.2735 Y1.1338 I-0.0304 J-0.0397
G03 X4.1101 Y1.1845 I-0.1573 J-0.2183
G03 X3.8976 Y1.0949 I-0.0055 J-0.2838
G01 X3.8975 Y1.0948
G03 X3.8282 Y0.9766 I0.2278 J-0.213
G03 X3.8055 Y0.8503 I0.4633 J-0.1483
G03 X3.8555 Y0.798 I0.0499 J-0.0023
G01 X4.4347
G02 X4.4139 Y0.6514 I-0.5564 J0.0042
G02 X4.3407 Y0.52 I-0.3139 J0.0888
G02 X4.2334 Y0.4451 I-0.2213 J0.2029
G02 X4.1021 Y0.4212 I-0.1269 J0.3238
G03 X4.1008 I-0.0006 J-0.05
G02 X3.9651 Y0.4456 I-0.0047 J0.3633
G02 X3.8542 Y0.5224 I0.1152 J0.2846
G02 X3.7856 Y0.6368 I0.2461 J0.2256
G01 F20.0 X3.8268 Y0.6485
G03 F80.0 X3.8371 Y0.6176 I0.3466 J0.0987
G03 X3.8372 Y0.6173 I0.0467 J0.018
G03 X3.9021 Y0.5189 I0.2651 J0.1042
G03 X4.103 Y0.4386 I0.1956 J0.1979
G03 X4.3191 Y0.54 I0.0057 J0.2688
G03 X4.3668 Y0.6333 I-0.2062 J0.1642
G03 X4.3838 Y0.7266 I-0.4549 J0.1311
G03 X4.3339 Y0.7806 I-0.0498 J0.004
G01 X3.8634
G03 X3.8135 Y0.7279 I0.0 J-0.05
G03 X3.8268 Y0.6485 I0.3599 J0.0193
G00 Z90.0
G00 X2.5441 Y1.0472
G01 F20.0 Z10
G03 F80.0 X2.5427 Y1.05 I-0.2817 J-0.14
G03 X2.5442 Y1.0508 I-0.0432 J0.0789
G03 X2.5441 Y1.0472 I1.2852 J-0.0533
G01 F20.0 X2.5083 Y1.0294
G03 F80.0 X2.4648 Y1.0928 I-0.2459 J-0.1222
G02 X2.4663 Y1.0915 I-0.3204 J-0.3642
G03 X2.5493 Y1.1244 I0.0332 J0.0374
G02 X2.5616 Y1.1829 I0.2532 J-0.0229
G01 X2.6017
G03 X2.5915 Y1.1412 I0.3592 J-0.1098
G03 X2.591 Y1.1377 I0.0492 J-0.0091
G03 X2.5831 Y1.0067 I1.2384 J-0.1401
G03 X2.582 Y0.8797 I5.9334 J-0.1183
G01 Y0.6894
G03 Y0.6892 I0.05 J0.0
G02 X2.5809 Y0.6252 I-1.6813 J-0.0037
G03 Y0.6246 I0.05 J-0.0018
G02 X2.5756 Y0.5663 I-0.4385 J0.0105
G02 X2.5417 Y0.4925 I-0.1695 J0.0331
G02 X2.5094 Y0.4653 I-0.0982 J0.0837
G03 X2.5092 Y0.4652 I0.0255 J-0.043
G02 X2.4641 Y0.4436 I-0.1368 J0.2275
G02 X2.3889 Y0.426 I-0.1137 J0.3166
G03 X2.3886 Y0.4259 I0.0057 J-0.0497
G02 X2.3061 Y0.4212 I-0.0792 J0.6548
G03 X2.305 I-0.0003 J-0.05
G02 X2.1309 Y0.4486 I-0.0089 J0.5092
G02 X2.0724 Y0.4769 I0.0918 J0.2641
G02 X2.0277 Y0.5172 I0.0988 J0.1546
G02 X1.9952 Y0.5736 I0.1847 J0.1443
G01 X1.9951 Y0.5737
G02 X1.9893 Y0.5888 I0.3545 J0.1443
G01 X2.0303 Y0.5944
G03 X2.0455 Y0.5595 I0.3539 J0.1332
G03 X2.1054 Y0.4856 I0.1879 J0.0911
G03 X2.1078 Y0.4839 I0.0306 J0.0395
G03 X2.1993 Y0.4468 I0.13 J0.1894
G03 X2.2852 Y0.4394 I0.0819 J0.4472
G03 X2.3824 Y0.4504 I0.0043 J0.3982
G03 X2.4803 Y0.4997 I-0.0531 J0.2271
G03 X2.4821 Y0.5014 I-0.0324 J0.0381
G03 X2.5295 Y0.5834 I-0.1123 J0.1194
G03 X2.5383 Y0.6615 I-0.2984 J0.0735
G03 X2.5375 Y0.6995 I-2.5033 J-0.0343
G03 X2.503 Y0.7456 I-0.05 J-0.0014
G03 X2.3697 Y0.778 I-0.2811 J-0.8681
G03 X2.2386 Y0.7969 I-0.4045 J-2.3326
G03 X2.2382 Y0.797 I-0.0058 J-0.0497
G02 X2.1181 Y0.8172 I0.1099 J1.0199
G02 X2.0309 Y0.8569 I0.0801 J0.2918
G02 X1.973 Y0.9218 I0.1071 J0.1538
G02 X1.9512 Y1.0101 I0.1593 J0.0861
G03 Y1.0121 I-0.05 J0.0006
G02 X2.009 Y1.1471 I0.1751 J0.0049
G02 X2.0889 Y1.1896 I0.1296 J-0.1474
G01 X2.089
G02 X2.1886 Y1.2019 I0.0949 J-0.3597
G03 X2.1896 I0.0006 J0.05
G02 X2.3281 Y1.1776 I0.0031 J-0.3885
G02 X2.3474 Y1.1692 I-0.1837 J-0.4489
G03 X2.2232 Y1.19 I-0.1187 J-0.3268
G03 X2.1446 Y1.1809 I-0.0031 J-0.3165
G03 X2.0642 Y1.1402 I0.0461 J-0.1908
G03 X2.0639 Y1.14 I0.0322 J-0.0382
G03 X2.0035 Y1.0065 I0.1117 J-0.131
G03 X2.0315 Y0.9119 I0.1701 J-0.0011
G03 X2.1106 Y0.8463 I0.1453 J0.0946
G03 X2.1114 Y0.8459 I0.0191 J0.0462
G03 X2.1816 Y0.8257 I0.1433 J0.3648
G03 X2.2473 Y0.8144 I0.2192 J1.079
G01 X2.2474
G02 X2.3621 Y0.7944 I-0.2356 J-1.69
G03 X2.3626 Y0.7943 I0.0103 J0.0489
G02 X2.4697 Y0.7633 I-0.1305 J-0.651
G03 X2.5376 Y0.81 I0.0179 J0.0467
G01 Y0.8622
G03 X2.533 Y0.9407 I-0.6119 J0.0038
G03 X2.5104 Y1.0252 I-0.2892 J-0.0322
G03 X2.5095 Y1.0269 I-0.0458 J-0.02
G03 X2.5083 Y1.0294 I-0.2472 J-0.1197
G00 Z90.0
G00 X1.0789 Y0.6358
G01 F20.0 Z10
G03 F80.0 X1.0732 Y0.6305 I0.0582 J-0.0686
G01 Y0.6411
G03 X1.0789 Y0.6358 I0.0639 J0.0633
G01 F20.0 X1.1048 Y0.6663
G03 F80.0 X1.1371 Y0.6544 I0.0323 J0.0381
G01 X1.633
G01 Y0.6172
G01 X1.1371
G03 X1.0871 Y0.5672 I0.0 J-0.05
G01 Y0.2069
G03 X1.1371 Y0.1569 I0.05 J0.0
G01 X1.7179
G01 Y0.1197
G01 X1.0332
G01 Y1.1829
G01 X1.0871
G01 Y0.7044
G03 X1.1048 Y0.6663 I0.05 J0.0
G00 Z90.0
G00 X0.3391 Y0.4403
G01 F20.0 Z10
G02 F80.0 X0.2535 Y0.4212 I-0.092 J0.2108
G02 X0.1916 Y0.4402 I0.0001 J0.1104
G02 X0.1526 Y0.4821 I0.1106 J0.1421
G03 X0.152 Y0.483 I-0.0415 J-0.0278
G02 X0.1384 Y0.5033 I0.4921 J0.3443
G03 X0.2475 Y0.4688 I0.1076 J0.1502
G03 X0.248 I-0.0004 J0.05
G03 X0.3237 Y0.4817 I-0.0045 J0.2549
G01 X0.3391 Y0.4403
G00 Z90.0
G00 X0.0805 Y0.5672
G01 F20.0 Z10
G02 F80.0 X0.0619 Y0.6109 I0.1741 J0.0998
G02 X0.036 Y0.7919 I0.5816 J0.1754
G01 Y1.1829
G01 X-0.0068
G01 Y0.4402
G01 X0.0217
G01 Y0.518
G02 X0.0805 Y0.5672 I0.05 J0.0
G00 Z90.0
G00 X-0.2972 Y0.664
G01 F20.0 Z10
G02 F80.0 X-0.3005 Y0.6514 I-0.539 J0.1382
G02 X-0.3738 Y0.52 I-0.3139 J0.0888
G02 X-0.4811 Y0.4451 I-0.2213 J0.2029
G02 X-0.6124 Y0.4212 I-0.1269 J0.3238
G03 X-0.6137 I-0.0006 J-0.05
G02 X-0.7494 Y0.4456 I-0.0047 J0.3633
G02 X-0.8602 Y0.5224 I0.1152 J0.2846
G02 X-0.9353 Y0.6568 I0.2461 J0.2256
G02 X-0.9566 Y0.818 I0.545 J0.154
G03 Y0.8193 I-0.05 J0.0006
G02 X-0.9355 Y0.9751 I0.5358 J0.0069
G02 X-0.8623 Y1.1042 I0.3093 J-0.0903
G02 X-0.7472 Y1.1791 I0.2166 J-0.207
G02 X-0.6058 Y1.2019 I0.1358 J-0.3909
G03 X-0.6046 I0.0007 J0.05
G02 X-0.4914 Y1.1878 I0.0041 J-0.4277
G02 X-0.3939 Y1.1405 I-0.0736 J-0.2761
G02 X-0.3246 Y1.0648 I-0.1708 J-0.2258
G02 X-0.302 Y1.0218 I-0.3054 J-0.1881
G01 X-0.3502 Y1.0158
G03 X-0.374 Y1.06 I-0.3805 J-0.1762
G03 X-0.4398 Y1.1329 I-0.229 J-0.1404
G03 X-0.441 Y1.1338 I-0.0304 J-0.0397
G03 X-0.6044 Y1.1845 I-0.1573 J-0.2183
G03 X-0.8169 Y1.0949 I-0.0055 J-0.2838
G01 X-0.817 Y1.0948
G03 X-0.8863 Y0.9766 I0.2278 J-0.213
G03 X-0.9089 Y0.8503 I0.4633 J-0.1483
G03 X-0.859 Y0.798 I0.0499 J-0.0023
G01 X-0.2797
G02 X-0.2972 Y0.664 I-0.5564 J0.0042
G01 F20.0 X-0.3382 Y0.6722
G03 F80.0 X-0.3307 Y0.7266 I-0.4644 J0.0922
G03 X-0.3805 Y0.7806 I-0.0498 J0.004
G01 X-0.851
G03 X-0.901 Y0.7279 I0.0 J-0.05
G03 X-0.8774 Y0.6176 I0.3599 J0.0193
G03 X-0.8773 Y0.6173 I0.0467 J0.018
G03 X-0.8124 Y0.5189 I0.2651 J0.1042
G03 X-0.6115 Y0.4386 I0.1956 J0.1979
G03 X-0.3954 Y0.54 I0.0057 J0.2688
G03 X-0.3477 Y0.6333 I-0.2062 J0.1642
G03 X-0.3382 Y0.6722 I-0.4549 J0.1311
G00 Z90.0
G00 X-1.6686 Y0.8132
G01 F20.0 Z10
G03 F80.0 X-1.6807 Y0.8059 I0.0408 J-0.0802
G01 Y0.8248
G01 X-1.6686 Y0.8132
G01 F20.0 X-1.6409 Y0.8421
G01 F80.0 X-1.5617 Y0.766
G03 X-1.4851 Y0.7749 I0.0346 J0.0361
G01 X-1.2214 Y1.1829
G01 X-1.166
G01 X-1.4687 Y0.7306
G03 X-1.4619 Y0.667 I0.0416 J-0.0278
G01 X-1.2283 Y0.4402
G01 X-1.2689
G01 X-1.5922 Y0.7681
G03 X-1.6778 Y0.733 I-0.0356 J-0.0351
G01 Y0.1197
G01 X-1.7207
G01 Y1.1829
G01 X-1.6778
G01 Y0.8988
G03 X-1.6625 Y0.8628 I0.05 J0.0
G01 X-1.6409 Y0.8421
G00 Z90.0
G00 X-2.0807 Y1.0472
G01 F20.0 Z10
G03 F80.0 X-2.0821 Y1.05 I-0.2817 J-0.14
G03 X-2.0806 Y1.0508 I-0.0432 J0.0789
G03 X-2.0807 Y1.0472 I1.2852 J-0.0533
G01 F20.0 X-2.1165 Y1.0294
G03 F80.0 X-2.16 Y1.0928 I-0.2459 J-0.1222
G02 X-2.1585 Y1.0915 I-0.3204 J-0.3642
G03 X-2.0755 Y1.1244 I0.0332 J0.0374
G02 X-2.0632 Y1.1829 I0.2532 J-0.0229
G01 X-2.0231
G03 X-2.0333 Y1.1412 I0.3592 J-0.1098
G03 X-2.0338 Y1.1377 I0.0492 J-0.0091
G03 X-2.0417 Y1.0067 I1.2384 J-0.1401
G03 X-2.0428 Y0.8797 I5.9334 J-0.1183
G01 Y0.6894
G03 Y0.6892 I0.05 J0.0
G02 X-2.0439 Y0.6252 I-1.6813 J-0.0037
G03 Y0.6246 I0.05 J-0.0018
G02 X-2.0492 Y0.5663 I-0.4385 J0.0105
G02 X-2.0831 Y0.4925 I-0.1695 J0.0331
G02 X-2.1154 Y0.4653 I-0.0982 J0.0837
G03 X-2.1156 Y0.4652 I0.0255 J-0.043
G02 X-2.1607 Y0.4436 I-0.1368 J0.2275
G02 X-2.2359 Y0.426 I-0.1137 J0.3166
G03 X-2.2362 Y0.4259 I0.0057 J-0.0497
G02 X-2.3187 Y0.4212 I-0.0792 J0.6548
G03 X-2.3198 I-0.0003 J-0.05
G02 X-2.4939 Y0.4486 I-0.0089 J0.5092
G02 X-2.5524 Y0.4769 I0.0918 J0.2641
G02 X-2.5971 Y0.5172 I0.0988 J0.1546
G02 X-2.6296 Y0.5736 I0.1847 J0.1443
G01 X-2.6297 Y0.5737
G02 X-2.6355 Y0.5888 I0.3545 J0.1443
G01 X-2.5945 Y0.5944
G03 X-2.5793 Y0.5595 I0.3539 J0.1332
G03 X-2.5194 Y0.4856 I0.1879 J0.0911
G03 X-2.517 Y0.4839 I0.0306 J0.0395
G03 X-2.4255 Y0.4468 I0.13 J0.1894
G03 X-2.3396 Y0.4394 I0.0819 J0.4472
G03 X-2.2424 Y0.4504 I0.0043 J0.3982
G03 X-2.1446 Y0.4997 I-0.0531 J0.2271
G03 X-2.1427 Y0.5014 I-0.0324 J0.0381
G03 X-2.0954 Y0.5834 I-0.1123 J0.1194
G03 X-2.0865 Y0.6615 I-0.2984 J0.0735
G03 X-2.0873 Y0.6995 I-2.5033 J-0.0343
G03 X-2.1218 Y0.7456 I-0.05 J-0.0014
G03 X-2.2551 Y0.778 I-0.2811 J-0.8681
G03 X-2.3862 Y0.7969 I-0.4045 J-2.3326
G03 X-2.3866 Y0.797 I-0.0058 J-0.0497
G02 X-2.5067 Y0.8172 I0.1099 J1.0199
G02 X-2.5939 Y0.8569 I0.0801 J0.2918
G02 X-2.6518 Y0.9218 I0.1071 J0.1538
G01 X-2.6519
G02 X-2.6736 Y1.0101 I0.1593 J0.0861
G03 Y1.0121 I-0.05 J0.0006
G02 X-2.6158 Y1.1471 I0.1751 J0.0049
G02 X-2.5359 Y1.1896 I0.1296 J-0.1474
G01 X-2.5358
G02 X-2.4362 Y1.2019 I0.0949 J-0.3597
G03 X-2.4352 I0.0006 J0.05
G02 X-2.2967 Y1.1776 I0.0031 J-0.3885
G02 X-2.2774 Y1.1692 I-0.1837 J-0.4489
G03 X-2.4016 Y1.19 I-0.1187 J-0.3268
G03 X-2.4802 Y1.1809 I-0.0031 J-0.3165
G03 X-2.5606 Y1.1402 I0.0461 J-0.1908
G03 X-2.5609 Y1.14 I0.0322 J-0.0382
G03 X-2.6213 Y1.0065 I0.1117 J-0.131
G03 X-2.5933 Y0.9119 I0.1701 J-0.0011
G03 X-2.5142 Y0.8463 I0.1453 J0.0946
G03 X-2.5134 Y0.8459 I0.0191 J0.0462
G03 X-2.4432 Y0.8257 I0.1433 J0.3648
G03 X-2.3775 Y0.8144 I0.2192 J1.079
G01 X-2.3774
G02 X-2.2627 Y0.7944 I-0.2356 J-1.69
G03 X-2.2622 Y0.7943 I0.0103 J0.0489
G02 X-2.1551 Y0.7633 I-0.1305 J-0.651
G03 X-2.0872 Y0.81 I0.0179 J0.0467
G01 Y0.8622
G03 X-2.0918 Y0.9407 I-0.6119 J0.0038
G03 X-2.1144 Y1.0252 I-0.2892 J-0.0322
G03 X-2.1153 Y1.0269 I-0.0458 J-0.02
G03 X-2.1165 Y1.0294 I-0.2472 J-0.1197
G00 Z90.0
G00 X-2.9953 Y0.1908
G01 F20.0 Z10
G01 F80.0 Y0.1597
G01 X-3.0482
G01 X-3.0515 Y0.1693
G03 X-2.9953 Y0.1908 I-0.0022 J0.09
G00 Z90.0
G00 X-3.9018 Y0.1597
G01 F20.0 Z10
G01 F80.0 X-3.9254
G01 Y0.1741
G03 X-3.9018 Y0.1597 I0.0584 J0.0685
G01 F20.0 Y0.1197
G01 F80.0 X-3.9654
G01 Y1.1829
G01 X-3.917
G01 Y0.2426
G03 X-3.8196 Y0.2265 I0.05 J0.0
G01 X-3.4947 Y1.1829
G01 X-3.4273
G01 X-3.1009 Y0.2429
G03 X-3.0037 Y0.2593 I0.0472 J0.0164
G01 Y1.1829
G01 X-2.9553
G01 Y0.1197
G01 X-3.0767
G01 X-3.3436 Y0.8953
G02 X-3.4052 Y1.0806 I7.873 J2.716
G03 X-3.5005 Y1.0803 I-0.0476 J-0.0152
G02 X-3.5558 Y0.9091 I-8.4933 J2.6453
G01 X-3.8197 Y0.1197
G01 X-3.9018
G00 Z90.0
M5
M30
