;Generated with Makelangelo 7.32.0 (dxf-5a62518)
;FLAVOR:Marlin-polargraph
;MINX:-92.030
;MINY:-133.650
;MAXX:92.030
;MAXY:133.650
; 2022-03-04 at 22:29:49 CET
G28
M280 P0 S90 T50
M0 Ready black and click
M280 P0 S90 T50
M0 Ready black and click
G0 X-63.830 Y127.969
M280 P0 S25 T50
G1 X-63.830 Y127.969 F3000.0
G1 X-75.618 Y117.158 F3000.0
G1 X-90.131 Y88.851 F3000.0
G1 X-92.030 Y72.969 F3000.0
M280 P0 S90 T50
G0 X-49.751 Y133.650
M280 P0 S25 T50
G1 X-49.751 Y133.650 F3000.0
G1 X-53.537 Y133.110 F3000.0
G1 X-60.600 Y130.084 F3000.0
G1 X-63.830 Y127.969 F3000.0
M280 P0 S90 T50
G0 X89.107 Y-28.838
M280 P0 S25 T50
G1 X89.107 Y-28.838 F3000.0
G1 X86.554 Y-36.368 F3000.0
G1 X78.437 Y-49.899 F3000.0
G1 X72.804 Y-55.391 F3000.0
M280 P0 S90 T50
G0 X91.988 Y2.614
M280 P0 S25 T50
G1 X91.988 Y2.614 F3000.0
G1 X92.030 Y-5.328 F3000.0
G1 X90.755 Y-21.104 F3000.0
G1 X89.107 Y-28.838 F3000.0
M280 P0 S90 T50
G0 X89.189 Y36.536
M280 P0 S25 T50
G1 X89.189 Y36.536 F3000.0
G1 X90.287 Y28.093 F3000.0
G1 X91.696 Y11.145 F3000.0
G1 X92.029 Y2.655 F3000.0
M280 P0 S90 T50
G0 X76.056 Y63.048
M280 P0 S25 T50
G1 X76.056 Y63.048 F3000.0
G1 X81.617 Y58.153 F3000.0
G1 X87.751 Y44.210 F3000.0
G1 X89.189 Y36.536 F3000.0
M280 P0 S90 T50
G0 X-36.166 Y125.869
M280 P0 S25 T50
G1 X-36.166 Y125.869 F3000.0
G1 X-9.793 Y117.930 F3000.0
G1 X38.399 Y91.476 F3000.0
G1 X59.260 Y73.463 F3000.0
M280 P0 S90 T50
G0 X-66.465 Y14.223
M280 P0 S25 T50
G1 X-66.465 Y14.223 F3000.0
G1 X-40.617 Y-11.455 F3000.0
G1 X21.021 Y-49.243 F3000.0
G1 X55.761 Y-59.013 F3000.0
M280 P0 S90 T50
G0 X-88.160 Y62.801
M280 P0 S25 T50
G1 X-88.160 Y62.801 F3000.0
G1 X-87.098 Y49.462 F3000.0
G1 X-75.123 Y25.038 F3000.0
G1 X-66.465 Y14.223 F3000.0
M280 P0 S90 T50
G0 X-45.429 Y132.991
M280 P0 S25 T50
G1 X-45.429 Y132.991 F3000.0
G1 X-43.727 Y132.124 F3000.0
G1 X-40.739 Y129.726 F3000.0
G1 X-39.500 Y128.257 F3000.0
M280 P0 S90 T50
G0 X72.763 Y66.959
M280 P0 S25 T50
G1 X72.763 Y66.959 F3000.0
G1 X69.962 Y67.666 F3000.0
G1 X64.745 Y70.131 F3000.0
G1 X62.430 Y71.858 F3000.0
M280 P0 S90 T50
G0 X67.905 Y-56.914
M280 P0 S25 T50
G1 X67.905 Y-56.914 F3000.0
G1 X65.455 Y-56.682 F3000.0
G1 X60.570 Y-57.053 F3000.0
G1 X58.190 Y-57.655 F3000.0
M280 P0 S90 T50
G0 X-88.490 Y66.671
M280 P0 S25 T50
G1 X-88.490 Y66.671 F3000.0
G1 X-88.946 Y67.535 F3000.0
G1 X-89.844 Y69.264 F3000.0
G1 X-90.301 Y70.129 F3000.0
M280 P0 S90 T50
G0 X69.346 Y112.696
M280 P0 S25 T50
G1 X69.346 Y112.696 F3000.0
G1 X62.770 Y106.141 F3000.0
G1 X48.708 Y94.113 F3000.0
G1 X40.858 Y89.272 F3000.0
G1 X40.858 Y89.272 F3000.0
G1 X32.231 Y85.750 F3000.0
G1 X13.927 Y84.235 F3000.0
G1 X5.207 Y86.966 F3000.0
M280 P0 S90 T50
G0 X51.809 Y118.706
M280 P0 S25 T50
G1 X-15.294 Y99.687 F3000.0
M280 P0 S90 T50
G0 X-81.985 Y-79.721
M280 P0 S25 T50
G1 X-28.056 Y-79.721 F3000.0
G1 X-28.056 Y-133.650 F3000.0
G1 X-81.985 Y-133.650 F3000.0
G1 X-81.985 Y-79.721 F3000.0
M280 P0 S90 T50
G0 X69.511 Y-4.384
M280 P0 S25 T50
G1 X69.501 Y-5.563 F3000.0
G1 X69.470 Y-6.741 F3000.0
G1 X69.418 Y-7.918 F3000.0
G1 X69.346 Y-9.094 F3000.0
G1 X69.254 Y-10.269 F3000.0
G1 X69.141 Y-11.442 F3000.0
G1 X69.008 Y-12.612 F3000.0
G1 X68.854 Y-13.781 F3000.0
G1 X68.680 Y-14.946 F3000.0
G1 X68.485 Y-16.108 F3000.0
G1 X68.270 Y-17.267 F3000.0
G1 X68.036 Y-18.421 F3000.0
G1 X67.780 Y-19.572 F3000.0
G1 X67.505 Y-20.718 F3000.0
G1 X67.210 Y-21.858 F3000.0
G1 X66.895 Y-22.994 F3000.0
G1 X66.561 Y-24.124 F3000.0
G1 X66.206 Y-25.247 F3000.0
G1 X65.833 Y-26.365 F3000.0
G1 X65.439 Y-27.476 F3000.0
G1 X65.027 Y-28.579 F3000.0
G1 X64.595 Y-29.676 F3000.0
G1 X64.144 Y-30.764 F3000.0
G1 X63.674 Y-31.845 F3000.0
G1 X63.185 Y-32.917 F3000.0
G1 X62.678 Y-33.981 F3000.0
G1 X62.152 Y-35.035 F3000.0
G1 X61.608 Y-36.080 F3000.0
G1 X61.046 Y-37.116 F3000.0
G1 X60.466 Y-38.142 F3000.0
G1 X59.868 Y-39.157 F3000.0
G1 X59.252 Y-40.162 F3000.0
G1 X58.619 Y-41.155 F3000.0
G1 X57.968 Y-42.138 F3000.0
G1 X57.301 Y-43.109 F3000.0
G1 X56.617 Y-44.068 F3000.0
G1 X55.916 Y-45.016 F3000.0
G1 X55.198 Y-45.950 F3000.0
G1 X54.465 Y-46.873 F3000.0
G1 X53.715 Y-47.782 F3000.0
G1 X52.950 Y-48.678 F3000.0
G1 X52.169 Y-49.560 F3000.0
G1 X51.373 Y-50.429 F3000.0
G1 X50.562 Y-51.284 F3000.0
G1 X49.736 Y-52.124 F3000.0
G1 X48.896 Y-52.950 F3000.0
G1 X48.041 Y-53.761 F3000.0
G1 X47.172 Y-54.557 F3000.0
G1 X46.290 Y-55.338 F3000.0
G1 X45.394 Y-56.103 F3000.0
G1 X44.485 Y-56.853 F3000.0
G1 X43.562 Y-57.587 F3000.0
G1 X42.628 Y-58.304 F3000.0
G1 X41.680 Y-59.005 F3000.0
G1 X40.721 Y-59.689 F3000.0
G1 X39.750 Y-60.356 F3000.0
G1 X38.767 Y-61.007 F3000.0
G1 X37.774 Y-61.640 F3000.0
G1 X36.769 Y-62.256 F3000.0
G1 X35.754 Y-62.854 F3000.0
G1 X34.728 Y-63.434 F3000.0
G1 X33.692 Y-63.996 F3000.0
G1 X32.647 Y-64.540 F3000.0
G1 X31.593 Y-65.066 F3000.0
G1 X30.529 Y-65.573 F3000.0
G1 X29.457 Y-66.062 F3000.0
G1 X28.376 Y-66.532 F3000.0
G1 X27.288 Y-66.983 F3000.0
G1 X26.191 Y-67.415 F3000.0
G1 X25.088 Y-67.827 F3000.0
G1 X23.977 Y-68.221 F3000.0
G1 X22.859 Y-68.594 F3000.0
G1 X21.736 Y-68.949 F3000.0
G1 X20.606 Y-69.283 F3000.0
G1 X19.470 Y-69.598 F3000.0
G1 X18.330 Y-69.893 F3000.0
G1 X17.184 Y-70.168 F3000.0
G1 X16.033 Y-70.424 F3000.0
G1 X14.879 Y-70.658 F3000.0
G1 X13.720 Y-70.873 F3000.0
G1 X12.558 Y-71.068 F3000.0
G1 X11.393 Y-71.242 F3000.0
G1 X10.224 Y-71.396 F3000.0
G1 X9.053 Y-71.529 F3000.0
G1 X7.881 Y-71.642 F3000.0
G1 X6.706 Y-71.734 F3000.0
G1 X5.530 Y-71.806 F3000.0
G1 X4.353 Y-71.858 F3000.0
G1 X3.175 Y-71.889 F3000.0
G1 X1.996 Y-71.899 F3000.0
G1 X0.818 Y-71.889 F3000.0
G1 X-0.360 Y-71.858 F3000.0
G1 X-1.537 Y-71.806 F3000.0
G1 X-2.713 Y-71.734 F3000.0
G1 X-3.888 Y-71.642 F3000.0
G1 X-5.061 Y-71.529 F3000.0
G1 X-6.232 Y-71.396 F3000.0
G1 X-7.400 Y-71.242 F3000.0
G1 X-8.565 Y-71.068 F3000.0
G1 X-9.727 Y-70.873 F3000.0
G1 X-10.886 Y-70.658 F3000.0
G1 X-12.041 Y-70.424 F3000.0
G1 X-13.191 Y-70.168 F3000.0
G1 X-14.337 Y-69.893 F3000.0
G1 X-15.478 Y-69.598 F3000.0
G1 X-16.613 Y-69.283 F3000.0
G1 X-17.743 Y-68.949 F3000.0
G1 X-18.867 Y-68.594 F3000.0
G1 X-19.984 Y-68.221 F3000.0
G1 X-21.095 Y-67.827 F3000.0
G1 X-22.199 Y-67.415 F3000.0
G1 X-23.295 Y-66.983 F3000.0
G1 X-24.384 Y-66.532 F3000.0
G1 X-25.464 Y-66.062 F3000.0
G1 X-26.537 Y-65.573 F3000.0
G1 X-27.600 Y-65.066 F3000.0
G1 X-28.655 Y-64.540 F3000.0
G1 X-29.700 Y-63.996 F3000.0
G1 X-30.735 Y-63.434 F3000.0
G1 X-31.761 Y-62.854 F3000.0
G1 X-32.776 Y-62.256 F3000.0
G1 X-33.781 Y-61.640 F3000.0
G1 X-34.775 Y-61.007 F3000.0
G1 X-35.757 Y-60.356 F3000.0
G1 X-36.728 Y-59.689 F3000.0
G1 X-37.688 Y-59.005 F3000.0
G1 X-38.635 Y-58.304 F3000.0
G1 X-39.570 Y-57.587 F3000.0
G1 X-40.492 Y-56.853 F3000.0
G1 X-41.401 Y-56.103 F3000.0
G1 X-42.297 Y-55.338 F3000.0
G1 X-43.180 Y-54.557 F3000.0
G1 X-44.049 Y-53.761 F3000.0
G1 X-44.903 Y-52.950 F3000.0
G1 X-45.744 Y-52.124 F3000.0
G1 X-46.570 Y-51.284 F3000.0
G1 X-47.381 Y-50.429 F3000.0
G1 X-48.177 Y-49.560 F3000.0
G1 X-48.958 Y-48.678 F3000.0
G1 X-49.723 Y-47.782 F3000.0
G1 X-50.472 Y-46.873 F3000.0
G1 X-51.206 Y-45.950 F3000.0
G1 X-51.923 Y-45.016 F3000.0
G1 X-52.624 Y-44.068 F3000.0
G1 X-53.308 Y-43.109 F3000.0
G1 X-53.976 Y-42.138 F3000.0
G1 X-54.626 Y-41.155 F3000.0
G1 X-55.259 Y-40.162 F3000.0
G1 X-55.875 Y-39.157 F3000.0
G1 X-56.473 Y-38.142 F3000.0
G1 X-57.053 Y-37.116 F3000.0
G1 X-57.616 Y-36.080 F3000.0
G1 X-58.160 Y-35.035 F3000.0
G1 X-58.685 Y-33.981 F3000.0
G1 X-59.193 Y-32.917 F3000.0
G1 X-59.681 Y-31.845 F3000.0
G1 X-60.151 Y-30.764 F3000.0
G1 X-60.602 Y-29.676 F3000.0
G1 X-61.034 Y-28.579 F3000.0
G1 X-61.447 Y-27.476 F3000.0
G1 X-61.840 Y-26.365 F3000.0
G1 X-62.214 Y-25.247 F3000.0
G1 X-62.568 Y-24.124 F3000.0
G1 X-62.903 Y-22.994 F3000.0
G1 X-63.218 Y-21.858 F3000.0
G1 X-63.513 Y-20.718 F3000.0
G1 X-63.788 Y-19.572 F3000.0
G1 X-64.043 Y-18.421 F3000.0
G1 X-64.278 Y-17.267 F3000.0
G1 X-64.493 Y-16.108 F3000.0
G1 X-64.687 Y-14.946 F3000.0
G1 X-64.861 Y-13.781 F3000.0
G1 X-65.015 Y-12.612 F3000.0
G1 X-65.148 Y-11.442 F3000.0
G1 X-65.261 Y-10.269 F3000.0
G1 X-65.354 Y-9.094 F3000.0
G1 X-65.426 Y-7.918 F3000.0
G1 X-65.477 Y-6.741 F3000.0
G1 X-65.508 Y-5.563 F3000.0
G1 X-65.518 Y-4.384 F3000.0
G1 X-65.508 Y-3.206 F3000.0
G1 X-65.477 Y-2.028 F3000.0
G1 X-65.426 Y-0.851 F3000.0
G1 X-65.354 Y0.325 F3000.0
G1 X-65.261 Y1.500 F3000.0
G1 X-65.148 Y2.673 F3000.0
G1 X-65.015 Y3.844 F3000.0
G1 X-64.861 Y5.012 F3000.0
G1 X-64.687 Y6.177 F3000.0
G1 X-64.493 Y7.339 F3000.0
G1 X-64.278 Y8.498 F3000.0
G1 X-64.043 Y9.653 F3000.0
G1 X-63.788 Y10.803 F3000.0
G1 X-63.513 Y11.949 F3000.0
G1 X-63.218 Y13.090 F3000.0
G1 X-62.903 Y14.225 F3000.0
G1 X-62.568 Y15.355 F3000.0
G1 X-62.214 Y16.479 F3000.0
G1 X-61.840 Y17.596 F3000.0
G1 X-61.447 Y18.707 F3000.0
G1 X-61.034 Y19.811 F3000.0
G1 X-60.602 Y20.907 F3000.0
G1 X-60.151 Y21.996 F3000.0
G1 X-59.681 Y23.076 F3000.0
G1 X-59.193 Y24.149 F3000.0
G1 X-58.685 Y25.212 F3000.0
G1 X-58.160 Y26.267 F3000.0
G1 X-57.616 Y27.312 F3000.0
G1 X-57.053 Y28.347 F3000.0
G1 X-56.473 Y29.373 F3000.0
G1 X-55.875 Y30.388 F3000.0
G1 X-55.259 Y31.393 F3000.0
G1 X-54.626 Y32.387 F3000.0
G1 X-53.976 Y33.369 F3000.0
G1 X-53.308 Y34.340 F3000.0
G1 X-52.624 Y35.300 F3000.0
G1 X-51.923 Y36.247 F3000.0
G1 X-51.206 Y37.182 F3000.0
G1 X-50.472 Y38.104 F3000.0
G1 X-49.723 Y39.013 F3000.0
G1 X-48.958 Y39.909 F3000.0
G1 X-48.177 Y40.792 F3000.0
G1 X-47.381 Y41.660 F3000.0
G1 X-46.570 Y42.515 F3000.0
G1 X-45.744 Y43.356 F3000.0
G1 X-44.903 Y44.182 F3000.0
G1 X-44.049 Y44.993 F3000.0
G1 X-43.180 Y45.789 F3000.0
G1 X-42.297 Y46.570 F3000.0
G1 X-41.401 Y47.335 F3000.0
G1 X-40.492 Y48.084 F3000.0
G1 X-39.570 Y48.818 F3000.0
G1 X-38.635 Y49.535 F3000.0
G1 X-37.688 Y50.236 F3000.0
G1 X-36.728 Y50.920 F3000.0
G1 X-35.757 Y51.588 F3000.0
G1 X-34.775 Y52.238 F3000.0
G1 X-33.781 Y52.871 F3000.0
G1 X-32.776 Y53.487 F3000.0
G1 X-31.761 Y54.085 F3000.0
G1 X-30.735 Y54.665 F3000.0
G1 X-29.700 Y55.227 F3000.0
G1 X-28.655 Y55.772 F3000.0
G1 X-27.600 Y56.297 F3000.0
G1 X-26.537 Y56.805 F3000.0
G1 X-25.464 Y57.293 F3000.0
G1 X-24.384 Y57.763 F3000.0
G1 X-23.295 Y58.214 F3000.0
G1 X-22.199 Y58.646 F3000.0
G1 X-21.095 Y59.059 F3000.0
G1 X-19.984 Y59.452 F3000.0
G1 X-18.867 Y59.826 F3000.0
G1 X-17.743 Y60.180 F3000.0
G1 X-16.613 Y60.515 F3000.0
G1 X-15.478 Y60.830 F3000.0
G1 X-14.337 Y61.125 F3000.0
G1 X-13.191 Y61.400 F3000.0
G1 X-12.041 Y61.655 F3000.0
G1 X-10.886 Y61.890 F3000.0
G1 X-9.727 Y62.105 F3000.0
G1 X-8.565 Y62.299 F3000.0
G1 X-7.400 Y62.473 F3000.0
G1 X-6.232 Y62.627 F3000.0
G1 X-5.061 Y62.760 F3000.0
G1 X-3.888 Y62.873 F3000.0
G1 X-2.713 Y62.966 F3000.0
G1 X-1.537 Y63.038 F3000.0
G1 X-0.360 Y63.089 F3000.0
G1 X0.818 Y63.120 F3000.0
G1 X1.996 Y63.130 F3000.0
G1 X3.175 Y63.120 F3000.0
G1 X4.353 Y63.089 F3000.0
G1 X5.530 Y63.038 F3000.0
G1 X6.706 Y62.966 F3000.0
G1 X7.881 Y62.873 F3000.0
G1 X9.053 Y62.760 F3000.0
G1 X10.224 Y62.627 F3000.0
G1 X11.393 Y62.473 F3000.0
G1 X12.558 Y62.299 F3000.0
G1 X13.720 Y62.105 F3000.0
G1 X14.879 Y61.890 F3000.0
G1 X16.033 Y61.655 F3000.0
G1 X17.184 Y61.400 F3000.0
G1 X18.330 Y61.125 F3000.0
G1 X19.470 Y60.830 F3000.0
G1 X20.606 Y60.515 F3000.0
G1 X21.736 Y60.180 F3000.0
G1 X22.859 Y59.826 F3000.0
G1 X23.977 Y59.452 F3000.0
G1 X25.088 Y59.059 F3000.0
G1 X26.191 Y58.646 F3000.0
G1 X27.288 Y58.214 F3000.0
G1 X28.376 Y57.763 F3000.0
G1 X29.457 Y57.293 F3000.0
G1 X30.529 Y56.805 F3000.0
G1 X31.593 Y56.297 F3000.0
G1 X32.647 Y55.772 F3000.0
G1 X33.692 Y55.227 F3000.0
G1 X34.728 Y54.665 F3000.0
G1 X35.754 Y54.085 F3000.0
G1 X36.769 Y53.487 F3000.0
G1 X37.774 Y52.871 F3000.0
G1 X38.767 Y52.238 F3000.0
G1 X39.750 Y51.588 F3000.0
G1 X40.721 Y50.920 F3000.0
G1 X41.680 Y50.236 F3000.0
G1 X42.628 Y49.535 F3000.0
G1 X43.562 Y48.818 F3000.0
G1 X44.485 Y48.084 F3000.0
G1 X45.394 Y47.335 F3000.0
G1 X46.290 Y46.570 F3000.0
G1 X47.172 Y45.789 F3000.0
G1 X48.041 Y44.993 F3000.0
G1 X48.896 Y44.182 F3000.0
G1 X49.736 Y43.356 F3000.0
G1 X50.562 Y42.515 F3000.0
G1 X51.373 Y41.660 F3000.0
G1 X52.169 Y40.792 F3000.0
G1 X52.950 Y39.909 F3000.0
G1 X53.715 Y39.013 F3000.0
G1 X54.465 Y38.104 F3000.0
G1 X55.198 Y37.182 F3000.0
G1 X55.916 Y36.247 F3000.0
G1 X56.617 Y35.300 F3000.0
G1 X57.301 Y34.340 F3000.0
G1 X57.968 Y33.369 F3000.0
G1 X58.619 Y32.387 F3000.0
G1 X59.252 Y31.393 F3000.0
G1 X59.868 Y30.388 F3000.0
G1 X60.466 Y29.373 F3000.0
G1 X61.046 Y28.347 F3000.0
G1 X61.608 Y27.312 F3000.0
G1 X62.152 Y26.267 F3000.0
G1 X62.678 Y25.212 F3000.0
G1 X63.185 Y24.149 F3000.0
G1 X63.674 Y23.076 F3000.0
G1 X64.144 Y21.996 F3000.0
G1 X64.595 Y20.907 F3000.0
G1 X65.027 Y19.811 F3000.0
G1 X65.439 Y18.707 F3000.0
G1 X65.833 Y17.596 F3000.0
G1 X66.206 Y16.479 F3000.0
G1 X66.561 Y15.355 F3000.0
G1 X66.895 Y14.225 F3000.0
G1 X67.210 Y13.090 F3000.0
G1 X67.505 Y11.949 F3000.0
G1 X67.780 Y10.803 F3000.0
G1 X68.036 Y9.653 F3000.0
G1 X68.270 Y8.498 F3000.0
G1 X68.485 Y7.339 F3000.0
G1 X68.680 Y6.177 F3000.0
G1 X68.854 Y5.012 F3000.0
G1 X69.008 Y3.844 F3000.0
G1 X69.141 Y2.673 F3000.0
G1 X69.254 Y1.500 F3000.0
G1 X69.346 Y0.325 F3000.0
G1 X69.418 Y-0.851 F3000.0
G1 X69.470 Y-2.028 F3000.0
G1 X69.501 Y-3.206 F3000.0
G1 X69.511 Y-4.384 F3000.0
M280 P0 S90 T50
;End of Gcode
