( Made using CamBam - http://www.cambam.co.uk )
( 4laws 2013-02-12 10:49:45 PM )
( T1 : 1.0 )
G21 G90 G64 G40
G0 Z110.0
( T1 : 1.0 )
T1 M6
( Pocket1 )
G17
M3 S1000
( Engrave1 )
S1000
G0 X-129.0303 Y36.8584
G1 F508.0 Z65.0
G2 F2032.0 X-128.549 Y36.767 I0.0198 J-1.2093
G2 X-128.1611 Y36.4678 I-0.3965 J-0.9148
G2 X-127.9094 Y35.9556 I-1.0303 J-0.8244
G2 X-127.8438 Y35.3887 I-2.1947 J-0.5413
G2 X-128.0244 Y34.3438 I-3.407 J0.051
G2 X-128.5127 Y33.3281 I-3.9797 J1.2881
G2 X-129.3232 Y32.5029 I-2.4011 J1.5478
G2 X-130.2559 Y32.2197 I-0.9477 J1.4437
G2 X-130.7382 Y32.3099 I-0.0194 J1.2311
G2 X-131.1299 Y32.6055 I0.3965 J0.9328
G2 X-131.3777 Y33.1211 I1.0671 J0.8302
G2 X-131.4424 Y33.6895 I2.2415 J0.5431
G2 X-131.2617 Y34.7686 I3.4934 J-0.0302
G2 X-130.7588 Y35.7939 I3.8624 J-1.2584
G2 X-129.958 Y36.5801 I2.283 J-1.5246
G2 X-129.0303 Y36.8584 I0.9445 J-1.4629
G1 F508.0 X-129.0498 Y36.6745
G3 F2032.0 X-129.1523 Y36.6777 I-0.0732 J-0.6884
G3 X-129.5134 Y36.5955 I0.005 J-0.8557
G3 X-129.8213 Y36.3896 I0.5536 J-1.1611
G3 X-130.1542 Y36.0065 I1.4871 J-1.6286
G3 X-130.4121 Y35.5693 I2.9638 J-2.0429
G3 X-130.7881 Y34.5146 I4.4819 J-2.1921
G3 X-130.9248 Y33.4307 I4.5361 J-1.1227
G3 X-130.895 Y33.0694 I2.004 J-0.0164
G3 X-130.8139 Y32.8036 I1.1139 J0.1945
G3 X-130.5381 Y32.4936 I0.6037 J0.2595
G3 X-130.1338 Y32.4004 I0.3807 J0.7276
G3 X-129.7768 Y32.4907 I-0.0073 J0.7796
G3 X-129.4795 Y32.708 I-0.5996 J1.1325
G3 X-129.138 Y33.126 I-1.6903 J1.7293
G3 X-128.874 Y33.5967 I-3.4273 J2.2318
G3 X-128.5029 Y34.6465 I-5.2513 J2.4468
G3 X-128.3613 Y35.6475 I-4.0434 J1.0825
G3 X-128.404 Y36.0432 I-1.686 J0.0182
G3 X-128.5713 Y36.4043 I-0.9183 J-0.206
G3 X-129.0498 Y36.6745 I-0.5517 J-0.4182
G0 Z110.0
G0 X-127.2613 Y32.982
G1 F508.0 Z65.0
G2 F2032.0 X-127.0869 Y33.0205 I0.1682 J-0.3473
G2 X-126.8037 Y32.9033 I0.0062 J-0.3858
G2 X-126.6865 Y32.6201 I-0.2686 J-0.277
G2 X-126.8037 Y32.3369 I-0.3858 J-0.0062
G2 X-127.0869 Y32.2197 I-0.277 J0.2686
G2 X-127.3701 Y32.3369 I-0.0062 J0.3858
G2 X-127.4873 Y32.6201 I0.2686 J0.277
G2 X-127.3701 Y32.9033 I0.3858 J0.0062
G2 X-127.2613 Y32.982 I0.277 J-0.2686
G0 Z110.0
G0 X-123.3116 Y32.6396
G1 F508.0 Z65.0
G1 F2032.0 X-123.1162 Y33.1475
G3 X-122.208 Y32.6348 I2.1775 J2.7965
G3 X-121.295 Y32.4395 I0.993 J2.4104
G3 X-120.3643 Y32.6472 I-0.0085 J2.2267
G3 X-119.5713 Y33.1768 I-1.3653 J2.9027
G3 X-119.0358 Y33.7292 I-3.8595 J4.2768
G3 X-118.3379 Y34.6472 I-8.3739 J7.0911
G3 X-117.7159 Y35.6182 I-15.7815 J10.7946
G1 X-115.7334 Y38.8994
G2 X-115.1866 Y39.6074 I3.1689 J-1.8825
G2 X-114.977 Y39.795 I1.5717 J-1.5452
G2 X-114.8585 Y39.8732 I0.5506 J-0.7051
G2 X-114.7227 Y39.915 I0.1553 J-0.2632
G2 X-114.5862 Y39.8549 I0.0024 J-0.1795
G2 X-114.4949 Y39.6596 I-0.3462 J-0.281
G2 X-114.4639 Y39.4463 I-1.3017 J-0.2978
G2 X-114.4928 Y38.8068 I-3.2892 J-0.1718
G2 X-114.6055 Y38.1768 I-7.3654 J0.9925
G1 X-115.3623 Y34.749
G3 X-114.5616 Y34.7881 I-0.1199 J10.6854
G1 X-114.6153 Y34.6318
G2 X-115.4063 Y34.5586 I-0.8857 J5.2577
G1 X-115.8946 Y32.3174
G1 X-116.334
G3 X-117.0091 Y33.592 I-7.5967 J-3.2073
G3 X-117.9551 Y34.6807 I-4.2149 J-2.7073
G2 X-118.7255 Y33.6529 I-8.5996 J5.6433
G2 X-119.669 Y32.7813 I-3.8646 J3.2368
G2 X-120.5878 Y32.3528 I-1.7716 J2.6001
G2 X-121.5928 Y32.2197 I-0.9808 J3.5442
G2 X-122.4473 Y32.332 I0.0541 J3.7182
G2 X-123.3116 Y32.6396 I1.0729 J4.3822
G0 Z110.0
G0 X-117.8037 Y34.9102
G1 F508.0 Z65.0
G3 F2032.0 X-116.8071 Y34.7737 I1.494 J7.205
G3 X-115.8018 Y34.7393 I0.9667 J13.5173
G1 X-115.2159 Y37.6787
G3 X-115.0543 Y38.5472 I-27.8671 J5.6336
G3 X-114.9895 Y38.9848 I-10.3247 J1.7514
G3 X-114.9678 Y39.2053 I-4.0544 J0.511
G3 X-114.9717 Y39.4268 I-0.9811 J0.0934
G3 X-115.2549 Y39.1232 I1.1977 J-1.4012
G3 X-115.4844 Y38.7773 I2.8355 J-2.1307
G1 X-117.3741 Y35.5986
G2 X-117.8037 Y34.9102 I-16.0613 J9.5457
G1 F508.0 X-117.5157 Y34.5586
G2 F2032.0 X-116.7708 Y33.7896 I-3.1327 J-3.7796
G2 X-116.1631 Y32.9082 I-6.8638 J-5.3825
G1 X-115.836 Y34.5391
G2 X-117.5157 Y34.5586 I-0.2134 J53.8877
G0 Z110.0
G0 X-112.145 Y33.1074
G1 F508.0 Z65.0
G1 F2032.0 X-111.7383 Y34.6123
G1 X-111.2305 Y34.7197
G1 X-111.5577 Y33.5186
G2 X-111.2676 Y33.9958 I9.7448 J-5.5956
G2 X-110.9376 Y34.4463 I3.3309 J-2.0944
G2 X-110.7407 Y34.6285 I0.8574 J-0.729
G2 X-110.4883 Y34.7197 I0.2719 J-0.3575
G2 X-110.1371 Y34.4856 I-0.0033 J-0.3855
G2 X-110.0196 Y34.0801 I-1.1638 J-0.5569
G1 X-110.3907 Y33.958
G3 X-110.454 Y34.2435 I-1.6714 J-0.221
G3 X-110.5195 Y34.3812 I-0.526 J-0.1657
G3 X-110.6495 Y34.4609 I-0.1392 J-0.0811
G3 X-110.7519 Y34.4138 I0.0251 J-0.1893
G3 X-111.0084 Y34.123 I1.0779 J-1.2093
G3 X-111.2257 Y33.8018 I5.0315 J-3.6367
G3 X-111.9385 Y32.3174 I5.4256 J-3.5191
G1 X-112.3585
G1 X-112.145 Y33.1074
G0 Z110.0
G0 X-110.1272 Y33.053
G1 F508.0 Z65.0
G2 F2032.0 X-110.127 Y33.0596 I0.8621 J-0.0232
G2 X-109.9952 Y33.5918 I1.3003 J-0.0396
G2 X-109.6241 Y34.1338 I1.864 J-0.8782
G2 X-109.099 Y34.5538 I1.493 J-1.3281
G2 X-108.4473 Y34.7197 I0.6528 J-1.2016
G2 X-107.8712 Y34.4805 I0.028 J-0.746
G2 X-107.6514 Y33.8799 I-0.6249 J-0.5691
G2 X-107.7882 Y33.3428 I-1.2962 J0.044
G2 X-108.1544 Y32.8057 I-1.8084 J0.8396
G2 X-108.6795 Y32.3856 I-1.493 J1.3281
G2 X-109.3311 Y32.2197 I-0.6528 J1.2016
G2 X-109.9073 Y32.4541 I-0.0291 J0.7539
G2 X-110.1272 Y33.053 I0.6422 J0.5756
G1 F508.0 X-109.6023 Y32.9985
G3 F2032.0 X-109.6094 Y32.8984 I1.568 J-0.1627
G3 X-109.5167 Y32.5322 I0.6396 J-0.0328
G3 X-109.2481 Y32.4004 I0.2569 J0.1839
G3 X-109.0026 Y32.4693 I-0.0076 J0.4988
G3 X-108.7199 Y32.7194 I-0.5472 J0.9032
G3 X-108.5059 Y33.0303 I-1.8713 J1.5172
G3 X-108.2618 Y33.5625 I-2.3278 J1.3899
G3 X-108.169 Y34.041 I-1.5309 J0.5451
G3 X-108.2667 Y34.4072 I-0.6144 J0.0323
G3 X-108.5303 Y34.5391 I-0.2505 J-0.1713
G3 X-108.7759 Y34.4701 I0.0076 J-0.4988
G3 X-109.0585 Y34.22 I0.5472 J-0.9032
G3 X-109.2725 Y33.9092 I1.8713 J-1.5172
G3 X-109.5167 Y33.3721 I2.2912 J-1.3655
G3 X-109.6023 Y32.9985 I1.4824 J-0.5363
G0 Z110.0
G0 X-107.197 Y32.7778
G1 F508.0 Z65.0
G2 F2032.0 X-107.168 Y32.9229 I0.6984 J-0.0641
G1 X-105.4053 Y39.3682
G1 X-104.8194 Y39.5195
G1 X-106.4747 Y33.7285
G2 X-105.8887 Y34.4463 I2.3671 J-1.3343
G2 X-105.612 Y34.6348 I0.9386 J-1.0804
G2 X-105.2882 Y34.7197 I0.3406 J-0.6389
G2 X-104.8194 Y34.5195 I0.0238 J-0.5932
G2 X-104.6387 Y33.9922 I-0.5799 J-0.4933
G2 X-104.7901 Y33.4209 I-1.3407 J0.0495
G2 X-105.1954 Y32.8447 I-2.1007 J1.047
G2 X-105.7549 Y32.4012 I-1.6731 J1.5359
G2 X-106.4454 Y32.2197 I-0.6984 J1.2533
G2 X-106.7436 Y32.2435 I-0.0155 J1.6913
G2 X-106.9657 Y32.3138 I0.1349 J0.8116
G2 X-107.1868 Y32.5785 I0.1642 J0.3617
G2 X-107.197 Y32.7778 I0.6882 J0.1352
G1 F508.0 X-106.7119 Y32.7462
G3 F2032.0 X-106.7139 Y32.6982 I1.0351 J-0.0675
G3 X-106.6465 Y32.4726 I0.3389 J-0.0216
G3 X-106.4258 Y32.3906 I0.1998 J0.1998
G3 X-105.9216 Y32.5395 I0.0 J0.928
G3 X-105.5421 Y32.9033 I-0.8096 J1.2247
G3 X-105.1563 Y34.041 I-1.4622 J1.13
G3 X-105.2163 Y34.3317 I-0.6044 J0.0269
G3 X-105.4786 Y34.4707 I-0.2416 J-0.139
G3 X-105.6666 Y34.4054 I0.0275 J-0.3826
G3 X-105.8253 Y34.2852 I0.6216 J-0.9851
G3 X-106.2452 Y33.792 I2.024 J-2.1488
G3 X-106.5524 Y33.2763 I3.2464 J-2.2836
G3 X-106.6644 Y32.996 I1.7732 J-0.8707
G3 X-106.7119 Y32.7462 I0.9876 J-0.3174
G0 Z110.0
G0 X-104.1968 Y32.9575
G1 F508.0 Z65.0
G2 F2032.0 X-104.1993 Y33.0596 I0.8594 J0.0722
G2 X-104.0674 Y33.5918 I1.3003 J-0.0396
G2 X-103.6964 Y34.1338 I1.864 J-0.8782
G2 X-103.1713 Y34.5538 I1.493 J-1.3281
G2 X-102.5196 Y34.7197 I0.6528 J-1.2016
G2 X-101.9434 Y34.4805 I0.028 J-0.746
G2 X-101.7237 Y33.8799 I-0.6249 J-0.5691
G2 X-101.8604 Y33.3428 I-1.2962 J0.044
G2 X-102.2266 Y32.8057 I-1.8084 J0.8396
G2 X-102.7517 Y32.3856 I-1.493 J1.3281
G2 X-103.4034 Y32.2197 I-0.6528 J1.2016
G2 X-103.9796 Y32.4541 I-0.0291 J0.7539
G2 X-104.1968 Y32.9575 I0.6422 J0.5756
G1 F508.0 X-103.6803 Y32.9275
G3 F2032.0 X-103.6817 Y32.8984 I1.5737 J-0.0916
G3 X-103.5889 Y32.5322 I0.6396 J-0.0328
G3 X-103.3204 Y32.4004 I0.2569 J0.1839
G3 X-103.0748 Y32.4693 I-0.0076 J0.4988
G3 X-102.7922 Y32.7194 I-0.5472 J0.9032
G3 X-102.5782 Y33.0303 I-1.8713 J1.5172
G3 X-102.334 Y33.5625 I-2.3278 J1.3899
G3 X-102.2413 Y34.041 I-1.5309 J0.5451
G3 X-102.3389 Y34.4072 I-0.6144 J0.0323
G3 X-102.6026 Y34.5391 I-0.2505 J-0.1713
G3 X-102.8482 Y34.4701 I0.0076 J-0.4988
G3 X-103.1308 Y34.22 I0.5472 J-0.9032
G3 X-103.3448 Y33.9092 I1.8713 J-1.5172
G3 X-103.5889 Y33.3721 I2.2912 J-1.3655
G3 X-103.6803 Y32.9275 I1.4824 J-0.5363
G0 Z110.0
G0 X-101.3145 Y32.6815
G1 F508.0 Z65.0
G2 F2032.0 X-101.2696 Y32.8984 I1.0972 J-0.1141
G1 X-100.6837 Y34.9053
G1 X-101.1329
G1 X-101.0499 Y35.2275
G1 X-100.5909
G1 X-100.1319 Y36.8096
G1 X-99.6241 Y36.917
G1 X-100.1221 Y35.2275
G1 X-99.4092
G1 X-99.4923 Y34.9053
G1 X-100.21
G1 X-100.8399 Y32.7373
G3 X-100.8634 Y32.6052 I0.3483 J-0.13
G3 X-100.7618 Y32.5176 I0.0878 J-0.0009
G3 X-100.6097 Y32.5838 I-0.0767 J0.384
G3 X-100.4737 Y32.6787 I-1.1393 J1.7773
G3 X-100.0196 Y33.0889 I-2.347 J3.055
G1 X-99.9219 Y32.9863
G2 X-100.5665 Y32.3955 I-4.4456 J4.2028
G2 X-100.7609 Y32.2767 I-0.7224 J0.9632
G2 X-100.9815 Y32.2197 I-0.2392 J0.4711
G2 X-101.2794 Y32.4053 I-0.0206 J0.2988
G2 X-101.3171 Y32.6527 I0.4843 J0.2005
G2 X-101.3145 Y32.6815 I1.0999 J-0.0853
G0 Z110.0
G0 X-97.3673 Y32.3174
G1 F508.0 Z65.0
G1 F2032.0 X-96.7472 Y34.6074
G1 X-96.2394 Y34.7197
G1 X-96.63 Y33.2891
G2 X-96.2474 Y33.8622 I12.5242 J-7.9462
G2 X-95.8194 Y34.4023 I4.2033 J-2.8906
G2 X-95.5781 Y34.6118 I1.095 J-1.018
G2 X-95.2774 Y34.7197 I0.3307 J-0.4482
G2 X-95.0518 Y34.6623 I0.0133 J-0.4201
G2 X-94.9063 Y34.4805 I-0.2042 J-0.3124
G2 X-94.8694 Y34.1626 I-0.6152 J-0.2326
G2 X-94.9405 Y33.8506 I-1.4569 J0.168
G1 X-95.087 Y33.3867
G2 X-94.7249 Y33.9176 I11.1907 J-7.2447
G2 X-94.3204 Y34.417 I3.9453 J-2.7819
G2 X-94.0866 Y34.6156 I1.0915 J-1.0481
G2 X-93.7979 Y34.7197 I0.3209 J-0.4375
G2 X-93.5723 Y34.6623 I0.0133 J-0.4201
G2 X-93.4269 Y34.4805 I-0.2042 J-0.3124
G2 X-93.3859 Y34.1581 I-0.6192 J-0.2425
G2 X-93.4562 Y33.8408 I-1.4453 J0.1538
G1 X-93.8272 Y32.7373
G3 X-93.837 Y32.5762 I0.2717 J-0.0973
G3 X-93.7491 Y32.5176 I0.083 J0.0293
G3 X-93.5965 Y32.5827 I-0.0672 J0.3688
G3 X-93.461 Y32.6787 I-1.0304 J1.5973
G3 X-93.0069 Y33.0889 I-2.7475 J3.4983
G1 X-92.9093 Y32.9863
G2 X-93.5538 Y32.3955 I-4.4456 J4.2028
G2 X-93.7482 Y32.2767 I-0.7224 J0.9632
G2 X-93.9688 Y32.2197 I-0.2392 J0.4711
G2 X-94.2716 Y32.4102 I-0.0139 J0.3137
G2 X-94.3106 Y32.6557 I0.4656 J0.1998
G2 X-94.2569 Y32.8984 I0.9384 J-0.0801
G1 X-93.8761 Y34.0068
G3 X-93.8105 Y34.2682 I-1.464 J0.5062
G3 X-93.8123 Y34.4175 I-0.4088 J0.0697
G3 X-93.9298 Y34.5098 I-0.109 J-0.0179
G3 X-94.0586 Y34.4644 I0.0195 J-0.2608
G3 X-94.3951 Y34.1377 I0.9604 J-1.3261
G3 X-94.6769 Y33.7627 I4.7073 J-3.8295
G3 X-95.4679 Y32.3174 I5.4325 J-3.9123
G1 X-95.8878
G1 X-95.3604 Y34.0068
G3 X-95.2904 Y34.2675 I-1.4446 J0.5282
G3 Y34.4178 I-0.3995 J0.0751
G3 X-95.4093 Y34.5098 I-0.1093 J-0.0184
G3 X-95.5381 Y34.4644 I0.0195 J-0.2608
G3 X-95.8746 Y34.1377 I0.9604 J-1.3261
G3 X-96.1563 Y33.7627 I4.7073 J-3.8295
G3 X-96.9474 Y32.3174 I5.4325 J-3.9123
G1 X-97.3673
G0 Z110.0
G0 X-92.7248 Y32.8049
G1 F508.0 Z65.0
G2 F2032.0 X-92.7286 Y32.9082 I0.7591 J0.0797
G2 X-92.587 Y33.5088 I1.4847 J-0.0331
G2 X-92.1915 Y34.0996 I2.0108 J-0.9183
G2 X-91.6243 Y34.5479 I1.5405 J-1.3662
G2 X-90.922 Y34.7197 I0.699 J-1.3362
G2 X-90.7136 Y34.7002 I0.0107 J-1.007
G2 X-90.5216 Y34.6172 I-0.0866 J-0.4641
G1 X-89.9894 Y34.7197
G1 X-90.5411 Y32.7373
G3 X-90.5362 Y32.5762 I0.2354 J-0.0735
G3 X-90.4435 Y32.5176 I0.0893 J0.0386
G3 X-90.3323 Y32.5553 I-0.026 J0.2592
G3 X-90.0115 Y32.8049 I-1.0435 J1.672
G3 X-89.7208 Y33.0889 I-4.9057 J5.3133
G1 X-89.6231 Y32.9863
G2 X-90.0829 Y32.5212 I-3.6649 J3.1628
G2 X-90.3494 Y32.3251 I-1.2702 J1.4468
G2 X-90.6632 Y32.2197 I-0.3577 J0.5455
G2 X-90.9659 Y32.4053 I-0.0156 J0.3143
G2 X-91.0108 Y32.6514 I0.5021 J0.2188
G2 X-90.9708 Y32.8984 I1.0568 J-0.0445
G1 X-90.8634 Y33.3281
G2 X-91.1905 Y32.8809 I-5.5346 J3.7051
G2 X-91.5714 Y32.4785 I-2.3541 J1.8468
G2 X-91.8489 Y32.2963 I-0.8355 J0.97
G2 X-92.172 Y32.2197 I-0.3325 J0.6832
G2 X-92.5675 Y32.415 I-0.0016 J0.4949
G2 X-92.7248 Y32.8049 I0.6018 J0.4695
G1 F508.0 X-92.2102 Y32.8356
G3 F2032.0 X-92.1694 Y32.6415 I0.6709 J0.04
G3 X-91.9522 Y32.498 I0.2061 J0.0758
G3 X-91.7269 Y32.5748 I-0.0254 J0.4436
G3 X-91.4581 Y32.8044 I-0.7966 J1.205
G3 X-91.2296 Y33.0742 I-2.5366 J2.3797
G3 X-90.884 Y33.594 I-3.4811 J2.6892
G3 X-90.6388 Y34.168 I-2.3575 J1.3467
G1 X-90.5606 Y34.4609
G3 X-90.922 Y34.5488 I-0.3644 J-0.7116
G3 X-91.4795 Y34.3566 I0.0022 J-0.9112
G3 X-91.8692 Y33.9141 I1.0189 J-1.2902
G3 X-92.1183 Y33.3916 I2.1117 J-1.3271
G3 X-92.211 Y32.8984 I1.5506 J-0.547
G3 X-92.2102 Y32.8356 I0.6717 J-0.0228
G0 Z110.0
G0 X-89.2291 Y32.7943
G1 F508.0 Z65.0
G2 F2032.0 X-89.2252 Y32.8657 I0.8824 J-0.0122
G2 X-89.1593 Y33.2402 I1.9962 J-0.1582
G1 X-88.7882 Y34.6123
G1 X-88.2804 Y34.7197
G1 X-88.7784 Y33.001
G3 X-88.838 Y32.6968 I1.2369 J-0.4002
G3 X-88.8065 Y32.5265 I0.3198 J-0.0288
G3 X-88.6515 Y32.4492 I0.1408 J0.0883
G3 X-88.518 Y32.5003 I-0.0246 J0.2641
G3 X-88.1701 Y32.8473 I-1.1325 J1.4831
G3 X-87.8751 Y33.2402 I-5.4257 J4.3815
G3 X-87.4603 Y33.897 I-5.8191 J4.1351
G3 X-87.1573 Y34.6123 I-2.8779 J1.6406
G1 X-86.6495 Y34.7197
G1 X-87.211 Y32.7617
G3 X-87.0011 Y32.8984 I-5.989 J9.4269
G2 X-86.7716 Y33.0596 I19.7319 J-27.8591
G1 X-86.6886 Y32.9375
G2 X-86.9864 Y32.7275 I-29.0034 J40.8281
G2 X-87.2794 Y32.5176 I-9.3183 J12.693
G1 X-87.631 Y31.248
G2 X-87.8295 Y30.7324 I-2.5693 J0.6932
G2 X-88.1485 Y30.2813 I-1.7165 J0.8755
G2 X-88.4764 Y30.0215 I-0.9825 J0.9032
G2 X-88.881 Y29.915 I-0.4094 J0.7339
G2 X-89.2716 Y30.0762 I-0.0211 J0.5028
G2 X-89.4181 Y30.4961 I0.4558 J0.3945
G2 X-89.3052 Y30.9008 I0.87 J-0.0245
G2 X-89.0616 Y31.2432 I1.605 J-0.8842
G2 X-88.4597 Y31.8118 I4.3881 J-4.042
G2 X-87.8116 Y32.3271 I10.7256 J-12.8231
G1 X-87.4405 Y33.6504
G2 X-87.9904 Y32.8291 I-7.4588 J4.3993
G2 X-88.3248 Y32.4545 I-2.4995 J1.8945
G2 X-88.5265 Y32.2989 I-0.871 J0.9207
G2 X-88.7687 Y32.2197 I-0.2667 J0.4059
G2 X-89.0191 Y32.2847 I-0.0148 J0.4587
G2 X-89.1788 Y32.4883 I0.232 J0.3463
G2 X-89.2291 Y32.7943 I0.8321 J0.2938
G0 Z110.0
G0 X-88.308 Y31.72
G1 F508.0 Z65.0
G3 F2032.0 X-88.653 Y31.4033 I4.4996 J-5.2481
G3 X-88.9826 Y31.0085 I1.899 J-1.9203
G3 X-89.1054 Y30.7795 I1.0672 J-0.7197
G3 X-89.1593 Y30.5254 I0.636 J-0.2676
G3 X-89.0763 Y30.2324 I0.4736 J-0.0241
G3 X-88.8517 Y30.125 I0.2152 J0.1614
G3 X-88.6127 Y30.2113 I-0.0032 J0.3827
G3 X-88.4464 Y30.4033 I-0.4726 J0.5774
G3 X-88.2426 Y30.8283 I-1.8535 J1.1502
G3 X-88.0997 Y31.2773 I-5.1914 J1.8991
G1 X-87.88 Y32.0586
G3 X-88.308 Y31.72 I4.0716 J-5.5867
G0 Z110.0
G0 X-84.2365 Y32.3174
G1 F508.0 Z65.0
G1 F2032.0 X-83.6163 Y34.6074
G1 X-83.1085 Y34.7197
G1 X-83.4992 Y33.2891
G2 X-83.1166 Y33.8622 I12.5242 J-7.9462
G2 X-82.6886 Y34.4023 I4.2033 J-2.8906
G2 X-82.4473 Y34.6118 I1.095 J-1.018
G2 X-82.1466 Y34.7197 I0.3307 J-0.4482
G2 X-81.9198 Y34.6604 I0.0133 J-0.4127
G2 X-81.7755 Y34.4756 I-0.2129 J-0.3149
G2 X-81.7385 Y34.1529 I-0.6378 J-0.2366
G2 X-81.8097 Y33.8359 I-1.4878 J0.1677
G1 X-82.1759 Y32.7373
G3 X-82.2003 Y32.5322 I0.4093 J-0.1527
G3 X-82.1173 Y32.4492 I0.0887 J0.0057
G3 X-82.0018 Y32.4998 I-0.049 J0.269
G3 X-81.6668 Y32.7813 I-1.7004 J2.3637
G3 X-81.3556 Y33.0889 I-7.5313 J7.9315
G1 X-81.2579 Y32.9863
G2 X-81.9025 Y32.3955 I-4.4456 J4.2028
G2 X-82.0969 Y32.2767 I-0.7224 J0.9632
G2 X-82.3175 Y32.2197 I-0.2392 J0.4711
G2 X-82.6202 Y32.4102 I-0.0177 J0.3076
G2 X-82.6592 Y32.6557 I0.4656 J0.1998
G2 X-82.6056 Y32.8984 I0.9384 J-0.0801
G1 X-82.2296 Y34.0068
G3 X-82.1595 Y34.2675 I-1.4446 J0.5282
G3 X-82.1596 Y34.4178 I-0.3995 J0.0751
G3 X-82.2785 Y34.5098 I-0.1093 J-0.0184
G3 X-82.4073 Y34.4644 I0.0195 J-0.2608
G3 X-82.7438 Y34.1377 I0.9604 J-1.3261
G3 X-83.0255 Y33.7627 I4.7073 J-3.8295
G3 X-83.8165 Y32.3174 I5.6886 J-4.0525
G1 X-84.2365
G0 Z110.0
G0 X-81.0646 Y32.8793
G1 F508.0 Z65.0
G2 F2032.0 X-81.0773 Y33.0596 I0.8492 J0.1504
G2 X-80.9454 Y33.5918 I1.3003 J-0.0396
G2 X-80.5743 Y34.1338 I1.864 J-0.8782
G2 X-80.0492 Y34.5538 I1.493 J-1.3281
G2 X-79.3976 Y34.7197 I0.6528 J-1.2016
G2 X-78.8214 Y34.4805 I0.028 J-0.746
G2 X-78.6017 Y33.8799 I-0.6249 J-0.5691
G2 X-78.7384 Y33.3428 I-1.2962 J0.044
G2 X-79.1046 Y32.8057 I-1.8084 J0.8396
G2 X-79.6297 Y32.3856 I-1.493 J1.3281
G2 X-80.2814 Y32.2197 I-0.6528 J1.2016
G2 X-80.8576 Y32.4541 I-0.0291 J0.7539
G2 X-81.0646 Y32.8793 I0.6422 J0.5756
G1 F508.0 X-80.5605 Y32.8733
G3 F2032.0 X-80.4669 Y32.5322 I0.6404 J-0.0077
G3 X-80.1984 Y32.4004 I0.2569 J0.1839
G3 X-79.9528 Y32.4693 I-0.0076 J0.4988
G3 X-79.6702 Y32.7194 I-0.5472 J0.9032
G3 X-79.4562 Y33.0303 I-1.8713 J1.5172
G3 X-79.212 Y33.5625 I-2.3278 J1.3899
G3 X-79.1193 Y34.041 I-1.5309 J0.5451
G3 X-79.2169 Y34.4072 I-0.6144 J0.0323
G3 X-79.4806 Y34.5391 I-0.2505 J-0.1713
G3 X-79.7262 Y34.4701 I0.0076 J-0.4988
G3 X-80.0088 Y34.22 I0.5472 J-0.9032
G3 X-80.2228 Y33.9092 I1.8713 J-1.5172
G3 X-80.4669 Y33.3721 I2.2912 J-1.3655
G3 X-80.5597 Y32.8984 I1.4824 J-0.5363
G3 X-80.5605 Y32.8733 I0.6396 J-0.0328
G0 Z110.0
G0 X-78.1941 Y32.6644
G1 F508.0 Z65.0
G2 F2032.0 X-78.1476 Y32.8984 I1.0989 J-0.097
G1 X-77.5617 Y34.9053
G1 X-78.0109
G1 X-77.9279 Y35.2275
G1 X-77.4689
G1 X-77.0099 Y36.8096
G1 X-76.5021 Y36.917
G1 X-77.0001 Y35.2275
G1 X-76.2872
G1 X-76.3702 Y34.9053
G1 X-77.088
G1 X-77.7179 Y32.7373
G3 X-77.7414 Y32.6052 I0.3483 J-0.13
G3 X-77.6398 Y32.5176 I0.0878 J-0.0009
G3 X-77.4877 Y32.5838 I-0.0767 J0.384
G3 X-77.3517 Y32.6787 I-1.1393 J1.7773
G3 X-76.8976 Y33.0889 I-2.347 J3.055
G1 X-76.7999 Y32.9863
G2 X-77.4445 Y32.3955 I-4.4456 J4.2028
G2 X-77.6389 Y32.2767 I-0.7224 J0.9632
G2 X-77.8595 Y32.2197 I-0.2392 J0.4711
G2 X-78.1574 Y32.4053 I-0.0206 J0.2988
G2 X-78.1951 Y32.6527 I0.4843 J0.2005
G2 X-78.1941 Y32.6644 I1.0999 J-0.0853
G0 Z110.0
G0 X-74.1574 Y32.3174
G1 F508.0 Z65.0
G1 F2032.0 X-72.2384 Y39.3682
G1 X-71.6476 Y39.5195
G1 X-73.4347 Y33.2695
G2 X-72.846 Y34.1055 I7.5899 J-4.7197
G2 X-72.4913 Y34.4846 I2.5491 J-2.0294
G2 X-72.2796 Y34.6409 I0.8929 J-0.9886
G2 X-72.0285 Y34.7197 I0.2762 J-0.4404
G2 X-71.7951 Y34.6616 I0.0137 J-0.4424
G2 X-71.6427 Y34.4756 I-0.2065 J-0.3246
G2 X-71.5977 Y34.156 I-0.5962 J-0.247
G2 X-71.6672 Y33.8408 I-1.3727 J0.1373
G1 X-72.0382 Y32.7373
G3 X-72.048 Y32.5762 I0.2717 J-0.0973
G3 X-71.9552 Y32.5176 I0.0856 J0.0328
G3 X-71.8427 Y32.5556 I-0.0271 J0.2661
G3 X-71.5157 Y32.8051 I-1.0747 J1.747
G3 X-71.2179 Y33.0889 I-5.046 J5.5934
G1 X-71.1154 Y32.9863
G2 X-71.4325 Y32.6727 I-8.5931 J8.3703
G2 X-71.7697 Y32.3809 I-2.774 J2.8647
G2 X-71.9598 Y32.2688 I-0.6015 J0.803
G2 X-72.175 Y32.2197 I-0.2255 J0.4927
G2 X-72.4777 Y32.4102 I-0.0139 J0.3137
G2 X-72.5182 Y32.6552 I0.4762 J0.2046
G2 X-72.4679 Y32.8984 I0.9509 J-0.0697
G1 X-72.0871 Y34.0117
G3 X-72.023 Y34.2678 I-1.1635 J0.4274
G3 X-72.0365 Y34.4159 I-0.301 J0.0472
G3 X-72.1652 Y34.4902 I-0.116 J-0.0522
G3 X-72.2963 Y34.4484 I0.0168 J-0.279
G3 X-72.4828 Y34.3023 I0.522 J-0.8583
G3 X-72.9367 Y33.7578 I3.0705 J-3.0211
G3 X-73.7375 Y32.3174 I5.2383 J-3.8549
G1 X-74.1574
G0 Z110.0
G0 X-70.8983 Y32.7778
G1 F508.0 Z65.0
G2 F2032.0 X-70.9054 Y32.9082 I0.7558 J0.1068
G2 X-70.7638 Y33.5088 I1.4847 J-0.0331
G2 X-70.3683 Y34.0996 I2.0108 J-0.9183
G2 X-69.8011 Y34.5479 I1.5405 J-1.3662
G2 X-69.0988 Y34.7197 I0.699 J-1.3362
G2 X-68.8905 Y34.7002 I0.0107 J-1.007
G2 X-68.6984 Y34.6172 I-0.0866 J-0.4641
G1 X-68.1662 Y34.7197
G1 X-68.7179 Y32.7373
G3 X-68.7131 Y32.5762 I0.2354 J-0.0735
G3 X-68.6203 Y32.5176 I0.0893 J0.0386
G3 X-68.5091 Y32.5553 I-0.026 J0.2592
G3 X-68.1883 Y32.8049 I-1.0435 J1.672
G3 X-67.8976 Y33.0889 I-4.9057 J5.3133
G1 X-67.8 Y32.9863
G2 X-68.2597 Y32.5212 I-3.6649 J3.1628
G2 X-68.5263 Y32.3251 I-1.2702 J1.4468
G2 X-68.84 Y32.2197 I-0.3577 J0.5455
G2 X-69.1427 Y32.4053 I-0.0156 J0.3143
G2 X-69.1877 Y32.6514 I0.5021 J0.2188
G2 X-69.1476 Y32.8984 I1.0568 J-0.0445
G1 X-69.0402 Y33.3281
G2 X-69.3673 Y32.8809 I-5.5346 J3.7051
G2 X-69.7482 Y32.4785 I-2.3541 J1.8468
G2 X-70.0257 Y32.2963 I-0.8355 J0.97
G2 X-70.3488 Y32.2197 I-0.3325 J0.6832
G2 X-70.7443 Y32.415 I-0.0016 J0.4949
G2 X-70.8983 Y32.7778 I0.6018 J0.4695
G1 F508.0 X-70.386 Y32.8202
G3 F2032.0 X-70.3462 Y32.6415 I0.6698 J0.0554
G3 X-70.1291 Y32.498 I0.2061 J0.0758
G3 X-69.9037 Y32.5748 I-0.0254 J0.4436
G3 X-69.6349 Y32.8044 I-0.7966 J1.205
G3 X-69.4064 Y33.0742 I-2.5366 J2.3797
G3 X-69.0608 Y33.594 I-3.4811 J2.6892
G3 X-68.8156 Y34.168 I-2.3575 J1.3467
G1 X-68.7375 Y34.4609
G3 X-69.0988 Y34.5488 I-0.3644 J-0.7116
G3 X-69.6563 Y34.3566 I0.0022 J-0.9112
G3 X-70.0461 Y33.9141 I1.0189 J-1.2902
G3 X-70.2951 Y33.3916 I2.1117 J-1.3271
G3 X-70.3879 Y32.8984 I1.5506 J-0.547
G3 X-70.386 Y32.8202 I0.6717 J-0.0228
G0 Z110.0
G0 X-67.5851 Y32.3174
G1 F508.0 Z65.0
G1 F2032.0 X-66.965 Y34.6123
G1 X-66.4572 Y34.7197
G1 X-66.7843 Y33.5186
G2 X-66.4943 Y33.9958 I9.7448 J-5.5956
G2 X-66.1642 Y34.4463 I3.3309 J-2.0944
G2 X-65.9673 Y34.6285 I0.8574 J-0.729
G2 X-65.715 Y34.7197 I0.2719 J-0.3575
G2 X-65.3637 Y34.4856 I-0.0033 J-0.3855
G2 X-65.2463 Y34.0801 I-1.1638 J-0.5569
G1 X-65.6174 Y33.958
G3 X-65.6807 Y34.2435 I-1.6714 J-0.221
G3 X-65.7462 Y34.3812 I-0.526 J-0.1657
G3 X-65.8761 Y34.4609 I-0.1392 J-0.0811
G3 X-65.9786 Y34.4138 I0.0251 J-0.1893
G3 X-66.2351 Y34.123 I1.0779 J-1.2093
G3 X-66.4523 Y33.8018 I5.0315 J-3.6367
G3 X-67.1652 Y32.3174 I5.4256 J-3.5191
G1 X-67.5851
G0 Z110.0
G0 X-65.3634
G1 F508.0 Z65.0
G1 F2032.0 X-64.7433 Y34.6074
G1 X-64.2355 Y34.7197
G1 X-64.6261 Y33.2891
G2 X-64.2435 Y33.8622 I12.5242 J-7.9462
G2 X-63.8156 Y34.4023 I4.2033 J-2.8906
G2 X-63.5743 Y34.6118 I1.095 J-1.018
G2 X-63.2736 Y34.7197 I0.3307 J-0.4482
G2 X-63.0479 Y34.6623 I0.0133 J-0.4201
G2 X-62.9025 Y34.4805 I-0.2042 J-0.3124
G2 X-62.8656 Y34.1626 I-0.6152 J-0.2326
G2 X-62.9367 Y33.8506 I-1.4569 J0.168
G1 X-63.0832 Y33.3867
G2 X-62.721 Y33.9176 I11.1907 J-7.2447
G2 X-62.3166 Y34.417 I3.9453 J-2.7819
G2 X-62.0827 Y34.6156 I1.0915 J-1.0481
G2 X-61.7941 Y34.7197 I0.3209 J-0.4375
G2 X-61.5684 Y34.6623 I0.0133 J-0.4201
G2 X-61.423 Y34.4805 I-0.2042 J-0.3124
G2 X-61.382 Y34.1581 I-0.6192 J-0.2425
G2 X-61.4523 Y33.8408 I-1.4453 J0.1538
G1 X-61.8234 Y32.7373
G3 X-61.8332 Y32.5762 I0.2717 J-0.0973
G3 X-61.7453 Y32.5176 I0.083 J0.0293
G3 X-61.5926 Y32.5827 I-0.0672 J0.3688
G3 X-61.4572 Y32.6787 I-1.0304 J1.5973
G3 X-61.0031 Y33.0889 I-2.7475 J3.4983
G1 X-60.9054 Y32.9863
G2 X-61.55 Y32.3955 I-4.4456 J4.2028
G2 X-61.7444 Y32.2767 I-0.7224 J0.9632
G2 X-61.965 Y32.2197 I-0.2392 J0.4711
G2 X-62.2677 Y32.4102 I-0.0139 J0.3137
G2 X-62.3067 Y32.6557 I0.4656 J0.1998
G2 X-62.2531 Y32.8984 I0.9384 J-0.0801
G1 X-61.8722 Y34.0068
G3 X-61.8067 Y34.2682 I-1.464 J0.5062
G3 X-61.8085 Y34.4175 I-0.4088 J0.0697
G3 X-61.9259 Y34.5098 I-0.109 J-0.0179
G3 X-62.0548 Y34.4644 I0.0195 J-0.2608
G3 X-62.3913 Y34.1377 I0.9604 J-1.3261
G3 X-62.673 Y33.7627 I4.7073 J-3.8295
G3 X-63.464 Y32.3174 I5.4325 J-3.9123
G1 X-63.884
G1 X-63.3566 Y34.0068
G3 X-63.2865 Y34.2675 I-1.4446 J0.5282
G3 X-63.2866 Y34.4178 I-0.3995 J0.0751
G3 X-63.4054 Y34.5098 I-0.1093 J-0.0184
G3 X-63.5342 Y34.4644 I0.0195 J-0.2608
G3 X-63.8708 Y34.1377 I0.9604 J-1.3261
G3 X-64.1525 Y33.7627 I4.7073 J-3.8295
G3 X-64.9435 Y32.3174 I5.4325 J-3.9123
G1 X-65.3634
G0 Z110.0
G0 X-58.4338
G1 F508.0 Z65.0
G1 F2032.0 X-56.5148 Y39.3682
G1 X-55.924 Y39.5195
G1 X-57.7111 Y33.2695
G2 X-57.1224 Y34.1055 I7.5899 J-4.7197
G2 X-56.7677 Y34.4846 I2.5491 J-2.0294
G2 X-56.556 Y34.6409 I0.8929 J-0.9886
G2 X-56.3049 Y34.7197 I0.2762 J-0.4404
G2 X-56.0715 Y34.6616 I0.0137 J-0.4424
G2 X-55.9191 Y34.4756 I-0.2065 J-0.3246
G2 X-55.8741 Y34.156 I-0.5962 J-0.247
G2 X-55.9436 Y33.8408 I-1.3727 J0.1373
G1 X-56.3146 Y32.7373
G3 X-56.3244 Y32.5762 I0.2717 J-0.0973
G3 X-56.2316 Y32.5176 I0.0856 J0.0328
G3 X-56.1191 Y32.5556 I-0.0271 J0.2661
G3 X-55.7921 Y32.8051 I-1.0747 J1.747
G3 X-55.4943 Y33.0889 I-5.046 J5.5934
G1 X-55.3918 Y32.9863
G2 X-55.7089 Y32.6727 I-8.5931 J8.3703
G2 X-56.0461 Y32.3809 I-2.774 J2.8647
G2 X-56.2362 Y32.2688 I-0.6015 J0.803
G2 X-56.4514 Y32.2197 I-0.2255 J0.4927
G2 X-56.7541 Y32.4102 I-0.0139 J0.3137
G2 X-56.7946 Y32.6552 I0.4762 J0.2046
G2 X-56.7443 Y32.8984 I0.9509 J-0.0697
G1 X-56.3635 Y34.0117
G3 X-56.2994 Y34.2678 I-1.1635 J0.4274
G3 X-56.3129 Y34.4159 I-0.301 J0.0472
G3 X-56.4416 Y34.4902 I-0.116 J-0.0522
G3 X-56.5727 Y34.4484 I0.0168 J-0.279
G3 X-56.7592 Y34.3023 I0.522 J-0.8583
G3 X-57.2131 Y33.7578 I3.0705 J-3.0211
G3 X-58.0139 Y32.3174 I5.2383 J-3.8549
G1 X-58.4338
G0 Z110.0
G0 X-55.0074 Y32.6874
G1 F508.0 Z65.0
G2 F2032.0 X-55.0085 Y32.8657 I0.8774 J0.0947
G2 X-54.9426 Y33.2402 I1.9962 J-0.1582
G1 X-54.5715 Y34.6123
G1 X-54.0637 Y34.7197
G1 X-54.5617 Y33.001
G3 X-54.6165 Y32.6893 I1.1302 J-0.3594
G3 X-54.5724 Y32.5186 I0.2897 J-0.0162
G3 X-54.4104 Y32.4492 I0.1473 J0.1201
G3 X-54.2762 Y32.4895 I-0.0151 J0.2938
G3 X-54.084 Y32.6351 I-0.4923 J0.8497
G3 X-53.6193 Y33.1865 I-2.9144 J2.9273
G3 X-53.18 Y33.8693 I-5.1203 J3.7779
G3 X-52.8527 Y34.6123 I-3.7366 J2.0891
G1 X-52.3449 Y34.7197
G1 X-52.9504 Y32.7373
G3 X-52.9602 Y32.5811 I0.2064 J-0.0913
G3 X-52.8723 Y32.5176 I0.0848 J0.0249
G3 X-52.7224 Y32.5836 I-0.0739 J0.3707
G3 X-52.5891 Y32.6787 I-1.1089 J1.6966
G3 X-52.135 Y33.0889 I-2.7945 J3.5504
G1 X-52.0324 Y32.9912
G2 X-52.677 Y32.3955 I-3.9736 J3.6528
G2 X-52.8714 Y32.2767 I-0.7224 J0.9632
G2 X-53.092 Y32.2197 I-0.2392 J0.4711
G2 X-53.385 Y32.4053 I-0.0183 J0.2952
G2 X-53.4259 Y32.6519 I0.5208 J0.2132
G2 X-53.385 Y32.8984 I1.0966 J-0.0555
G1 X-53.2141 Y33.5186
G2 X-53.7611 Y32.7436 I-5.3975 J3.2296
G2 X-54.106 Y32.4053 I-1.8265 J1.5168
G2 X-54.314 Y32.2766 I-0.6732 J0.8558
G2 X-54.552 Y32.2197 I-0.2497 J0.5184
G2 X-54.8024 Y32.2847 I-0.0148 J0.4587
G2 X-54.9621 Y32.4883 I0.232 J0.3463
G2 X-55.0074 Y32.6874 I0.8321 J0.2938
G0 Z110.0
G0 X-51.8615 Y32.3174
G1 F508.0 Z65.0
G1 F2032.0 X-51.2414 Y34.6074
G1 X-50.7336 Y34.7197
G1 X-51.1242 Y33.2891
G2 X-50.7416 Y33.8622 I12.5242 J-7.9462
G2 X-50.3137 Y34.4023 I4.2033 J-2.8906
G2 X-50.0724 Y34.6118 I1.095 J-1.018
G2 X-49.7717 Y34.7197 I0.3307 J-0.4482
G2 X-49.546 Y34.6623 I0.0133 J-0.4201
G2 X-49.4006 Y34.4805 I-0.2042 J-0.3124
G2 X-49.3637 Y34.1626 I-0.6152 J-0.2326
G2 X-49.4348 Y33.8506 I-1.4569 J0.168
G1 X-49.5813 Y33.3867
G2 X-49.2191 Y33.9176 I11.1907 J-7.2447
G2 X-48.8146 Y34.417 I3.9453 J-2.7819
G2 X-48.5808 Y34.6156 I1.0915 J-1.0481
G2 X-48.2922 Y34.7197 I0.3209 J-0.4375
G2 X-48.0665 Y34.6623 I0.0133 J-0.4201
G2 X-47.9211 Y34.4805 I-0.2042 J-0.3124
G2 X-47.8801 Y34.1581 I-0.6192 J-0.2425
G2 X-47.9504 Y33.8408 I-1.4453 J0.1538
G1 X-48.3215 Y32.7373
G3 X-48.3313 Y32.5762 I0.2717 J-0.0973
G3 X-48.2434 Y32.5176 I0.083 J0.0293
G3 X-48.0907 Y32.5827 I-0.0672 J0.3688
G3 X-47.9553 Y32.6787 I-1.0304 J1.5973
G3 X-47.5012 Y33.0889 I-2.7475 J3.4983
G1 X-47.4035 Y32.9863
G2 X-48.048 Y32.3955 I-4.4456 J4.2028
G2 X-48.2425 Y32.2767 I-0.7224 J0.9632
G2 X-48.4631 Y32.2197 I-0.2392 J0.4711
G2 X-48.7658 Y32.4102 I-0.0139 J0.3137
G2 X-48.8048 Y32.6557 I0.4656 J0.1998
G2 X-48.7512 Y32.8984 I0.9384 J-0.0801
G1 X-48.3703 Y34.0068
G3 X-48.3047 Y34.2682 I-1.464 J0.5062
G3 X-48.3066 Y34.4175 I-0.4088 J0.0697
G3 X-48.424 Y34.5098 I-0.109 J-0.0179
G3 X-48.5528 Y34.4644 I0.0195 J-0.2608
G3 X-48.8894 Y34.1377 I0.9604 J-1.3261
G3 X-49.1711 Y33.7627 I4.7073 J-3.8295
G3 X-49.9621 Y32.3174 I5.4325 J-3.9123
G1 X-50.382
G1 X-49.8547 Y34.0068
G3 X-49.7846 Y34.2675 I-1.4446 J0.5282
G3 Y34.4178 I-0.3995 J0.0751
G3 X-49.9035 Y34.5098 I-0.1093 J-0.0184
G3 X-50.0323 Y34.4644 I0.0195 J-0.2608
G3 X-50.3689 Y34.1377 I0.9604 J-1.3261
G3 X-50.6506 Y33.7627 I4.7073 J-3.8295
G3 X-51.4416 Y32.3174 I5.4325 J-3.9123
G1 X-51.8615
G0 Z110.0
G0 X-47.219 Y32.8049
G1 F508.0 Z65.0
G2 F2032.0 X-47.2229 Y32.9082 I0.7591 J0.0797
G2 X-47.0813 Y33.5088 I1.4847 J-0.0331
G2 X-46.6857 Y34.0996 I2.0108 J-0.9183
G2 X-46.1185 Y34.5479 I1.5405 J-1.3662
G2 X-45.4162 Y34.7197 I0.699 J-1.3362
G2 X-45.2079 Y34.7002 I0.0107 J-1.007
G2 X-45.0158 Y34.6172 I-0.0866 J-0.4641
G1 X-44.4836 Y34.7197
G1 X-45.0354 Y32.7373
G3 X-45.0305 Y32.5762 I0.2354 J-0.0735
G3 X-44.9377 Y32.5176 I0.0893 J0.0386
G3 X-44.8265 Y32.5553 I-0.026 J0.2592
G3 X-44.5058 Y32.8049 I-1.0435 J1.672
G3 X-44.215 Y33.0889 I-4.9057 J5.3133
G1 X-44.1174 Y32.9863
G2 X-44.5771 Y32.5212 I-3.6649 J3.1628
G2 X-44.8437 Y32.3251 I-1.2702 J1.4468
G2 X-45.1574 Y32.2197 I-0.3577 J0.5455
G2 X-45.4602 Y32.4053 I-0.0156 J0.3143
G2 X-45.5051 Y32.6514 I0.5021 J0.2188
G2 X-45.465 Y32.8984 I1.0568 J-0.0445
G1 X-45.3576 Y33.3281
G2 X-45.6847 Y32.8809 I-5.5346 J3.7051
G2 X-46.0656 Y32.4785 I-2.3541 J1.8468
G2 X-46.3432 Y32.2963 I-0.8355 J0.97
G2 X-46.6662 Y32.2197 I-0.3325 J0.6832
G2 X-47.0617 Y32.415 I-0.0016 J0.4949
G2 X-47.219 Y32.8049 I0.6018 J0.4695
G1 F508.0 X-46.7045 Y32.8356
G3 F2032.0 X-46.6636 Y32.6415 I0.6709 J0.04
G3 X-46.4465 Y32.498 I0.2061 J0.0758
G3 X-46.2212 Y32.5748 I-0.0254 J0.4436
G3 X-45.9523 Y32.8044 I-0.7966 J1.205
G3 X-45.7238 Y33.0742 I-2.5366 J2.3797
G3 X-45.3782 Y33.594 I-3.4811 J2.6892
G3 X-45.133 Y34.168 I-2.3575 J1.3467
G1 X-45.0549 Y34.4609
G3 X-45.4162 Y34.5488 I-0.3644 J-0.7116
G3 X-45.9737 Y34.3566 I0.0022 J-0.9112
G3 X-46.3635 Y33.9141 I1.0189 J-1.2902
G3 X-46.6125 Y33.3916 I2.1117 J-1.3271
G3 X-46.7053 Y32.8984 I1.5506 J-0.547
G3 X-46.7045 Y32.8356 I0.6717 J-0.0228
G0 Z110.0
G0 X-43.9025 Y32.3174
G1 F508.0 Z65.0
G1 F2032.0 X-43.2824 Y34.6074
G1 X-42.7746 Y34.7197
G1 X-43.1652 Y33.2891
G2 X-42.7826 Y33.8622 I12.5242 J-7.9462
G2 X-42.3547 Y34.4023 I4.2033 J-2.8906
G2 X-42.1134 Y34.6118 I1.095 J-1.018
G2 X-41.8127 Y34.7197 I0.3307 J-0.4482
G2 X-41.5859 Y34.6604 I0.0133 J-0.4127
G2 X-41.4416 Y34.4756 I-0.2129 J-0.3149
G2 X-41.4046 Y34.1529 I-0.6378 J-0.2366
G2 X-41.4758 Y33.8359 I-1.4878 J0.1677
G1 X-41.842 Y32.7373
G3 X-41.8664 Y32.5322 I0.4093 J-0.1527
G3 X-41.7834 Y32.4492 I0.0887 J0.0057
G3 X-41.6679 Y32.4998 I-0.049 J0.269
G3 X-41.3329 Y32.7813 I-1.7004 J2.3637
G3 X-41.0217 Y33.0889 I-7.5313 J7.9315
G1 X-40.924 Y32.9863
G2 X-41.5686 Y32.3955 I-4.4456 J4.2028
G2 X-41.763 Y32.2767 I-0.7224 J0.9632
G2 X-41.9836 Y32.2197 I-0.2392 J0.4711
G2 X-42.2863 Y32.4102 I-0.0177 J0.3076
G2 X-42.3253 Y32.6557 I0.4656 J0.1998
G2 X-42.2717 Y32.8984 I0.9384 J-0.0801
G1 X-41.8957 Y34.0068
G3 X-41.8256 Y34.2675 I-1.4446 J0.5282
G3 Y34.4178 I-0.3995 J0.0751
G3 X-41.9445 Y34.5098 I-0.1093 J-0.0184
G3 X-42.0733 Y34.4644 I0.0195 J-0.2608
G3 X-42.4099 Y34.1377 I0.9604 J-1.3261
G3 X-42.6916 Y33.7627 I4.7073 J-3.8295
G3 X-43.4826 Y32.3174 I5.6886 J-4.0525
G1 X-43.9025
G0 Z110.0
G0 X-40.636 Y32.5742
G1 F508.0 Z65.0
G2 F2032.0 X-40.6364 Y32.6547 I0.5424 J0.0427
G2 X-40.592 Y32.8984 I1.0467 J-0.0647
G1 X-40.0939 Y34.6123
G1 X-39.5813 Y34.7197
G1 X-40.1623 Y32.7373
G3 X-40.1721 Y32.5762 I0.2717 J-0.0973
G3 X-40.0842 Y32.5176 I0.083 J0.0293
G3 X-39.9315 Y32.5827 I-0.0672 J0.3688
G3 X-39.7961 Y32.6787 I-1.0304 J1.5973
G3 X-39.342 Y33.0889 I-2.7475 J3.4983
G1 X-39.2395 Y32.9912
G2 X-39.884 Y32.3955 I-4.3668 J4.0782
G2 X-40.0811 Y32.2769 I-0.7399 J1.0068
G2 X-40.3039 Y32.2197 I-0.2426 J0.4823
G2 X-40.5969 Y32.4102 I-0.0129 J0.3008
G2 X-40.636 Y32.5742 I0.5033 J0.2067
G0 Z110.0
G0 X-38.791 Y32.5988
G1 F508.0 Z65.0
G2 F2032.0 X-38.7889 Y32.6527 I0.5242 J0.007
G2 X-38.7414 Y32.8984 I1.0999 J-0.0853
G1 X-38.1555 Y34.9053
G1 X-38.6047
G1 X-38.5217 Y35.2275
G1 X-38.0627
G1 X-37.6037 Y36.8096
G1 X-37.0959 Y36.917
G1 X-37.5939 Y35.2275
G1 X-36.8811
G1 X-36.9641 Y34.9053
G1 X-37.6818
G1 X-38.3117 Y32.7373
G3 X-38.3352 Y32.6052 I0.3483 J-0.13
G3 X-38.2336 Y32.5176 I0.0878 J-0.0009
G3 X-38.0815 Y32.5838 I-0.0767 J0.384
G3 X-37.9455 Y32.6787 I-1.1393 J1.7773
G3 X-37.4914 Y33.0889 I-2.347 J3.055
G1 X-37.3938 Y32.9863
G2 X-38.0383 Y32.3955 I-4.4456 J4.2028
G2 X-38.2327 Y32.2767 I-0.7224 J0.9632
G2 X-38.4533 Y32.2197 I-0.2392 J0.4711
G2 X-38.7512 Y32.4053 I-0.0206 J0.2988
G2 X-38.791 Y32.5988 I0.4843 J0.2005
G0 Z110.0
G0 X-36.8709 Y32.7245
G1 F508.0 Z65.0
G2 F2032.0 X-36.8688 Y32.8657 I0.8806 J0.0576
G2 X-36.8029 Y33.2402 I1.9962 J-0.1582
G1 X-36.4318 Y34.6123
G1 X-35.924 Y34.7197
G1 X-36.4221 Y33.001
G3 X-36.4817 Y32.6968 I1.2369 J-0.4002
G3 X-36.4501 Y32.5265 I0.3198 J-0.0288
G3 X-36.2951 Y32.4492 I0.1408 J0.0883
G3 X-36.1617 Y32.5003 I-0.0246 J0.2641
G3 X-35.8138 Y32.8473 I-1.1325 J1.4831
G3 X-35.5188 Y33.2402 I-5.4257 J4.3815
G3 X-35.1039 Y33.897 I-5.8191 J4.1351
G3 X-34.801 Y34.6123 I-2.8779 J1.6406
G1 X-34.2932 Y34.7197
G1 X-34.8547 Y32.7617
G3 X-34.6447 Y32.8984 I-5.989 J9.4269
G2 X-34.4152 Y33.0596 I19.7319 J-27.8591
G1 X-34.3322 Y32.9375
G2 X-34.6301 Y32.7275 I-29.0034 J40.8281
G2 X-34.923 Y32.5176 I-9.3183 J12.693
G1 X-35.2746 Y31.248
G2 X-35.4731 Y30.7324 I-2.5693 J0.6932
G2 X-35.7922 Y30.2813 I-1.7165 J0.8755
G2 X-36.1201 Y30.0215 I-0.9825 J0.9032
G2 X-36.5246 Y29.915 I-0.4094 J0.7339
G2 X-36.9152 Y30.0762 I-0.0211 J0.5028
G2 X-37.0617 Y30.4961 I0.4558 J0.3945
G2 X-36.9489 Y30.9008 I0.87 J-0.0245
G2 X-36.7053 Y31.2432 I1.605 J-0.8842
G2 X-36.1034 Y31.8118 I4.3881 J-4.042
G2 X-35.4553 Y32.3271 I10.7256 J-12.8231
G1 X-35.0842 Y33.6504
G2 X-35.6341 Y32.8291 I-7.4588 J4.3993
G2 X-35.9684 Y32.4545 I-2.4995 J1.8945
G2 X-36.1702 Y32.2989 I-0.871 J0.9207
G2 X-36.4123 Y32.2197 I-0.2667 J0.4059
G2 X-36.6628 Y32.2847 I-0.0148 J0.4587
G2 X-36.8225 Y32.4883 I0.232 J0.3463
G2 X-36.8709 Y32.7245 I0.8321 J0.2938
G0 Z110.0
G0 X-35.9796 Y31.6959
G1 F508.0 Z65.0
G3 F2032.0 X-36.2967 Y31.4033 I4.5275 J-5.2241
G3 X-36.6263 Y31.0085 I1.899 J-1.9203
G3 X-36.749 Y30.7795 I1.0672 J-0.7197
G3 X-36.8029 Y30.5254 I0.636 J-0.2676
G3 X-36.7199 Y30.2324 I0.4736 J-0.0241
G3 X-36.4953 Y30.125 I0.2152 J0.1614
G3 X-36.2564 Y30.2113 I-0.0032 J0.3827
G3 X-36.09 Y30.4033 I-0.4726 J0.5774
G3 X-35.8863 Y30.8283 I-1.8535 J1.1502
G3 X-35.7434 Y31.2773 I-5.1914 J1.8991
G1 X-35.5236 Y32.0586
G3 X-35.9796 Y31.6959 I4.0716 J-5.5867
G0 Z110.0
G0 X-34.2639 Y30.9551
G1 F508.0 Z65.0
G3 F2032.0 X-33.7483 Y31.5398 I-3.191 J3.333
G3 X-33.385 Y32.2295 I-1.946 J1.4658
G2 X-33.4631 Y32.2197 I-0.071 J0.2507
G2 X-33.7463 Y32.3369 I-0.0062 J0.3858
G2 X-33.8635 Y32.6201 I0.2686 J0.277
G2 X-33.7463 Y32.9033 I0.3858 J0.0062
G2 X-33.4631 Y33.0205 I0.277 J-0.2686
G2 X-33.1604 Y32.8887 I0.0157 J-0.3775
G2 X-33.0432 Y32.5371 I-0.3956 J-0.3272
G2 X-33.1614 Y32.0295 I-1.2404 J0.0213
G2 X-33.5986 Y31.3899 I-2.3041 J1.1056
G2 X-34.1613 Y30.8574 I-3.979 J3.6418
G1 X-34.2639 Y30.9551
G0 Z110.0
G0 X-29.7704 Y32.7152
G1 F508.0 Z65.0
G2 F2032.0 X-29.8293 Y33.0596 I0.803 J0.3145
G2 X-29.6975 Y33.5918 I1.3003 J-0.0396
G2 X-29.3264 Y34.1338 I1.864 J-0.8782
G2 X-28.8013 Y34.5538 I1.493 J-1.3281
G2 X-28.1496 Y34.7197 I0.6528 J-1.2016
G2 X-27.5735 Y34.4805 I0.028 J-0.746
G2 X-27.3537 Y33.8799 I-0.6249 J-0.5691
G2 X-27.4905 Y33.3428 I-1.2962 J0.044
G2 X-27.8567 Y32.8057 I-1.8084 J0.8396
G2 X-28.3818 Y32.3856 I-1.493 J1.3281
G2 X-29.0334 Y32.2197 I-0.6528 J1.2016
G2 X-29.6096 Y32.4541 I-0.0291 J0.7539
G2 X-29.7704 Y32.7152 I0.6422 J0.5756
G1 F508.0 X-29.3067 Y32.7787
G3 F2032.0 X-29.219 Y32.5322 I0.6345 J0.0869
G3 X-28.9504 Y32.4004 I0.2569 J0.1839
G3 X-28.7049 Y32.4693 I-0.0076 J0.4988
G3 X-28.4222 Y32.7194 I-0.5472 J0.9032
G3 X-28.2082 Y33.0303 I-1.8713 J1.5172
G3 X-27.9641 Y33.5625 I-2.3278 J1.3899
G3 X-27.8713 Y34.041 I-1.5309 J0.5451
G3 X-27.969 Y34.4072 I-0.6144 J0.0323
G3 X-28.2327 Y34.5391 I-0.2505 J-0.1713
G3 X-28.4782 Y34.4701 I0.0076 J-0.4988
G3 X-28.7608 Y34.22 I0.5472 J-0.9032
G3 X-28.9748 Y33.9092 I1.8713 J-1.5172
G3 X-29.219 Y33.3721 I2.2912 J-1.3655
G3 X-29.3118 Y32.8984 I1.4824 J-0.5363
G3 X-29.3067 Y32.7787 I0.6396 J-0.0328
G0 Z110.0
G0 X-27.0608 Y32.3174
G1 F508.0 Z65.0
G1 F2032.0 X-26.4407 Y34.6123
G1 X-25.9328 Y34.7197
G1 X-26.26 Y33.5186
G2 X-25.97 Y33.9958 I9.7448 J-5.5956
G2 X-25.6399 Y34.4463 I3.3309 J-2.0944
G2 X-25.443 Y34.6285 I0.8574 J-0.729
G2 X-25.1907 Y34.7197 I0.2719 J-0.3575
G2 X-24.8394 Y34.4856 I-0.0033 J-0.3855
G2 X-24.7219 Y34.0801 I-1.1638 J-0.5569
G1 X-25.093 Y33.958
G3 X-25.1563 Y34.2435 I-1.6714 J-0.221
G3 X-25.2218 Y34.3812 I-0.526 J-0.1657
G3 X-25.3518 Y34.4609 I-0.1392 J-0.0811
G3 X-25.4542 Y34.4138 I0.0251 J-0.1893
G3 X-25.7107 Y34.123 I1.0779 J-1.2093
G3 X-25.928 Y33.8018 I5.0315 J-3.6367
G3 X-26.6409 Y32.3174 I5.4256 J-3.5191
G1 X-27.0608
G0 Z110.0
G0 X-25.01 Y30.9551
G1 F508.0 Z65.0
G3 F2032.0 X-24.4945 Y31.5398 I-3.191 J3.333
G3 X-24.1311 Y32.2295 I-1.946 J1.4658
G2 X-24.2092 Y32.2197 I-0.071 J0.2507
G2 X-24.4924 Y32.3369 I-0.0062 J0.3858
G2 X-24.6096 Y32.6201 I0.2686 J0.277
G2 X-24.4924 Y32.9033 I0.3858 J0.0062
G2 X-24.2092 Y33.0205 I0.277 J-0.2686
G2 X-23.9065 Y32.8887 I0.0157 J-0.3775
G2 X-23.7893 Y32.5371 I-0.3956 J-0.3272
G2 X-23.9075 Y32.0295 I-1.2404 J0.0213
G2 X-24.3447 Y31.3899 I-2.3041 J1.1056
G2 X-24.9075 Y30.8574 I-3.979 J3.6418
G1 X-25.01 Y30.9551
G0 Z110.0
G0 X-20.4038 Y32.5459
G1 F508.0 Z65.0
G2 F2032.0 X-20.4135 Y32.5785 I0.3755 J0.1297
G2 X-20.3948 Y32.9229 I0.6882 J0.1352
G1 X-18.6321 Y39.3682
G1 X-18.0462 Y39.5195
G1 X-19.7014 Y33.7285
G2 X-19.1155 Y34.4463 I2.3671 J-1.3343
G2 X-18.8388 Y34.6348 I0.9386 J-1.0804
G2 X-18.5149 Y34.7197 I0.3406 J-0.6389
G2 X-18.0462 Y34.5195 I0.0238 J-0.5932
G2 X-17.8655 Y33.9922 I-0.5799 J-0.4933
G2 X-18.0169 Y33.4209 I-1.3407 J0.0495
G2 X-18.4221 Y32.8447 I-2.1007 J1.047
G2 X-18.9816 Y32.4012 I-1.6731 J1.5359
G2 X-19.6721 Y32.2197 I-0.6984 J1.2533
G2 X-19.9704 Y32.2435 I-0.0155 J1.6913
G2 X-20.1925 Y32.3138 I0.1349 J0.8116
G2 X-20.4038 Y32.5459 I0.1642 J0.3617
G1 F508.0 X-19.937 Y32.622
G3 F2032.0 X-19.8733 Y32.4726 I0.3352 J0.0546
G3 X-19.6526 Y32.3906 I0.1998 J0.1998
G3 X-19.1484 Y32.5395 I0.0 J0.928
G3 X-18.7688 Y32.9033 I-0.8096 J1.2247
G3 X-18.3831 Y34.041 I-1.4622 J1.13
G3 X-18.443 Y34.3317 I-0.6044 J0.0269
G3 X-18.7053 Y34.4707 I-0.2416 J-0.139
G3 X-18.8934 Y34.4054 I0.0275 J-0.3826
G3 X-19.052 Y34.2852 I0.6216 J-0.9851
G3 X-19.4719 Y33.792 I2.024 J-2.1488
G3 X-19.7792 Y33.2763 I3.2464 J-2.2836
G3 X-19.8911 Y32.996 I1.7732 J-0.8707
G3 X-19.9407 Y32.6982 I0.9876 J-0.3174
G3 X-19.937 Y32.622 I0.3389 J-0.0216
G0 Z110.0
G0 X-17.2558 Y32.7425
G1 F508.0 Z65.0
G2 F2032.0 X-17.2527 Y32.8657 I0.8816 J0.0396
G2 X-17.1868 Y33.2402 I1.9962 J-0.1582
G1 X-16.8157 Y34.6123
G1 X-16.3079 Y34.7197
G1 X-16.8059 Y33.001
G3 X-16.8655 Y32.6968 I1.2369 J-0.4002
G3 X-16.834 Y32.5265 I0.3198 J-0.0288
G3 X-16.679 Y32.4492 I0.1408 J0.0883
G3 X-16.5455 Y32.5003 I-0.0246 J0.2641
G3 X-16.1976 Y32.8473 I-1.1325 J1.4831
G3 X-15.9026 Y33.2402 I-5.4257 J4.3815
G3 X-15.4878 Y33.897 I-5.8191 J4.1351
G3 X-15.1848 Y34.6123 I-2.8779 J1.6406
G1 X-14.677 Y34.7197
G1 X-15.2385 Y32.7617
G3 X-15.0286 Y32.8984 I-5.989 J9.4269
G2 X-14.7991 Y33.0596 I19.7319 J-27.8591
G1 X-14.7161 Y32.9375
G2 X-15.0139 Y32.7275 I-29.0034 J40.8281
G2 X-15.3069 Y32.5176 I-9.3183 J12.693
G1 X-15.6585 Y31.248
G2 X-15.857 Y30.7324 I-2.5693 J0.6932
G2 X-16.176 Y30.2813 I-1.7165 J0.8755
G2 X-16.5039 Y30.0215 I-0.9825 J0.9032
G2 X-16.9085 Y29.915 I-0.4094 J0.7339
G2 X-17.2991 Y30.0762 I-0.0211 J0.5028
G2 X-17.4456 Y30.4961 I0.4558 J0.3945
G2 X-17.3327 Y30.9008 I0.87 J-0.0245
G2 X-17.0891 Y31.2432 I1.605 J-0.8842
G2 X-16.4872 Y31.8118 I4.3881 J-4.042
G2 X-15.8391 Y32.3271 I10.7256 J-12.8231
G1 X-15.468 Y33.6504
G2 X-16.0179 Y32.8291 I-7.4588 J4.3993
G2 X-16.3523 Y32.4545 I-2.4995 J1.8945
G2 X-16.554 Y32.2989 I-0.871 J0.9207
G2 X-16.7962 Y32.2197 I-0.2667 J0.4059
G2 X-17.0466 Y32.2847 I-0.0148 J0.4587
G2 X-17.2063 Y32.4883 I0.232 J0.3463
G2 X-17.2558 Y32.7425 I0.8321 J0.2938
G0 Z110.0
G0 X-16.3564 Y31.702
G1 F508.0 Z65.0
G3 F2032.0 X-16.6805 Y31.4033 I4.5205 J-5.2301
G3 X-17.0101 Y31.0085 I1.899 J-1.9203
G3 X-17.1329 Y30.7795 I1.0672 J-0.7197
G3 X-17.1868 Y30.5254 I0.636 J-0.2676
G3 X-17.1038 Y30.2324 I0.4736 J-0.0241
G3 X-16.8792 Y30.125 I0.2152 J0.1614
G3 X-16.6402 Y30.2113 I-0.0032 J0.3827
G3 X-16.4739 Y30.4033 I-0.4726 J0.5774
G3 X-16.2701 Y30.8283 I-1.8535 J1.1502
G3 X-16.1272 Y31.2773 I-5.1914 J1.8991
G1 X-15.9075 Y32.0586
G3 X-16.3564 Y31.702 I4.0716 J-5.5867
G0 Z110.0
G0 X-12.1387 Y32.514
G1 F508.0 Z65.0
G2 F2032.0 X-12.1472 Y32.6547 I0.5343 J0.1029
G2 X-12.1028 Y32.8984 I1.0467 J-0.0647
G1 X-11.6048 Y34.6123
G1 X-11.0921 Y34.7197
G1 X-11.6731 Y32.7373
G3 X-11.6829 Y32.5762 I0.2717 J-0.0973
G3 X-11.595 Y32.5176 I0.083 J0.0293
G3 X-11.4424 Y32.5827 I-0.0672 J0.3688
G3 X-11.3069 Y32.6787 I-1.0304 J1.5973
G3 X-10.8528 Y33.0889 I-2.7475 J3.4983
G1 X-10.7503 Y32.9912
G2 X-11.3948 Y32.3955 I-4.3668 J4.0782
G2 X-11.5919 Y32.2769 I-0.7399 J1.0068
G2 X-11.8147 Y32.2197 I-0.2426 J0.4823
G2 X-12.1077 Y32.4102 I-0.0129 J0.3008
G2 X-12.1387 Y32.514 I0.5033 J0.2067
G0 Z110.0
G0 X-10.4134 Y32.3174
G1 F508.0 Z65.0
G1 F2032.0 X-9.7933 Y34.6074
G1 X-9.2855 Y34.7197
G1 X-9.6761 Y33.2891
G2 X-9.2935 Y33.8622 I12.5242 J-7.9462
G2 X-8.8655 Y34.4023 I4.2033 J-2.8906
G2 X-8.6242 Y34.6118 I1.095 J-1.018
G2 X-8.3235 Y34.7197 I0.3307 J-0.4482
G2 X-8.0967 Y34.6604 I0.0133 J-0.4127
G2 X-7.9524 Y34.4756 I-0.2129 J-0.3149
G2 X-7.9154 Y34.1529 I-0.6378 J-0.2366
G2 X-7.9866 Y33.8359 I-1.4878 J0.1677
G1 X-8.3528 Y32.7373
G3 X-8.3772 Y32.5322 I0.4093 J-0.1527
G3 X-8.2942 Y32.4492 I0.0887 J0.0057
G3 X-8.1787 Y32.4998 I-0.049 J0.269
G3 X-7.8437 Y32.7813 I-1.7004 J2.3637
G3 X-7.5325 Y33.0889 I-7.5313 J7.9315
G1 X-7.4349 Y32.9863
G2 X-8.0794 Y32.3955 I-4.4456 J4.2028
G2 X-8.2738 Y32.2767 I-0.7224 J0.9632
G2 X-8.4944 Y32.2197 I-0.2392 J0.4711
G2 X-8.7972 Y32.4102 I-0.0177 J0.3076
G2 X-8.8362 Y32.6557 I0.4656 J0.1998
G2 X-8.7825 Y32.8984 I0.9384 J-0.0801
G1 X-8.4065 Y34.0068
G3 X-8.3365 Y34.2675 I-1.4446 J0.5282
G3 Y34.4178 I-0.3995 J0.0751
G3 X-8.4554 Y34.5098 I-0.1093 J-0.0184
G3 X-8.5842 Y34.4644 I0.0195 J-0.2608
G3 X-8.9207 Y34.1377 I0.9604 J-1.3261
G3 X-9.2024 Y33.7627 I4.7073 J-3.8295
G3 X-9.9935 Y32.3174 I5.6886 J-4.0525
G1 X-10.4134
G0 Z110.0
G0 X-10.9918 Y35.2543
G1 F508.0 Z65.0
G2 F2032.0 X-11.0726 Y35.2471 I-0.0746 J0.3786
G2 X-11.3558 Y35.3643 I-0.0062 J0.3858
G2 X-11.473 Y35.6475 I0.2686 J0.277
G2 X-11.3558 Y35.9307 I0.3858 J0.0062
G2 X-11.0726 Y36.0479 I0.277 J-0.2686
G2 X-10.7894 Y35.9307 I0.0062 J-0.3858
G2 X-10.6722 Y35.6475 I-0.2686 J-0.277
G2 X-10.7894 Y35.3643 I-0.3858 J-0.0062
G2 X-10.9918 Y35.2543 I-0.277 J0.2686
G0 Z110.0
G0 X-7.1209 Y33.4908
G1 F508.0 Z65.0
G2 F2032.0 X-7.1126 Y33.5088 I1.3514 J-0.6157
G2 X-6.7171 Y34.0996 I2.0108 J-0.9183
G2 X-6.1499 Y34.5479 I1.5405 J-1.3662
G2 X-5.4476 Y34.7197 I0.699 J-1.3362
G2 X-5.2392 Y34.7002 I0.0107 J-1.007
G2 X-5.0472 Y34.6172 I-0.0866 J-0.4641
G1 X-4.5149 Y34.7197
G1 X-5.0667 Y32.7373
G3 X-5.0618 Y32.5762 I0.2354 J-0.0735
G3 X-4.969 Y32.5176 I0.0893 J0.0386
G3 X-4.8578 Y32.5553 I-0.026 J0.2592
G3 X-4.5371 Y32.8049 I-1.0435 J1.672
G3 X-4.2464 Y33.0889 I-4.9057 J5.3133
G1 X-4.1487 Y32.9863
G2 X-4.6085 Y32.5212 I-3.6649 J3.1628
G2 X-4.875 Y32.3251 I-1.2702 J1.4468
G2 X-5.1888 Y32.2197 I-0.3577 J0.5455
G2 X-5.4915 Y32.4053 I-0.0156 J0.3143
G2 X-5.5364 Y32.6514 I0.5021 J0.2188
G2 X-5.4964 Y32.8984 I1.0568 J-0.0445
G1 X-5.389 Y33.3281
G2 X-5.7161 Y32.8809 I-5.5346 J3.7051
G2 X-6.097 Y32.4785 I-2.3541 J1.8468
G2 X-6.3745 Y32.2963 I-0.8355 J0.97
G2 X-6.6976 Y32.2197 I-0.3325 J0.6832
G2 X-7.0931 Y32.415 I-0.0016 J0.4949
G2 X-7.2542 Y32.9082 I0.6018 J0.4695
G2 X-7.1209 Y33.4908 I1.4847 J-0.0331
G1 F508.0 X-6.6599 Y33.3439
G3 F2032.0 X-6.7366 Y32.8984 I1.5666 J-0.4993
G3 X-6.6949 Y32.6415 I0.6717 J-0.0228
G3 X-6.4778 Y32.498 I0.2061 J0.0758
G3 X-6.2525 Y32.5748 I-0.0254 J0.4436
G3 X-5.9836 Y32.8044 I-0.7966 J1.205
G3 X-5.7552 Y33.0742 I-2.5366 J2.3797
G3 X-5.4096 Y33.594 I-3.4811 J2.6892
G3 X-5.1644 Y34.168 I-2.3575 J1.3467
G1 X-5.0862 Y34.4609
G3 X-5.4476 Y34.5488 I-0.3644 J-0.7116
G3 X-6.0051 Y34.3566 I0.0022 J-0.9112
G3 X-6.3948 Y33.9141 I1.0189 J-1.2902
G3 X-6.6438 Y33.3916 I2.1117 J-1.3271
G3 X-6.6599 Y33.3439 I1.5506 J-0.547
G0 Z110.0
G0 X-3.9011 Y33.1055
G1 F508.0 Z65.0
G2 F2032.0 X-3.7581 Y33.5771 I1.1881 J-0.1027
G2 X-3.3675 Y34.124 I1.9841 J-1.0043
G2 X-2.8041 Y34.5512 I1.5811 J-1.4998
G2 X-2.1175 Y34.7197 I0.6896 J-1.327
G2 X-1.7939 Y34.6951 I0.0165 J-1.9243
G2 X-1.4876 Y34.5879 I-0.1242 J-0.8457
G1 X-1.6683 Y34.0996
G3 X-1.9196 Y34.3962 I-0.8596 J-0.4736
G3 X-2.2884 Y34.5195 I-0.3648 J-0.4779
G3 X-2.7331 Y34.3718 I0.0041 J-0.7554
G3 X-3.055 Y34.0313 I0.8141 J-1.0921
G3 X-3.387 Y32.957 I1.5378 J-1.0637
G3 X-3.2845 Y32.6006 I0.5617 J-0.0314
G3 X-2.9964 Y32.4785 I0.2692 J0.2343
G3 X-2.6881 Y32.5498 I-0.0258 J0.8143
G3 X-2.2815 Y32.7891 I-0.8484 J1.9061
G3 X-1.9173 Y33.0889 I-2.6871 J3.6363
G1 X-1.8147 Y32.9912
G2 X-2.156 Y32.6713 I-3.4802 J3.3704
G2 X-2.5374 Y32.4004 I-1.6463 J1.9139
G2 X-3.1673 Y32.2197 I-0.6531 J1.0887
G2 X-3.4645 Y32.2667 I-0.0136 J0.8768
G2 X-3.7142 Y32.4346 I0.1988 J0.5655
G2 X-3.8654 Y32.7248 I0.5413 J0.4666
G2 X-3.9046 Y33.0498 I1.2025 J0.3097
G2 X-3.9011 Y33.1055 I1.1916 J-0.047
G0 Z110.0
G0 X-1.2246 Y32.7234
G1 F508.0 Z65.0
G2 F2032.0 X-1.1849 Y32.8984 I1.0921 J-0.1559
G1 X-0.5989 Y34.9053
G1 X-1.0481
G1 X-0.9651 Y35.2275
G1 X-0.5062
G1 X-0.0472 Y36.8096
G1 X0.4606 Y36.917
G1 X-0.0374 Y35.2275
G1 X0.6755
G1 X0.5925 Y34.9053
G1 X-0.1253
G1 X-0.7552 Y32.7373
G3 X-0.7787 Y32.6052 I0.3483 J-0.13
G3 X-0.6771 Y32.5176 I0.0878 J-0.0009
G3 X-0.525 Y32.5838 I-0.0767 J0.384
G3 X-0.389 Y32.6787 I-1.1393 J1.7773
G3 X0.0651 Y33.0889 I-2.347 J3.055
G1 X0.1628 Y32.9863
G2 X-0.4817 Y32.3955 I-4.4456 J4.2028
G2 X-0.6761 Y32.2767 I-0.7224 J0.9632
G2 X-0.8968 Y32.2197 I-0.2392 J0.4711
G2 X-1.1946 Y32.4053 I-0.0206 J0.2988
G2 X-1.2324 Y32.6527 I0.4843 J0.2005
G2 X-1.2246 Y32.7234 I1.0999 J-0.0853
G0 Z110.0
G0 X0.6206 Y32.6411
G1 F508.0 Z65.0
G2 F2032.0 X0.6213 Y32.6547 I0.5436 J-0.0242
G2 X0.6657 Y32.8984 I1.0467 J-0.0647
G1 X1.1638 Y34.6123
G1 X1.6765 Y34.7197
G1 X1.0954 Y32.7373
G3 X1.0856 Y32.5762 I0.2717 J-0.0973
G3 X1.1735 Y32.5176 I0.083 J0.0293
G3 X1.3262 Y32.5827 I-0.0672 J0.3688
G3 X1.4616 Y32.6787 I-1.0304 J1.5973
G3 X1.9157 Y33.0889 I-2.7475 J3.4983
G1 X2.0183 Y32.9912
G2 X1.3737 Y32.3955 I-4.3668 J4.0782
G2 X1.1766 Y32.2769 I-0.7399 J1.0068
G2 X0.9538 Y32.2197 I-0.2426 J0.4823
G2 X0.6608 Y32.4102 I-0.0129 J0.3008
G2 X0.6206 Y32.6411 I0.5033 J0.2067
G0 Z110.0
G0 X2.3739 Y32.9026
G1 F508.0 Z65.0
G2 F2032.0 X2.3649 Y33.0596 I0.853 J0.1272
G2 X2.4968 Y33.5918 I1.3003 J-0.0396
G2 X2.8679 Y34.1338 I1.864 J-0.8782
G2 X3.393 Y34.5538 I1.493 J-1.3281
G2 X4.0446 Y34.7197 I0.6528 J-1.2016
G2 X4.6208 Y34.4805 I0.028 J-0.746
G2 X4.8405 Y33.8799 I-0.6249 J-0.5691
G2 X4.7038 Y33.3428 I-1.2962 J0.044
G2 X4.3376 Y32.8057 I-1.8084 J0.8396
G2 X3.8125 Y32.3856 I-1.493 J1.3281
G2 X3.1608 Y32.2197 I-0.6528 J1.2016
G2 X2.5847 Y32.4541 I-0.0291 J0.7539
G2 X2.3739 Y32.9026 I0.6422 J0.5756
G1 F508.0 X2.882 Y32.8862
G3 F2032.0 X2.9753 Y32.5322 I0.6401 J-0.0206
G3 X3.2438 Y32.4004 I0.2569 J0.1839
G3 X3.4894 Y32.4693 I-0.0076 J0.4988
G3 X3.772 Y32.7194 I-0.5472 J0.9032
G3 X3.986 Y33.0303 I-1.8713 J1.5172
G3 X4.2302 Y33.5625 I-2.3278 J1.3899
G3 X4.3229 Y34.041 I-1.5309 J0.5451
G3 X4.2253 Y34.4072 I-0.6144 J0.0323
G3 X3.9616 Y34.5391 I-0.2505 J-0.1713
G3 X3.7161 Y34.4701 I0.0076 J-0.4988
G3 X3.4334 Y34.22 I0.5472 J-0.9032
G3 X3.2194 Y33.9092 I1.8713 J-1.5172
G3 X2.9753 Y33.3721 I2.2912 J-1.3655
G3 X2.8825 Y32.8984 I1.4824 J-0.5363
G3 X2.882 Y32.8862 I0.6396 J-0.0328
G0 Z110.0
G0 X5.1335 Y32.3174
G1 F508.0 Z65.0
G1 F2032.0 X5.7536 Y34.6074
G1 X6.2614 Y34.7197
G1 X5.8708 Y33.2891
G2 X6.2534 Y33.8622 I12.5242 J-7.9462
G2 X6.6813 Y34.4023 I4.2033 J-2.8906
G2 X6.9226 Y34.6118 I1.095 J-1.018
G2 X7.2233 Y34.7197 I0.3307 J-0.4482
G2 X7.4502 Y34.6604 I0.0133 J-0.4127
G2 X7.5944 Y34.4756 I-0.2129 J-0.3149
G2 X7.6314 Y34.1529 I-0.6378 J-0.2366
G2 X7.5603 Y33.8359 I-1.4878 J0.1677
G1 X7.194 Y32.7373
G3 X7.1696 Y32.5322 I0.4093 J-0.1527
G3 X7.2526 Y32.4492 I0.0887 J0.0057
G3 X7.3681 Y32.4998 I-0.049 J0.269
G3 X7.7031 Y32.7813 I-1.7004 J2.3637
G3 X8.0144 Y33.0889 I-7.5313 J7.9315
G1 X8.112 Y32.9863
G2 X7.4675 Y32.3955 I-4.4456 J4.2028
G2 X7.2731 Y32.2767 I-0.7224 J0.9632
G2 X7.0524 Y32.2197 I-0.2392 J0.4711
G2 X6.7497 Y32.4102 I-0.0177 J0.3076
G2 X6.7107 Y32.6557 I0.4656 J0.1998
G2 X6.7644 Y32.8984 I0.9384 J-0.0801
G1 X7.1403 Y34.0068
G3 X7.2104 Y34.2675 I-1.4446 J0.5282
G3 Y34.4178 I-0.3995 J0.0751
G3 X7.0915 Y34.5098 I-0.1093 J-0.0184
G3 X6.9627 Y34.4644 I0.0195 J-0.2608
G3 X6.6261 Y34.1377 I0.9604 J-1.3261
G3 X6.3444 Y33.7627 I4.7073 J-3.8295
G3 X5.5534 Y32.3174 I5.6886 J-4.0525
G1 X5.1335
G0 Z110.0
G0 X8.112 Y30.9551
G1 F508.0 Z65.0
G3 F2032.0 X8.6275 Y31.5398 I-3.191 J3.333
G3 X8.9909 Y32.2295 I-1.946 J1.4658
G2 X8.9128 Y32.2197 I-0.071 J0.2507
G2 X8.6296 Y32.3369 I-0.0062 J0.3858
G2 X8.5124 Y32.6201 I0.2686 J0.277
G2 X8.6296 Y32.9033 I0.3858 J0.0062
G2 X8.9128 Y33.0205 I0.277 J-0.2686
G2 X9.2155 Y32.8887 I0.0157 J-0.3775
G2 X9.3327 Y32.5371 I-0.3956 J-0.3272
G2 X9.2145 Y32.0295 I-1.2404 J0.0213
G2 X8.7773 Y31.3899 I-2.3041 J1.1056
G2 X8.2145 Y30.8574 I-3.979 J3.6418
G1 X8.112 Y30.9551
G0 Z110.0
G0 X12.5939 Y32.6189
G1 F508.0 Z65.0
G2 F2032.0 X12.5465 Y32.9082 I0.7156 J0.2656
G2 X12.6882 Y33.5088 I1.4847 J-0.0331
G2 X13.0837 Y34.0996 I2.0108 J-0.9183
G2 X13.6509 Y34.5479 I1.5405 J-1.3662
G2 X14.3532 Y34.7197 I0.699 J-1.3362
G2 X14.5615 Y34.7002 I0.0107 J-1.007
G2 X14.7536 Y34.6172 I-0.0866 J-0.4641
G1 X15.2858 Y34.7197
G1 X14.734 Y32.7373
G3 X14.7389 Y32.5762 I0.2354 J-0.0735
G3 X14.8317 Y32.5176 I0.0893 J0.0386
G3 X14.9429 Y32.5553 I-0.026 J0.2592
G3 X15.2636 Y32.8049 I-1.0435 J1.672
G3 X15.5544 Y33.0889 I-4.9057 J5.3133
G1 X15.652 Y32.9863
G2 X15.1923 Y32.5212 I-3.6649 J3.1628
G2 X14.9257 Y32.3251 I-1.2702 J1.4468
G2 X14.612 Y32.2197 I-0.3577 J0.5455
G2 X14.3092 Y32.4053 I-0.0156 J0.3143
G2 X14.2643 Y32.6514 I0.5021 J0.2188
G2 X14.3044 Y32.8984 I1.0568 J-0.0445
G1 X14.4118 Y33.3281
G2 X14.0847 Y32.8809 I-5.5346 J3.7051
G2 X13.7038 Y32.4785 I-2.3541 J1.8468
G2 X13.4262 Y32.2963 I-0.8355 J0.97
G2 X13.1032 Y32.2197 I-0.3325 J0.6832
G2 X12.7077 Y32.415 I-0.0016 J0.4949
G2 X12.5939 Y32.6189 I0.6018 J0.4695
G1 F508.0 X13.0801 Y32.7282
G3 F2032.0 X13.1058 Y32.6415 I0.6557 J0.1474
G3 X13.3229 Y32.498 I0.2061 J0.0758
G3 X13.5483 Y32.5748 I-0.0254 J0.4436
G3 X13.8171 Y32.8044 I-0.7966 J1.205
G3 X14.0456 Y33.0742 I-2.5366 J2.3797
G3 X14.3912 Y33.594 I-3.4811 J2.6892
G3 X14.6364 Y34.168 I-2.3575 J1.3467
G1 X14.7145 Y34.4609
G3 X14.3532 Y34.5488 I-0.3644 J-0.7116
G3 X13.7957 Y34.3566 I0.0022 J-0.9112
G3 X13.4059 Y33.9141 I1.0189 J-1.2902
G3 X13.1569 Y33.3916 I2.1117 J-1.3271
G3 X13.0641 Y32.8984 I1.5506 J-0.547
G3 X13.0801 Y32.7282 I0.6717 J-0.0228
G0 Z110.0
G0 X16.1309 Y32.7334
G1 F508.0 Z65.0
G2 F2032.0 X16.1516 Y32.9699 I1.3393 J0.0023
G2 X16.2477 Y33.4111 I3.719 J-0.5795
G1 X16.4577 Y34.168
G3 X16.0671 Y33.8213 I23.8016 J-27.2121
G1 X15.9889 Y33.9727
G3 X16.5553 Y34.5293 I-21.5869 J22.5321
G1 X17.4049 Y37.5713
G2 X17.6445 Y38.3572 I18.0708 J-5.079
G2 X17.9518 Y39.1191 I4.8753 J-1.5233
G2 X18.1698 Y39.3951 I0.8693 J-0.4625
G2 X18.4987 Y39.5195 I0.331 J-0.3782
G2 X18.6761 Y39.4434 I-0.0033 J-0.2523
G2 X18.7868 Y39.2852 I-0.4074 J-0.4028
G2 X18.9089 Y38.6992 I-1.1355 J-0.5422
G2 X18.7701 Y37.7838 I-3.4135 J0.0491
G2 X18.445 Y36.917 I-5.7448 J1.6603
G2 X17.8563 Y35.8568 I-7.5152 J3.4794
G2 X17.1364 Y34.8809 I-9.0708 J5.9376
G1 X16.7262 Y33.2402
G3 X16.6633 Y32.9742 I4.6352 J-1.2364
G3 X16.6286 Y32.7031 I1.4775 J-0.3273
G3 X16.6514 Y32.5966 I0.2506 J-0.002
G3 X16.7458 Y32.542 I0.0885 J0.0442
G3 X16.8573 Y32.5748 I-0.0191 J0.2704
G3 X17.1799 Y32.8142 I-0.8391 J1.468
G3 X17.4684 Y33.0938 I-4.0604 J4.48
G1 X17.5661 Y32.9912
G2 X16.9167 Y32.3955 I-4.5042 J4.2585
G2 X16.7246 Y32.2773 I-0.7371 J0.9829
G2 X16.5065 Y32.2197 I-0.2383 J0.4605
G2 X16.3196 Y32.2612 I-0.0107 J0.3936
G2 X16.1487 Y32.5184 I0.1852 J0.3085
G2 X16.1309 Y32.7334 I1.3216 J0.2174
G0 Z110.0
G0 X18.1719 Y32.7348
G1 F508.0 Z65.0
G2 F2032.0 X18.1926 Y32.9699 I1.3393 J0.0009
G2 X18.2887 Y33.4111 I3.719 J-0.5795
G1 X18.4987 Y34.168
G3 X18.1081 Y33.8213 I23.8016 J-27.2121
G1 X18.0299 Y33.9727
G3 X18.5964 Y34.5293 I-21.5869 J22.5321
G1 X19.446 Y37.5713
G2 X19.6855 Y38.3572 I18.0708 J-5.079
G2 X19.9928 Y39.1191 I4.8753 J-1.5233
G2 X20.2108 Y39.3951 I0.8693 J-0.4625
G2 X20.5397 Y39.5195 I0.331 J-0.3782
G2 X20.7171 Y39.4434 I-0.0033 J-0.2523
G2 X20.8278 Y39.2852 I-0.4074 J-0.4028
G2 X20.9499 Y38.6992 I-1.1355 J-0.5422
G2 X20.8111 Y37.7838 I-3.4135 J0.0491
G2 X20.486 Y36.917 I-5.7448 J1.6603
G2 X19.8973 Y35.8568 I-7.5152 J3.4794
G2 X19.1774 Y34.8809 I-9.0708 J5.9376
G1 X18.7673 Y33.2402
G3 X18.7044 Y32.9742 I4.6352 J-1.2364
G3 X18.6696 Y32.7031 I1.4775 J-0.3273
G3 X18.6924 Y32.5966 I0.2506 J-0.002
G3 X18.7868 Y32.542 I0.0885 J0.0442
G3 X18.8983 Y32.5748 I-0.0191 J0.2704
G3 X19.2209 Y32.8142 I-0.8391 J1.468
G3 X19.5094 Y33.0938 I-4.0604 J4.48
G1 X19.6071 Y32.9912
G2 X18.9577 Y32.3955 I-4.5042 J4.2585
G2 X18.7656 Y32.2773 I-0.7371 J0.9829
G2 X18.5475 Y32.2197 I-0.2383 J0.4605
G2 X18.3606 Y32.2612 I-0.0107 J0.3936
G2 X18.1897 Y32.5184 I0.1852 J0.3085
G2 X18.1719 Y32.7348 I1.3216 J0.2174
G0 Z110.0
G0 X19.9634 Y32.9343
G1 F508.0 Z65.0
G2 F2032.0 X19.9587 Y33.0596 I0.8571 J0.0954
G2 X20.0905 Y33.5918 I1.3003 J-0.0396
G2 X20.4616 Y34.1338 I1.864 J-0.8782
G2 X20.9867 Y34.5538 I1.493 J-1.3281
G2 X21.6383 Y34.7197 I0.6528 J-1.2016
G2 X22.2145 Y34.4805 I0.028 J-0.746
G2 X22.4342 Y33.8799 I-0.6249 J-0.5691
G2 X22.2975 Y33.3428 I-1.2962 J0.044
G2 X21.9313 Y32.8057 I-1.8084 J0.8396
G2 X21.4062 Y32.3856 I-1.493 J1.3281
G2 X20.7546 Y32.2197 I-0.6528 J1.2016
G2 X20.1784 Y32.4541 I-0.0291 J0.7539
G2 X19.9634 Y32.9343 I0.6422 J0.5756
G1 F508.0 X20.4767 Y32.9101
G3 F2032.0 X20.4762 Y32.8984 I1.5746 J-0.0743
G3 X20.569 Y32.5322 I0.6396 J-0.0328
G3 X20.8376 Y32.4004 I0.2569 J0.1839
G3 X21.0831 Y32.4693 I-0.0076 J0.4988
G3 X21.3658 Y32.7194 I-0.5472 J0.9032
G3 X21.5798 Y33.0303 I-1.8713 J1.5172
G3 X21.8239 Y33.5625 I-2.3278 J1.3899
G3 X21.9167 Y34.041 I-1.5309 J0.5451
G3 X21.819 Y34.4072 I-0.6144 J0.0323
G3 X21.5553 Y34.5391 I-0.2505 J-0.1713
G3 X21.3098 Y34.4701 I0.0076 J-0.4988
G3 X21.0271 Y34.22 I0.5472 J-0.9032
G3 X20.8132 Y33.9092 I1.8713 J-1.5172
G3 X20.569 Y33.3721 I2.2912 J-1.3655
G3 X20.4767 Y32.9101 I1.4824 J-0.5363
G0 Z110.0
G0 X23.0281 Y32.8775
G1 F508.0 Z65.0
G2 F2032.0 X23.0641 Y33.2402 I2.1134 J-0.027
G1 X23.318 Y34.6123
G1 X23.8063 Y34.7197
G1 X23.4255 Y33.001
G3 X23.3949 Y32.7916 I1.3263 J-0.3003
G3 X23.4157 Y32.5811 I0.5888 J-0.0482
G3 X23.4835 Y32.471 I0.2279 J0.0645
G3 X23.6061 Y32.4297 I0.1161 J0.1421
G3 X23.816 Y32.4997 I-0.0123 J0.3865
G3 X24.0502 Y32.7283 I-0.5892 J0.8376
G3 X24.2311 Y33.001 I-1.9654 J1.5007
G3 X24.5986 Y33.7885 I-4.7987 J2.7188
G3 X24.8757 Y34.6123 I-10.46 J3.9761
G1 X25.3639 Y34.7197
G1 X24.9684 Y33.001
G3 X24.9209 Y32.6936 I1.5488 J-0.3967
G3 X24.9436 Y32.5244 I0.4322 J-0.0281
G3 X25.0856 Y32.4297 I0.1335 J0.0464
G3 X25.3224 Y32.4993 I-0.0111 J0.4753
G3 X25.5975 Y32.74 I-0.5885 J0.9502
G3 X25.8132 Y33.0352 I-1.9739 J1.6684
G3 X26.2115 Y33.8193 I-4.0589 J2.5551
G3 X26.4967 Y34.6514 I-7.8415 J3.1533
G1 X27.0046 Y34.7197
G2 X26.4697 Y33.7347 I-17.004 J8.5955
G2 X25.8424 Y32.8057 I-6.445 J3.6751
G2 X25.4483 Y32.4198 I-1.8608 J1.5063
G2 X25.2073 Y32.2786 I-0.7051 J0.9274
G2 X24.9342 Y32.2197 I-0.2818 J0.6443
G2 X24.7082 Y32.3004 I-0.0116 J0.3245
G2 X24.5876 Y32.5078 I0.3185 J0.3241
G2 X24.5564 Y32.9099 I1.1574 J0.2918
G2 X24.6169 Y33.3086 I2.7707 J-0.216
G2 X24.1542 Y32.6378 I-3.7077 J2.0627
G2 X23.8473 Y32.3571 I-1.2757 J1.086
G2 X23.4548 Y32.2197 I-0.4189 J0.5675
G2 X23.2253 Y32.2979 I-0.009 J0.3491
G2 X23.0885 Y32.498 I0.3282 J0.3712
G2 X23.0279 Y32.8675 I0.9795 J0.3503
G2 X23.0281 Y32.8775 I2.1135 J-0.0171
G0 Z110.0
G0 X19.3574 Y35.4849
G1 F508.0 Z65.0
G3 F2032.0 X20.2614 Y37.21 I-5.9018 J4.1923
G3 X20.5105 Y38.0789 I-6.0125 J2.1941
G3 X20.6081 Y38.9775 I-4.3484 J0.9266
G3 X20.5848 Y39.1716 I-0.6836 J0.0163
G3 X20.534 Y39.2622 I-0.2072 J-0.0566
G3 X20.4372 Y39.2998 I-0.0927 J-0.0953
G3 X20.3406 Y39.2393 I0.0181 J-0.1364
G3 X20.2464 Y39.0707 I0.6052 J-0.4488
G3 X20.0758 Y38.5186 I3.5577 J-1.4011
G1 X19.3092 Y35.418
G3 X19.3574 Y35.4849 I-5.8537 J4.2592
G0 Z110.0
G0 X17.8167 Y36.2981
G1 F508.0 Z65.0
G3 F2032.0 X18.2204 Y37.21 I-6.4022 J3.3791
G3 X18.4695 Y38.0789 I-6.0125 J2.1941
G3 X18.5671 Y38.9775 I-4.3484 J0.9266
G3 X18.5437 Y39.1716 I-0.6836 J0.0163
G3 X18.493 Y39.2622 I-0.2072 J-0.0566
G3 X18.3962 Y39.2998 I-0.0927 J-0.0953
G3 X18.2996 Y39.2393 I0.0181 J-0.1364
G3 X18.2053 Y39.0707 I0.6052 J-0.4488
G3 X18.0348 Y38.5186 I3.5577 J-1.4011
G1 X17.2682 Y35.418
G3 X17.8167 Y36.2981 I-5.8537 J4.2592
G0 Z110.0
G0 X29.3308 Y33.1644
G1 F508.0 Z65.0
G1 F2032.0 X31.0192 Y39.3682
G1 X31.61 Y39.5195
G1 X29.8229 Y33.2695
G2 X30.4116 Y34.1055 I7.5899 J-4.7197
G2 X30.7663 Y34.4846 I2.5491 J-2.0294
G2 X30.9781 Y34.6409 I0.8929 J-0.9886
G2 X31.2291 Y34.7197 I0.2762 J-0.4404
G2 X31.4625 Y34.6616 I0.0137 J-0.4424
G2 X31.6149 Y34.4756 I-0.2065 J-0.3246
G2 X31.6599 Y34.156 I-0.5962 J-0.247
G2 X31.5905 Y33.8408 I-1.3727 J0.1373
G1 X31.2194 Y32.7373
G3 X31.2096 Y32.5762 I0.2717 J-0.0973
G3 X31.3024 Y32.5176 I0.0856 J0.0328
G3 X31.4149 Y32.5556 I-0.0271 J0.2661
G3 X31.7419 Y32.8051 I-1.0747 J1.747
G3 X32.0397 Y33.0889 I-5.046 J5.5934
G1 X32.1422 Y32.9863
G2 X31.8252 Y32.6727 I-8.5931 J8.3703
G2 X31.4879 Y32.3809 I-2.774 J2.8647
G2 X31.2978 Y32.2688 I-0.6015 J0.803
G2 X31.0826 Y32.2197 I-0.2255 J0.4927
G2 X30.7799 Y32.4102 I-0.0139 J0.3137
G2 X30.7394 Y32.6552 I0.4762 J0.2046
G2 X30.7897 Y32.8984 I0.9509 J-0.0697
G1 X31.1705 Y34.0117
G3 X31.2347 Y34.2678 I-1.1635 J0.4274
G3 X31.2212 Y34.4159 I-0.301 J0.0472
G3 X31.0924 Y34.4902 I-0.116 J-0.0522
G3 X30.9613 Y34.4484 I0.0168 J-0.279
G3 X30.7748 Y34.3023 I0.522 J-0.8583
G3 X30.3209 Y33.7578 I3.0705 J-3.0211
G3 X29.5201 Y32.3174 I5.2383 J-3.8549
G1 X29.1002
G1 X29.3308 Y33.1644
G0 Z110.0
G0 X32.527 Y32.8831
G1 F508.0 Z65.0
G2 F2032.0 X32.5914 Y33.2402 I1.9948 J-0.1756
G1 X32.9625 Y34.6123
G1 X33.4703 Y34.7197
G1 X32.9723 Y33.001
G3 X32.9175 Y32.6893 I1.1302 J-0.3594
G3 X32.9616 Y32.5186 I0.2897 J-0.0162
G3 X33.1237 Y32.4492 I0.1473 J0.1201
G3 X33.2578 Y32.4895 I-0.0151 J0.2938
G3 X33.45 Y32.6351 I-0.4923 J0.8497
G3 X33.9147 Y33.1865 I-2.9144 J2.9273
G3 X34.3541 Y33.8693 I-5.1203 J3.7779
G3 X34.6813 Y34.6123 I-3.7366 J2.0891
G1 X35.1891 Y34.7197
G1 X34.5836 Y32.7373
G3 X34.5739 Y32.5811 I0.2064 J-0.0913
G3 X34.6618 Y32.5176 I0.0848 J0.0249
G3 X34.8116 Y32.5836 I-0.0739 J0.3707
G3 X34.945 Y32.6787 I-1.1089 J1.6966
G3 X35.3991 Y33.0889 I-2.7945 J3.5504
G1 X35.5016 Y32.9912
G2 X34.8571 Y32.3955 I-3.9736 J3.6528
G2 X34.6627 Y32.2767 I-0.7224 J0.9632
G2 X34.442 Y32.2197 I-0.2392 J0.4711
G2 X34.1491 Y32.4053 I-0.0183 J0.2952
G2 X34.1081 Y32.6519 I0.5208 J0.2132
G2 X34.1491 Y32.8984 I1.0966 J-0.0555
G1 X34.32 Y33.5186
G2 X33.7729 Y32.7436 I-5.3975 J3.2296
G2 X33.4281 Y32.4053 I-1.8265 J1.5168
G2 X33.22 Y32.2766 I-0.6732 J0.8558
G2 X32.9821 Y32.2197 I-0.2497 J0.5184
G2 X32.7316 Y32.2847 I-0.0148 J0.4587
G2 X32.5719 Y32.4883 I0.232 J0.3463
G2 X32.5255 Y32.8657 I0.8321 J0.2938
G2 X32.527 Y32.8831 I1.9962 J-0.1582
G0 Z110.0
G0 X35.6725 Y32.3174
G1 F508.0 Z65.0
G1 F2032.0 X36.2926 Y34.6074
G1 X36.8004 Y34.7197
G1 X36.4098 Y33.2891
G2 X36.7924 Y33.8622 I12.5242 J-7.9462
G2 X37.2203 Y34.4023 I4.2033 J-2.8906
G2 X37.4616 Y34.6118 I1.095 J-1.018
G2 X37.7623 Y34.7197 I0.3307 J-0.4482
G2 X37.988 Y34.6623 I0.0133 J-0.4201
G2 X38.1334 Y34.4805 I-0.2042 J-0.3124
G2 X38.1704 Y34.1626 I-0.6152 J-0.2326
G2 X38.0993 Y33.8506 I-1.4569 J0.168
G1 X37.9528 Y33.3867
G2 X38.3149 Y33.9176 I11.1907 J-7.2447
G2 X38.7194 Y34.417 I3.9453 J-2.7819
G2 X38.9532 Y34.6156 I1.0915 J-1.0481
G2 X39.2418 Y34.7197 I0.3209 J-0.4375
G2 X39.4675 Y34.6623 I0.0133 J-0.4201
G2 X39.6129 Y34.4805 I-0.2042 J-0.3124
G2 X39.6539 Y34.1581 I-0.6192 J-0.2425
G2 X39.5836 Y33.8408 I-1.4453 J0.1538
G1 X39.2125 Y32.7373
G3 X39.2028 Y32.5762 I0.2717 J-0.0973
G3 X39.2907 Y32.5176 I0.083 J0.0293
G3 X39.4433 Y32.5827 I-0.0672 J0.3688
G3 X39.5787 Y32.6787 I-1.0304 J1.5973
G3 X40.0328 Y33.0889 I-2.7475 J3.4983
G1 X40.1305 Y32.9863
G2 X39.486 Y32.3955 I-4.4456 J4.2028
G2 X39.2916 Y32.2767 I-0.7224 J0.9632
G2 X39.0709 Y32.2197 I-0.2392 J0.4711
G2 X38.7682 Y32.4102 I-0.0139 J0.3137
G2 X38.7292 Y32.6557 I0.4656 J0.1998
G2 X38.7828 Y32.8984 I0.9384 J-0.0801
G1 X39.1637 Y34.0068
G3 X39.2293 Y34.2682 I-1.464 J0.5062
G3 X39.2274 Y34.4175 I-0.4088 J0.0697
G3 X39.11 Y34.5098 I-0.109 J-0.0179
G3 X38.9812 Y34.4644 I0.0195 J-0.2608
G3 X38.6446 Y34.1377 I0.9604 J-1.3261
G3 X38.3629 Y33.7627 I4.7073 J-3.8295
G3 X37.5719 Y32.3174 I5.4325 J-3.9123
G1 X37.152
G1 X37.6793 Y34.0068
G3 X37.7494 Y34.2675 I-1.4446 J0.5282
G3 Y34.4178 I-0.3995 J0.0751
G3 X37.6305 Y34.5098 I-0.1093 J-0.0184
G3 X37.5017 Y34.4644 I0.0195 J-0.2608
G3 X37.1651 Y34.1377 I0.9604 J-1.3261
G3 X36.8834 Y33.7627 I4.7073 J-3.8295
G3 X36.0924 Y32.3174 I5.4325 J-3.9123
G1 X35.6725
G0 Z110.0
G0 X40.315 Y32.8049
G1 F508.0 Z65.0
G2 F2032.0 X40.3112 Y32.9082 I0.7591 J0.0797
G2 X40.4528 Y33.5088 I1.4847 J-0.0331
G2 X40.8483 Y34.0996 I2.0108 J-0.9183
G2 X41.4155 Y34.5479 I1.5405 J-1.3662
G2 X42.1178 Y34.7197 I0.699 J-1.3362
G2 X42.3261 Y34.7002 I0.0107 J-1.007
G2 X42.5182 Y34.6172 I-0.0866 J-0.4641
G1 X43.0504 Y34.7197
G1 X42.4987 Y32.7373
G3 X42.5035 Y32.5762 I0.2354 J-0.0735
G3 X42.5963 Y32.5176 I0.0893 J0.0386
G3 X42.7075 Y32.5553 I-0.026 J0.2592
G3 X43.0283 Y32.8049 I-1.0435 J1.672
G3 X43.319 Y33.0889 I-4.9057 J5.3133
G1 X43.4166 Y32.9863
G2 X42.9569 Y32.5212 I-3.6649 J3.1628
G2 X42.6903 Y32.3251 I-1.2702 J1.4468
G2 X42.3766 Y32.2197 I-0.3577 J0.5455
G2 X42.0739 Y32.4053 I-0.0156 J0.3143
G2 X42.0289 Y32.6514 I0.5021 J0.2188
G2 X42.069 Y32.8984 I1.0568 J-0.0445
G1 X42.1764 Y33.3281
G2 X41.8493 Y32.8809 I-5.5346 J3.7051
G2 X41.4684 Y32.4785 I-2.3541 J1.8468
G2 X41.1909 Y32.2963 I-0.8355 J0.97
G2 X40.8678 Y32.2197 I-0.3325 J0.6832
G2 X40.4723 Y32.415 I-0.0016 J0.4949
G2 X40.315 Y32.8049 I0.6018 J0.4695
G1 F508.0 X40.8295 Y32.8356
G3 F2032.0 X40.8704 Y32.6415 I0.6709 J0.04
G3 X41.0875 Y32.498 I0.2061 J0.0758
G3 X41.3129 Y32.5748 I-0.0254 J0.4436
G3 X41.5817 Y32.8044 I-0.7966 J1.205
G3 X41.8102 Y33.0742 I-2.5366 J2.3797
G3 X42.1558 Y33.594 I-3.4811 J2.6892
G3 X42.401 Y34.168 I-2.3575 J1.3467
G1 X42.4791 Y34.4609
G3 X42.1178 Y34.5488 I-0.3644 J-0.7116
G3 X41.5603 Y34.3566 I0.0022 J-0.9112
G3 X41.1705 Y33.9141 I1.0189 J-1.2902
G3 X40.9215 Y33.3916 I2.1117 J-1.3271
G3 X40.8287 Y32.8984 I1.5506 J-0.547
G3 X40.8295 Y32.8356 I0.6717 J-0.0228
G0 Z110.0
G0 X43.6315 Y32.3174
G1 F508.0 Z65.0
G1 F2032.0 X44.2516 Y34.6074
G1 X44.7594 Y34.7197
G1 X44.3688 Y33.2891
G2 X44.7514 Y33.8622 I12.5242 J-7.9462
G2 X45.1793 Y34.4023 I4.2033 J-2.8906
G2 X45.4206 Y34.6118 I1.095 J-1.018
G2 X45.7213 Y34.7197 I0.3307 J-0.4482
G2 X45.9482 Y34.6604 I0.0133 J-0.4127
G2 X46.0924 Y34.4756 I-0.2129 J-0.3149
G2 X46.1294 Y34.1529 I-0.6378 J-0.2366
G2 X46.0582 Y33.8359 I-1.4878 J0.1677
G1 X45.692 Y32.7373
G3 X45.6676 Y32.5322 I0.4093 J-0.1527
G3 X45.7506 Y32.4492 I0.0887 J0.0057
G3 X45.8661 Y32.4998 I-0.049 J0.269
G3 X46.2011 Y32.7813 I-1.7004 J2.3637
G3 X46.5123 Y33.0889 I-7.5313 J7.9315
G1 X46.61 Y32.9863
G2 X45.9655 Y32.3955 I-4.4456 J4.2028
G2 X45.7711 Y32.2767 I-0.7224 J0.9632
G2 X45.5504 Y32.2197 I-0.2392 J0.4711
G2 X45.2477 Y32.4102 I-0.0177 J0.3076
G2 X45.2087 Y32.6557 I0.4656 J0.1998
G2 X45.2623 Y32.8984 I0.9384 J-0.0801
G1 X45.6383 Y34.0068
G3 X45.7084 Y34.2675 I-1.4446 J0.5282
G3 Y34.4178 I-0.3995 J0.0751
G3 X45.5895 Y34.5098 I-0.1093 J-0.0184
G3 X45.4607 Y34.4644 I0.0195 J-0.2608
G3 X45.1241 Y34.1377 I0.9604 J-1.3261
G3 X44.8424 Y33.7627 I4.7073 J-3.8295
G3 X44.0514 Y32.3174 I5.6886 J-4.0525
G1 X43.6315
G0 Z110.0
G0 X46.898 Y32.5742
G1 F508.0 Z65.0
G2 F2032.0 X46.8976 Y32.6547 I0.5424 J0.0427
G2 X46.942 Y32.8984 I1.0467 J-0.0647
G1 X47.4401 Y34.6123
G1 X47.9528 Y34.7197
G1 X47.3717 Y32.7373
G3 X47.3619 Y32.5762 I0.2717 J-0.0973
G3 X47.4498 Y32.5176 I0.083 J0.0293
G3 X47.6025 Y32.5827 I-0.0672 J0.3688
G3 X47.7379 Y32.6787 I-1.0304 J1.5973
G3 X48.192 Y33.0889 I-2.7475 J3.4983
G1 X48.2946 Y32.9912
G2 X47.65 Y32.3955 I-4.3668 J4.0782
G2 X47.4529 Y32.2769 I-0.7399 J1.0068
G2 X47.2301 Y32.2197 I-0.2426 J0.4823
G2 X46.9371 Y32.4102 I-0.0129 J0.3008
G2 X46.898 Y32.5742 I0.5033 J0.2067
G0 Z110.0
G0 X48.743 Y32.5988
G1 F508.0 Z65.0
G2 F2032.0 X48.7451 Y32.6527 I0.5242 J0.007
G2 X48.7926 Y32.8984 I1.0999 J-0.0853
G1 X49.3785 Y34.9053
G1 X48.9293
G1 X49.0123 Y35.2275
G1 X49.4713
G1 X49.9303 Y36.8096
G1 X50.4381 Y36.917
G1 X49.9401 Y35.2275
G1 X50.653
G1 X50.57 Y34.9053
G1 X49.8522
G1 X49.2223 Y32.7373
G3 X49.1988 Y32.6052 I0.3483 J-0.13
G3 X49.3004 Y32.5176 I0.0878 J-0.0009
G3 X49.4525 Y32.5838 I-0.0767 J0.384
G3 X49.5885 Y32.6787 I-1.1393 J1.7773
G3 X50.0426 Y33.0889 I-2.347 J3.055
G1 X50.1403 Y32.9863
G2 X49.4957 Y32.3955 I-4.4456 J4.2028
G2 X49.3013 Y32.2767 I-0.7224 J0.9632
G2 X49.0807 Y32.2197 I-0.2392 J0.4711
G2 X48.7828 Y32.4053 I-0.0206 J0.2988
G2 X48.743 Y32.5988 I0.4843 J0.2005
G0 Z110.0
G0 X50.6631 Y32.7245
G1 F508.0 Z65.0
G2 F2032.0 X50.6652 Y32.8657 I0.8806 J0.0576
G2 X50.7311 Y33.2402 I1.9962 J-0.1582
G1 X51.1022 Y34.6123
G1 X51.61 Y34.7197
G1 X51.1119 Y33.001
G3 X51.0524 Y32.6968 I1.2369 J-0.4002
G3 X51.0839 Y32.5265 I0.3198 J-0.0288
G3 X51.2389 Y32.4492 I0.1408 J0.0883
G3 X51.3724 Y32.5003 I-0.0246 J0.2641
G3 X51.7202 Y32.8473 I-1.1325 J1.4831
G3 X52.0153 Y33.2402 I-5.4257 J4.3815
G3 X52.4301 Y33.897 I-5.8191 J4.1351
G3 X52.733 Y34.6123 I-2.8779 J1.6406
G1 X53.2409 Y34.7197
G1 X52.6793 Y32.7617
G3 X52.8893 Y32.8984 I-5.989 J9.4269
G2 X53.1188 Y33.0596 I19.7319 J-27.8591
G1 X53.2018 Y32.9375
G2 X52.9039 Y32.7275 I-29.0034 J40.8281
G2 X52.611 Y32.5176 I-9.3183 J12.693
G1 X52.2594 Y31.248
G2 X52.0609 Y30.7324 I-2.5693 J0.6932
G2 X51.7418 Y30.2813 I-1.7165 J0.8755
G2 X51.414 Y30.0215 I-0.9825 J0.9032
G2 X51.0094 Y29.915 I-0.4094 J0.7339
G2 X50.6188 Y30.0762 I-0.0211 J0.5028
G2 X50.4723 Y30.4961 I0.4558 J0.3945
G2 X50.5851 Y30.9008 I0.87 J-0.0245
G2 X50.8287 Y31.2432 I1.605 J-0.8842
G2 X51.4306 Y31.8118 I4.3881 J-4.042
G2 X52.0787 Y32.3271 I10.7256 J-12.8231
G1 X52.4498 Y33.6504
G2 X51.8999 Y32.8291 I-7.4588 J4.3993
G2 X51.5656 Y32.4545 I-2.4995 J1.8945
G2 X51.3639 Y32.2989 I-0.871 J0.9207
G2 X51.1217 Y32.2197 I-0.2667 J0.4059
G2 X50.8712 Y32.2847 I-0.0148 J0.4587
G2 X50.7116 Y32.4883 I0.232 J0.3463
G2 X50.6631 Y32.7245 I0.8321 J0.2938
G0 Z110.0
G0 X51.5545 Y31.6959
G1 F508.0 Z65.0
G3 F2032.0 X51.2373 Y31.4033 I4.5275 J-5.2241
G3 X50.9077 Y31.0085 I1.899 J-1.9203
G3 X50.785 Y30.7795 I1.0672 J-0.7197
G3 X50.7311 Y30.5254 I0.636 J-0.2676
G3 X50.8141 Y30.2324 I0.4736 J-0.0241
G3 X51.0387 Y30.125 I0.2152 J0.1614
G3 X51.2776 Y30.2113 I-0.0032 J0.3827
G3 X51.444 Y30.4033 I-0.4726 J0.5774
G3 X51.6478 Y30.8283 I-1.8535 J1.1502
G3 X51.7907 Y31.2773 I-5.1914 J1.8991
G1 X52.0104 Y32.0586
G3 X51.5545 Y31.6959 I4.0716 J-5.5867
G0 Z110.0
G0 X55.7748 Y32.5069
G1 F508.0 Z65.0
G2 F2032.0 X55.7675 Y32.6527 I0.5148 J0.0989
G2 X55.815 Y32.8984 I1.0999 J-0.0853
G1 X56.401 Y34.9053
G1 X55.9518
G1 X56.0348 Y35.2275
G1 X56.4937
G1 X56.9527 Y36.8096
G1 X57.4605 Y36.917
G1 X56.9625 Y35.2275
G1 X57.6754
G1 X57.5924 Y34.9053
G1 X56.8746
G1 X56.2447 Y32.7373
G3 X56.2212 Y32.6052 I0.3483 J-0.13
G3 X56.3229 Y32.5176 I0.0878 J-0.0009
G3 X56.4749 Y32.5838 I-0.0767 J0.384
G3 X56.6109 Y32.6787 I-1.1393 J1.7773
G3 X57.065 Y33.0889 I-2.347 J3.055
G1 X57.1627 Y32.9863
G2 X56.5182 Y32.3955 I-4.4456 J4.2028
G2 X56.3238 Y32.2767 I-0.7224 J0.9632
G2 X56.1031 Y32.2197 I-0.2392 J0.4711
G2 X55.8053 Y32.4053 I-0.0206 J0.2988
G2 X55.7748 Y32.5069 I0.4843 J0.2005
G0 Z110.0
G0 X57.5307 Y32.8598
G1 F508.0 Z65.0
G2 F2032.0 X57.5143 Y33.0596 I0.8455 J0.1699
G2 X57.6461 Y33.5918 I1.3003 J-0.0396
G2 X58.0172 Y34.1338 I1.864 J-0.8782
G2 X58.5423 Y34.5538 I1.493 J-1.3281
G2 X59.1939 Y34.7197 I0.6528 J-1.2016
G2 X59.7701 Y34.4805 I0.028 J-0.746
G2 X59.9898 Y33.8799 I-0.6249 J-0.5691
G2 X59.8531 Y33.3428 I-1.2962 J0.044
G2 X59.4869 Y32.8057 I-1.8084 J0.8396
G2 X58.9618 Y32.3856 I-1.493 J1.3281
G2 X58.3102 Y32.2197 I-0.6528 J1.2016
G2 X57.734 Y32.4541 I-0.0291 J0.7539
G2 X57.5307 Y32.8598 I0.6422 J0.5756
G1 F508.0 X58.031 Y32.8624
G3 F2032.0 X58.1246 Y32.5322 I0.6405 J0.0033
G3 X58.3932 Y32.4004 I0.2569 J0.1839
G3 X58.6387 Y32.4693 I-0.0076 J0.4988
G3 X58.9214 Y32.7194 I-0.5472 J0.9032
G3 X59.1354 Y33.0303 I-1.8713 J1.5172
G3 X59.3795 Y33.5625 I-2.3278 J1.3899
G3 X59.4723 Y34.041 I-1.5309 J0.5451
G3 X59.3746 Y34.4072 I-0.6144 J0.0323
G3 X59.1109 Y34.5391 I-0.2505 J-0.1713
G3 X58.8654 Y34.4701 I0.0076 J-0.4988
G3 X58.5827 Y34.22 I0.5472 J-0.9032
G3 X58.3687 Y33.9092 I1.8713 J-1.5172
G3 X58.1246 Y33.3721 I2.2912 J-1.3655
G3 X58.0318 Y32.8984 I1.4824 J-0.5363
G3 X58.031 Y32.8624 I0.6396 J-0.0328
G0 Z110.0
G0 X62.5254 Y32.9973
G1 F508.0 Z65.0
G2 F2032.0 X62.525 Y33.0498 I1.2412 J0.0373
G2 X62.6715 Y33.5771 I1.1916 J-0.047
G2 X63.0621 Y34.124 I1.9841 J-1.0043
G2 X63.6254 Y34.5512 I1.5811 J-1.4998
G2 X64.3121 Y34.7197 I0.6896 J-1.327
G2 X64.6357 Y34.6951 I0.0165 J-1.9243
G2 X64.942 Y34.5879 I-0.1242 J-0.8457
G1 X64.7613 Y34.0996
G3 X64.5099 Y34.3962 I-0.8596 J-0.4736
G3 X64.1412 Y34.5195 I-0.3648 J-0.4779
G3 X63.6965 Y34.3718 I0.0041 J-0.7554
G3 X63.3746 Y34.0313 I0.8141 J-1.0921
G3 X63.0425 Y32.957 I1.5378 J-1.0637
G3 X63.1451 Y32.6006 I0.5617 J-0.0314
G3 X63.4332 Y32.4785 I0.2692 J0.2343
G3 X63.7415 Y32.5498 I-0.0258 J0.8143
G3 X64.148 Y32.7891 I-0.8484 J1.9061
G3 X64.5123 Y33.0889 I-2.6871 J3.6363
G1 X64.6148 Y32.9912
G2 X64.2735 Y32.6713 I-3.4802 J3.3704
G2 X63.8922 Y32.4004 I-1.6463 J1.9139
G2 X63.2623 Y32.2197 I-0.6531 J1.0887
G2 X62.9651 Y32.2667 I-0.0136 J0.8768
G2 X62.7154 Y32.4346 I0.1988 J0.5655
G2 X62.5641 Y32.7248 I0.5413 J0.4666
G2 X62.5254 Y32.9973 I1.2025 J0.3097
G0 Z110.0
G0 X65.0928 Y33.0216
G1 F508.0 Z65.0
G2 F2032.0 X65.0933 Y33.0596 I0.8624 J0.0082
G2 X65.2252 Y33.5918 I1.3003 J-0.0396
G2 X65.5963 Y34.1338 I1.864 J-0.8782
G2 X66.1214 Y34.5538 I1.493 J-1.3281
G2 X66.773 Y34.7197 I0.6528 J-1.2016
G2 X67.3492 Y34.4805 I0.028 J-0.746
G2 X67.5689 Y33.8799 I-0.6249 J-0.5691
G2 X67.4322 Y33.3428 I-1.2962 J0.044
G2 X67.066 Y32.8057 I-1.8084 J0.8396
G2 X66.5409 Y32.3856 I-1.493 J1.3281
G2 X65.8892 Y32.2197 I-0.6528 J1.2016
G2 X65.3131 Y32.4541 I-0.0291 J0.7539
G2 X65.0928 Y33.0216 I0.6422 J0.5756
G1 F508.0 X65.6158 Y32.9752
G3 F2032.0 X65.6109 Y32.8984 I1.5702 J-0.1394
G3 X65.7037 Y32.5322 I0.6396 J-0.0328
G3 X65.9722 Y32.4004 I0.2569 J0.1839
G3 X66.2178 Y32.4693 I-0.0076 J0.4988
G3 X66.5004 Y32.7194 I-0.5472 J0.9032
G3 X66.7144 Y33.0303 I-1.8713 J1.5172
G3 X66.9586 Y33.5625 I-2.3278 J1.3899
G3 X67.0513 Y34.041 I-1.5309 J0.5451
G3 X66.9537 Y34.4072 I-0.6144 J0.0323
G3 X66.69 Y34.5391 I-0.2505 J-0.1713
G3 X66.4445 Y34.4701 I0.0076 J-0.4988
G3 X66.1618 Y34.22 I0.5472 J-0.9032
G3 X65.9478 Y33.9092 I1.8713 J-1.5172
G3 X65.7037 Y33.3721 I2.2912 J-1.3655
G3 X65.6158 Y32.9752 I1.4824 J-0.5363
G0 Z110.0
G0 X67.8744 Y32.3636
G1 F508.0 Z65.0
G1 F2032.0 X68.482 Y34.6074
G1 X68.9898 Y34.7197
G1 X68.5992 Y33.2891
G2 X68.9818 Y33.8622 I12.5242 J-7.9462
G2 X69.4097 Y34.4023 I4.2033 J-2.8906
G2 X69.651 Y34.6118 I1.095 J-1.018
G2 X69.9517 Y34.7197 I0.3307 J-0.4482
G2 X70.1774 Y34.6623 I0.0133 J-0.4201
G2 X70.3228 Y34.4805 I-0.2042 J-0.3124
G2 X70.3598 Y34.1626 I-0.6152 J-0.2326
G2 X70.2886 Y33.8506 I-1.4569 J0.168
G1 X70.1422 Y33.3867
G2 X70.5043 Y33.9176 I11.1907 J-7.2447
G2 X70.9088 Y34.417 I3.9453 J-2.7819
G2 X71.1426 Y34.6156 I1.0915 J-1.0481
G2 X71.4312 Y34.7197 I0.3209 J-0.4375
G2 X71.6569 Y34.6623 I0.0133 J-0.4201
G2 X71.8023 Y34.4805 I-0.2042 J-0.3124
G2 X71.8433 Y34.1581 I-0.6192 J-0.2425
G2 X71.773 Y33.8408 I-1.4453 J0.1538
G1 X71.4019 Y32.7373
G3 X71.3922 Y32.5762 I0.2717 J-0.0973
G3 X71.48 Y32.5176 I0.083 J0.0293
G3 X71.6327 Y32.5827 I-0.0672 J0.3688
G3 X71.7681 Y32.6787 I-1.0304 J1.5973
G3 X72.2222 Y33.0889 I-2.7475 J3.4983
G1 X72.3199 Y32.9863
G2 X71.6754 Y32.3955 I-4.4456 J4.2028
G2 X71.4809 Y32.2767 I-0.7224 J0.9632
G2 X71.2603 Y32.2197 I-0.2392 J0.4711
G2 X70.9576 Y32.4102 I-0.0139 J0.3137
G2 X70.9186 Y32.6557 I0.4656 J0.1998
G2 X70.9722 Y32.8984 I0.9384 J-0.0801
G1 X71.3531 Y34.0068
G3 X71.4187 Y34.2682 I-1.464 J0.5062
G3 X71.4168 Y34.4175 I-0.4088 J0.0697
G3 X71.2994 Y34.5098 I-0.109 J-0.0179
G3 X71.1706 Y34.4644 I0.0195 J-0.2608
G3 X70.834 Y34.1377 I0.9604 J-1.3261
G3 X70.5523 Y33.7627 I4.7073 J-3.8295
G3 X69.7613 Y32.3174 I5.4325 J-3.9123
G1 X69.3414
G1 X69.8687 Y34.0068
G3 X69.9388 Y34.2675 I-1.4446 J0.5282
G3 Y34.4178 I-0.3995 J0.0751
G3 X69.8199 Y34.5098 I-0.1093 J-0.0184
G3 X69.6911 Y34.4644 I0.0195 J-0.2608
G3 X69.3545 Y34.1377 I0.9604 J-1.3261
G3 X69.0728 Y33.7627 I4.7073 J-3.8295
G3 X68.2818 Y32.3174 I5.4325 J-3.9123
G1 X67.8619
G1 X67.8744 Y32.3636
G0 Z110.0
G0 X72.528 Y32.894
G1 F508.0 Z65.0
G2 F2032.0 X72.5201 Y33.0498 I1.2338 J0.1406
G2 X72.6666 Y33.5967 I1.241 J-0.0393
G2 X73.0767 Y34.1484 I1.9747 J-1.0396
G2 X73.6334 Y34.5684 I1.5881 J-1.5262
G2 X74.1998 Y34.7197 I0.5998 J-1.1089
G2 X74.5904 Y34.6074 I0.0298 J-0.6319
G2 X74.7418 Y34.3193 I-0.193 J-0.2852
G2 X74.6336 Y34.0128 I-0.5075 J0.0066
G2 X74.3951 Y33.792 I-0.7963 J0.6211
G2 X73.7352 Y33.4449 I-2.5008 J3.9536
G2 X73.0474 Y33.1572 I-6.7496 J15.1716
G3 X73.0377 Y32.9912 I1.1106 J-0.1486
G3 X73.1153 Y32.6391 I0.6881 J-0.0329
G3 X73.4381 Y32.4785 I0.2958 J0.1897
G3 X73.7441 Y32.5528 I-0.0307 J0.7938
G3 X74.1477 Y32.7929 I-0.9236 J2.0118
G3 X74.5123 Y33.0889 I-2.9066 J3.9531
G1 X74.6099 Y32.9912
G2 X74.2711 Y32.6692 I-3.5706 J3.4174
G2 X73.8922 Y32.3955 I-1.6534 J1.8904
G2 X73.2574 Y32.2197 I-0.6485 J1.1077
G2 X72.9602 Y32.2667 I-0.0136 J0.8768
G2 X72.7105 Y32.4346 I0.1988 J0.5655
G2 X72.5592 Y32.7248 I0.5413 J0.4666
G2 X72.528 Y32.894 I1.2025 J0.3097
G1 F508.0 X73.0767 Y33.3086
G3 F2032.0 X73.5687 Y33.5236 I-3.2024 J7.9999
G3 X74.0338 Y33.792 I-1.1916 J2.6013
G3 X74.2246 Y33.994 I-0.4601 J0.6258
G3 X74.3023 Y34.2607 I-0.4185 J0.2667
G3 X74.2376 Y34.4548 I-0.2677 J0.0186
G3 X74.0435 Y34.5195 I-0.1755 J-0.2031
G3 X73.7263 Y34.4086 I0.0137 J-0.5485
G3 X73.4869 Y34.1729 I0.7066 J-0.957
G3 X73.0767 Y33.3086 I1.8354 J-1.4005
G0 Z110.0
G0 X77.412 Y32.7167
G1 F508.0 Z65.0
G2 F2032.0 X77.4527 Y32.8984 I1.093 J-0.1492
G1 X78.0386 Y34.9053
G1 X77.5894
G1 X77.6724 Y35.2275
G1 X78.1314
G1 X78.5904 Y36.8096
G1 X79.0982 Y36.917
G1 X78.6001 Y35.2275
G1 X79.313
G1 X79.23 Y34.9053
G1 X78.5122
G1 X77.8824 Y32.7373
G3 X77.8589 Y32.6052 I0.3483 J-0.13
G3 X77.9605 Y32.5176 I0.0878 J-0.0009
G3 X78.1126 Y32.5838 I-0.0767 J0.384
G3 X78.2486 Y32.6787 I-1.1393 J1.7773
G3 X78.7027 Y33.0889 I-2.347 J3.055
G1 X78.8003 Y32.9863
G2 X78.1558 Y32.3955 I-4.4456 J4.2028
G2 X77.9614 Y32.2767 I-0.7224 J0.9632
G2 X77.7408 Y32.2197 I-0.2392 J0.4711
G2 X77.4429 Y32.4053 I-0.0206 J0.2988
G2 X77.4051 Y32.6527 I0.4843 J0.2005
G2 X77.412 Y32.7167 I1.0999 J-0.0853
G0 Z110.0
G0 X79.1575 Y32.9267
G1 F508.0 Z65.0
G2 F2032.0 X79.1519 Y33.0596 I0.8562 J0.103
G2 X79.2837 Y33.5918 I1.3003 J-0.0396
G2 X79.6548 Y34.1338 I1.864 J-0.8782
G2 X80.1799 Y34.5538 I1.493 J-1.3281
G2 X80.8316 Y34.7197 I0.6528 J-1.2016
G2 X81.4077 Y34.4805 I0.028 J-0.746
G2 X81.6275 Y33.8799 I-0.6249 J-0.5691
G2 X81.4908 Y33.3428 I-1.2962 J0.044
G2 X81.1245 Y32.8057 I-1.8084 J0.8396
G2 X80.5994 Y32.3856 I-1.493 J1.3281
G2 X79.9478 Y32.2197 I-0.6528 J1.2016
G2 X79.3716 Y32.4541 I-0.0291 J0.7539
G2 X79.1575 Y32.9267 I0.6422 J0.5756
G1 F508.0 X79.6697 Y32.9044
G3 F2032.0 X79.6695 Y32.8984 I1.5749 J-0.0686
G3 X79.7622 Y32.5322 I0.6396 J-0.0328
G3 X80.0308 Y32.4004 I0.2569 J0.1839
G3 X80.2763 Y32.4693 I-0.0076 J0.4988
G3 X80.559 Y32.7194 I-0.5472 J0.9032
G3 X80.773 Y33.0303 I-1.8713 J1.5172
G3 X81.0171 Y33.5625 I-2.3278 J1.3899
G3 X81.1099 Y34.041 I-1.5309 J0.5451
G3 X81.0122 Y34.4072 I-0.6144 J0.0323
G3 X80.7486 Y34.5391 I-0.2505 J-0.1713
G3 X80.503 Y34.4701 I0.0076 J-0.4988
G3 X80.2204 Y34.22 I0.5472 J-0.9032
G3 X80.0064 Y33.9092 I1.8713 J-1.5172
G3 X79.7622 Y33.3721 I2.2912 J-1.3655
G3 X79.6697 Y32.9044 I1.4824 J-0.5363
G0 Z110.0
G0 X84.2212 Y32.3174
G1 F508.0 Z65.0
G1 F2032.0 X86.1401 Y39.3682
G1 X86.731 Y39.5195
G1 X84.9438 Y33.2695
G2 X85.5326 Y34.1055 I7.5899 J-4.7197
G2 X85.8872 Y34.4846 I2.5491 J-2.0294
G2 X86.099 Y34.6409 I0.8929 J-0.9886
G2 X86.3501 Y34.7197 I0.2762 J-0.4404
G2 X86.5834 Y34.6616 I0.0137 J-0.4424
G2 X86.7358 Y34.4756 I-0.2065 J-0.3246
G2 X86.7809 Y34.156 I-0.5962 J-0.247
G2 X86.7114 Y33.8408 I-1.3727 J0.1373
G1 X86.3403 Y32.7373
G3 X86.3306 Y32.5762 I0.2717 J-0.0973
G3 X86.4233 Y32.5176 I0.0856 J0.0328
G3 X86.5359 Y32.5556 I-0.0271 J0.2661
G3 X86.8629 Y32.8051 I-1.0747 J1.747
G3 X87.1606 Y33.0889 I-5.046 J5.5934
G1 X87.2632 Y32.9863
G2 X86.9461 Y32.6727 I-8.5931 J8.3703
G2 X86.6089 Y32.3809 I-2.774 J2.8647
G2 X86.4188 Y32.2688 I-0.6015 J0.803
G2 X86.2036 Y32.2197 I-0.2255 J0.4927
G2 X85.9009 Y32.4102 I-0.0139 J0.3137
G2 X85.8604 Y32.6552 I0.4762 J0.2046
G2 X85.9106 Y32.8984 I0.9509 J-0.0697
G1 X86.2915 Y34.0117
G3 X86.3556 Y34.2678 I-1.1635 J0.4274
G3 X86.3421 Y34.4159 I-0.301 J0.0472
G3 X86.2134 Y34.4902 I-0.116 J-0.0522
G3 X86.0823 Y34.4484 I0.0168 J-0.279
G3 X85.8958 Y34.3023 I0.522 J-0.8583
G3 X85.4419 Y33.7578 I3.0705 J-3.0211
G3 X84.6411 Y32.3174 I5.2383 J-3.8549
G1 X84.2212
G0 Z110.0
G0 X87.4803 Y32.7778
G1 F508.0 Z65.0
G2 F2032.0 X87.4731 Y32.9082 I0.7558 J0.1068
G2 X87.6147 Y33.5088 I1.4847 J-0.0331
G2 X88.0103 Y34.0996 I2.0108 J-0.9183
G2 X88.5775 Y34.5479 I1.5405 J-1.3662
G2 X89.2798 Y34.7197 I0.699 J-1.3362
G2 X89.4881 Y34.7002 I0.0107 J-1.007
G2 X89.6802 Y34.6172 I-0.0866 J-0.4641
G1 X90.2124 Y34.7197
G1 X89.6606 Y32.7373
G3 X89.6655 Y32.5762 I0.2354 J-0.0735
G3 X89.7583 Y32.5176 I0.0893 J0.0386
G3 X89.8695 Y32.5553 I-0.026 J0.2592
G3 X90.1902 Y32.8049 I-1.0435 J1.672
G3 X90.481 Y33.0889 I-4.9057 J5.3133
G1 X90.5786 Y32.9863
G2 X90.1189 Y32.5212 I-3.6649 J3.1628
G2 X89.8523 Y32.3251 I-1.2702 J1.4468
G2 X89.5386 Y32.2197 I-0.3577 J0.5455
G2 X89.2358 Y32.4053 I-0.0156 J0.3143
G2 X89.1909 Y32.6514 I0.5021 J0.2188
G2 X89.231 Y32.8984 I1.0568 J-0.0445
G1 X89.3384 Y33.3281
G2 X89.0113 Y32.8809 I-5.5346 J3.7051
G2 X88.6304 Y32.4785 I-2.3541 J1.8468
G2 X88.3528 Y32.2963 I-0.8355 J0.97
G2 X88.0298 Y32.2197 I-0.3325 J0.6832
G2 X87.6343 Y32.415 I-0.0016 J0.4949
G2 X87.4803 Y32.7778 I0.6018 J0.4695
G1 F508.0 X87.9926 Y32.8202
G3 F2032.0 X88.0324 Y32.6415 I0.6698 J0.0554
G3 X88.2495 Y32.498 I0.2061 J0.0758
G3 X88.4748 Y32.5748 I-0.0254 J0.4436
G3 X88.7437 Y32.8044 I-0.7966 J1.205
G3 X88.9722 Y33.0742 I-2.5366 J2.3797
G3 X89.3177 Y33.594 I-3.4811 J2.6892
G3 X89.563 Y34.168 I-2.3575 J1.3467
G1 X89.6411 Y34.4609
G3 X89.2798 Y34.5488 I-0.3644 J-0.7116
G3 X88.7223 Y34.3566 I0.0022 J-0.9112
G3 X88.3325 Y33.9141 I1.0189 J-1.2902
G3 X88.0835 Y33.3916 I2.1117 J-1.3271
G3 X87.9907 Y32.8984 I1.5506 J-0.547
G3 X87.9926 Y32.8202 I0.6717 J-0.0228
G0 Z110.0
G0 X90.7935 Y32.3174
G1 F508.0 Z65.0
G1 F2032.0 X91.4136 Y34.6123
G1 X91.9214 Y34.7197
G1 X91.5942 Y33.5186
G2 X91.8843 Y33.9958 I9.7448 J-5.5956
G2 X92.2144 Y34.4463 I3.3309 J-2.0944
G2 X92.4113 Y34.6285 I0.8574 J-0.729
G2 X92.6636 Y34.7197 I0.2719 J-0.3575
G2 X93.0149 Y34.4856 I-0.0033 J-0.3855
G2 X93.1323 Y34.0801 I-1.1638 J-0.5569
G1 X92.7612 Y33.958
G3 X92.6979 Y34.2435 I-1.6714 J-0.221
G3 X92.6324 Y34.3812 I-0.526 J-0.1657
G3 X92.5024 Y34.4609 I-0.1392 J-0.0811
G3 X92.4 Y34.4138 I0.0251 J-0.1893
G3 X92.1435 Y34.123 I1.0779 J-1.2093
G3 X91.9263 Y33.8018 I5.0315 J-3.6367
G3 X91.2134 Y32.3174 I5.4256 J-3.5191
G1 X90.7935
G0 Z110.0
G0 X93.0151
G1 F508.0 Z65.0
G1 F2032.0 X93.6353 Y34.6074
G1 X94.1431 Y34.7197
G1 X93.7524 Y33.2891
G2 X94.135 Y33.8622 I12.5242 J-7.9462
G2 X94.563 Y34.4023 I4.2033 J-2.8906
G2 X94.8043 Y34.6118 I1.095 J-1.018
G2 X95.105 Y34.7197 I0.3307 J-0.4482
G2 X95.3307 Y34.6623 I0.0133 J-0.4201
G2 X95.4761 Y34.4805 I-0.2042 J-0.3124
G2 X95.513 Y34.1626 I-0.6152 J-0.2326
G2 X95.4419 Y33.8506 I-1.4569 J0.168
G1 X95.2954 Y33.3867
G2 X95.6575 Y33.9176 I11.1907 J-7.2447
G2 X96.062 Y34.417 I3.9453 J-2.7819
G2 X96.2959 Y34.6156 I1.0915 J-1.0481
G2 X96.5845 Y34.7197 I0.3209 J-0.4375
G2 X96.8101 Y34.6623 I0.0133 J-0.4201
G2 X96.9556 Y34.4805 I-0.2042 J-0.3124
G2 X96.9966 Y34.1581 I-0.6192 J-0.2425
G2 X96.9263 Y33.8408 I-1.4453 J0.1538
G1 X96.5552 Y32.7373
G3 X96.5454 Y32.5762 I0.2717 J-0.0973
G3 X96.6333 Y32.5176 I0.083 J0.0293
G3 X96.786 Y32.5827 I-0.0672 J0.3688
G3 X96.9214 Y32.6787 I-1.0304 J1.5973
G3 X97.3755 Y33.0889 I-2.7475 J3.4983
G1 X97.4731 Y32.9863
G2 X96.8286 Y32.3955 I-4.4456 J4.2028
G2 X96.6342 Y32.2767 I-0.7224 J0.9632
G2 X96.4136 Y32.2197 I-0.2392 J0.4711
G2 X96.1108 Y32.4102 I-0.0139 J0.3137
G2 X96.0718 Y32.6557 I0.4656 J0.1998
G2 X96.1255 Y32.8984 I0.9384 J-0.0801
G1 X96.5063 Y34.0068
G3 X96.5719 Y34.2682 I-1.464 J0.5062
G3 X96.5701 Y34.4175 I-0.4088 J0.0697
G3 X96.4526 Y34.5098 I-0.109 J-0.0179
G3 X96.3238 Y34.4644 I0.0195 J-0.2608
G3 X95.9873 Y34.1377 I0.9604 J-1.3261
G3 X95.7056 Y33.7627 I4.7073 J-3.8295
G3 X94.9145 Y32.3174 I5.4325 J-3.9123
G1 X94.4946
G1 X95.022 Y34.0068
G3 X95.092 Y34.2675 I-1.4446 J0.5282
G3 Y34.4178 I-0.3995 J0.0751
G3 X94.9731 Y34.5098 I-0.1093 J-0.0184
G3 X94.8443 Y34.4644 I0.0195 J-0.2608
G3 X94.5078 Y34.1377 I0.9604 J-1.3261
G3 X94.2261 Y33.7627 I4.7073 J-3.8295
G3 X93.4351 Y32.3174 I5.4325 J-3.9123
G1 X93.0151
G0 Z110.0
G0 X97.8741 Y32.5921
G1 F508.0 Z65.0
G2 F2032.0 X97.8735 Y32.6201 I0.3852 J0.0218
G2 X97.9907 Y32.9033 I0.3858 J0.0062
G2 X98.2739 Y33.0205 I0.277 J-0.2686
G2 X98.5571 Y32.9033 I0.0062 J-0.3858
G2 X98.6743 Y32.6201 I-0.2686 J-0.277
G2 X98.5571 Y32.3369 I-0.3858 J-0.0062
G2 X98.2739 Y32.2197 I-0.277 J0.2686
G2 X97.9907 Y32.3369 I-0.0062 J0.3858
G2 X97.8741 Y32.5921 I0.2686 J0.277
G0 Z110.0
G0 X100.1639 Y21.7677
G1 F508.0 Z65.0
G1 F2032.0 X100.5698 Y21.8535
G1 X100.0717 Y20.1641
G1 X100.7846
G1 X100.7016 Y19.8418
G1 X99.9839
G1 X99.354 Y17.6738
G3 X99.3305 Y17.5417 I0.3483 J-0.13
G3 X99.4321 Y17.4541 I0.0878 J-0.0009
G3 X99.5842 Y17.5203 I-0.0767 J0.384
G3 X99.7202 Y17.6152 I-1.1393 J1.7773
G3 X100.1743 Y18.0254 I-2.347 J3.055
G1 X100.2719 Y17.9229
G2 X99.6274 Y17.332 I-4.4456 J4.2028
G2 X99.433 Y17.2132 I-0.7224 J0.9632
G2 X99.2124 Y17.1563 I-0.2392 J0.4711
G2 X98.9145 Y17.3418 I-0.0206 J0.2988
G2 X98.8768 Y17.5892 I0.4843 J0.2005
G2 X98.9243 Y17.835 I1.0999 J-0.0853
G1 X99.5102 Y19.8418
G1 X99.061
G1 X99.144 Y20.1641
G1 X99.603
G1 X100.062 Y21.7461
G1 X100.1639 Y21.7677
G0 Z110.0
G0 X101.5788 Y19.4481
G1 F508.0 Z65.0
G2 F2032.0 X101.6515 Y19.4904 I1.0406 J-1.7059
G2 X102.3032 Y19.6563 I0.6528 J-1.2016
G2 X102.8794 Y19.417 I0.028 J-0.746
G2 X103.0991 Y18.8164 I-0.6249 J-0.5691
G2 X102.9624 Y18.2793 I-1.2962 J0.044
G2 X102.5962 Y17.7422 I-1.8084 J0.8396
G2 X102.0711 Y17.3221 I-1.493 J1.3281
G2 X101.4194 Y17.1563 I-0.6528 J1.2016
G2 X100.8432 Y17.3906 I-0.0291 J0.7539
G2 X100.6235 Y17.9961 I0.6422 J0.5756
G2 X100.7553 Y18.5283 I1.3003 J-0.0396
G2 X101.1264 Y19.0703 I1.864 J-0.8782
G2 X101.5788 Y19.4481 I1.493 J-1.3281
G1 F508.0 X101.7757 Y19.2508
G3 F2032.0 X101.692 Y19.1566 I0.7461 J-0.7474
G3 X101.478 Y18.8457 I1.8713 J-1.5172
G3 X101.2339 Y18.3086 I2.2912 J-1.3655
G3 X101.1411 Y17.835 I1.4824 J-0.5363
G3 X101.2339 Y17.4688 I0.6396 J-0.0328
G3 X101.5024 Y17.3369 I0.2569 J0.1839
G3 X101.748 Y17.4059 I-0.0076 J0.4988
G3 X102.0306 Y17.6559 I-0.5472 J0.9032
G3 X102.2446 Y17.9668 I-1.8713 J1.5172
G3 X102.4887 Y18.499 I-2.3278 J1.3899
G3 X102.5815 Y18.9775 I-1.5309 J0.5451
G3 X102.4839 Y19.3438 I-0.6144 J0.0323
G3 X102.2202 Y19.4756 I-0.2505 J-0.1713
G3 X101.9746 Y19.4066 I0.0076 J-0.4988
G3 X101.7757 Y19.2508 I0.5472 J-0.9032
G0 Z110.0
G0 X105.6716 Y18.2391
G1 F508.0 Z65.0
G2 F2032.0 X105.7807 Y18.5137 I1.1543 J-0.2998
G2 X106.1713 Y19.0605 I1.9841 J-1.0043
G2 X106.7347 Y19.4878 I1.5811 J-1.4998
G2 X107.4213 Y19.6563 I0.6896 J-1.327
G2 X107.7449 Y19.6317 I0.0165 J-1.9243
G2 X108.0512 Y19.5244 I-0.1242 J-0.8457
G1 X107.8705 Y19.0361
G3 X107.6192 Y19.3328 I-0.8596 J-0.4736
G3 X107.2504 Y19.4561 I-0.3648 J-0.4779
G3 X106.8057 Y19.3083 I0.0041 J-0.7554
G3 X106.4838 Y18.9678 I0.8141 J-1.0921
G3 X106.1518 Y17.8936 I1.5378 J-1.0637
G3 X106.2543 Y17.5371 I0.5617 J-0.0314
G3 X106.5424 Y17.415 I0.2692 J0.2343
G3 X106.8507 Y17.4863 I-0.0258 J0.8143
G3 X107.2573 Y17.7256 I-0.8484 J1.9061
G3 X107.6215 Y18.0254 I-2.6871 J3.6363
G1 X107.7241 Y17.9277
G2 X107.3828 Y17.6078 I-3.4802 J3.3704
G2 X107.0014 Y17.3369 I-1.6463 J1.9139
G2 X106.3715 Y17.1563 I-0.6531 J1.0887
G2 X106.0743 Y17.2033 I-0.0136 J0.8768
G2 X105.8246 Y17.3711 I0.1988 J0.5655
G2 X105.6734 Y17.6614 I0.5413 J0.4666
G2 X105.6342 Y17.9863 I1.2025 J0.3097
G2 X105.6716 Y18.2391 I1.1916 J-0.047
G0 Z110.0
G0 X108.2055 Y18.0522
G1 F508.0 Z65.0
G2 F2032.0 X108.3344 Y18.5283 I1.2974 J-0.0957
G2 X108.7055 Y19.0703 I1.864 J-0.8782
G2 X109.2306 Y19.4904 I1.493 J-1.3281
G2 X109.8823 Y19.6563 I0.6528 J-1.2016
G2 X110.4584 Y19.417 I0.028 J-0.746
G2 X110.6782 Y18.8164 I-0.6249 J-0.5691
G2 X110.5414 Y18.2793 I-1.2962 J0.044
G2 X110.1752 Y17.7422 I-1.8084 J0.8396
G2 X109.6501 Y17.3221 I-1.493 J1.3281
G2 X108.9985 Y17.1563 I-0.6528 J1.2016
G2 X108.4223 Y17.3906 I-0.0291 J0.7539
G2 X108.2026 Y17.9961 I0.6422 J0.5756
G2 X108.2055 Y18.0522 I1.3003 J-0.0396
G1 F508.0 X108.7328 Y17.9815
G3 F2032.0 X108.7201 Y17.835 I1.5624 J-0.2092
G3 X108.8129 Y17.4688 I0.6396 J-0.0328
G3 X109.0815 Y17.3369 I0.2569 J0.1839
G3 X109.327 Y17.4059 I-0.0076 J0.4988
G3 X109.6097 Y17.6559 I-0.5472 J0.9032
G3 X109.8237 Y17.9668 I-1.8713 J1.5172
G3 X110.0678 Y18.499 I-2.3278 J1.3899
G3 X110.1606 Y18.9775 I-1.5309 J0.5451
G3 X110.0629 Y19.3438 I-0.6144 J0.0323
G3 X109.7992 Y19.4756 I-0.2505 J-0.1713
G3 X109.5537 Y19.4066 I0.0076 J-0.4988
G3 X109.2711 Y19.1566 I0.5472 J-0.9032
G3 X109.0571 Y18.8457 I1.8713 J-1.5172
G3 X108.8129 Y18.3086 I2.2912 J-1.3655
G3 X108.7328 Y17.9815 I1.4824 J-0.5363
G0 Z110.0
G0 X111.0018 Y17.3671
G1 F508.0 Z65.0
G1 F2032.0 X111.5912 Y19.5439
G1 X112.0991 Y19.6563
G1 X111.7084 Y18.2256
G2 X112.091 Y18.7987 I12.5242 J-7.9462
G2 X112.519 Y19.3389 I4.2033 J-2.8906
G2 X112.7603 Y19.5483 I1.095 J-1.018
G2 X113.061 Y19.6563 I0.3307 J-0.4482
G2 X113.2866 Y19.5989 I0.0133 J-0.4201
G2 X113.4321 Y19.417 I-0.2042 J-0.3124
G2 X113.469 Y19.0991 I-0.6152 J-0.2326
G2 X113.3979 Y18.7871 I-1.4569 J0.168
G1 X113.2514 Y18.3232
G2 X113.6135 Y18.8541 I11.1907 J-7.2447
G2 X114.018 Y19.3535 I3.9453 J-2.7819
G2 X114.2518 Y19.5521 I1.0915 J-1.0481
G2 X114.5405 Y19.6563 I0.3209 J-0.4375
G2 X114.7661 Y19.5989 I0.0133 J-0.4201
G2 X114.9116 Y19.417 I-0.2042 J-0.3124
G2 X114.9526 Y19.0946 I-0.6192 J-0.2425
G2 X114.8823 Y18.7773 I-1.4453 J0.1538
G1 X114.5112 Y17.6738
G3 X114.5014 Y17.5127 I0.2717 J-0.0973
G3 X114.5893 Y17.4541 I0.083 J0.0293
G3 X114.742 Y17.5193 I-0.0672 J0.3688
G3 X114.8774 Y17.6152 I-1.0304 J1.5973
G3 X115.3315 Y18.0254 I-2.7475 J3.4983
G1 X115.4291 Y17.9229
G2 X114.7846 Y17.332 I-4.4456 J4.2028
G2 X114.5902 Y17.2132 I-0.7224 J0.9632
G2 X114.3696 Y17.1563 I-0.2392 J0.4711
G2 X114.0668 Y17.3467 I-0.0139 J0.3137
G2 X114.0278 Y17.5922 I0.4656 J0.1998
G2 X114.0815 Y17.835 I0.9384 J-0.0801
G1 X114.4623 Y18.9434
G3 X114.5279 Y19.2047 I-1.464 J0.5062
G3 X114.5261 Y19.354 I-0.4088 J0.0697
G3 X114.4086 Y19.4463 I-0.109 J-0.0179
G3 X114.2798 Y19.4009 I0.0195 J-0.2608
G3 X113.9433 Y19.0742 I0.9604 J-1.3261
G3 X113.6616 Y18.6992 I4.7073 J-3.8295
G3 X112.8705 Y17.2539 I5.4325 J-3.9123
G1 X112.4506
G1 X112.978 Y18.9434
G3 X113.048 Y19.204 I-1.4446 J0.5282
G3 Y19.3543 I-0.3995 J0.0751
G3 X112.9291 Y19.4463 I-0.1093 J-0.0184
G3 X112.8003 Y19.4009 I0.0195 J-0.2608
G3 X112.4638 Y19.0742 I0.9604 J-1.3261
G3 X112.1821 Y18.6992 I4.7073 J-3.8295
G3 X111.391 Y17.2539 I5.4325 J-3.9123
G1 X110.9711
G1 X111.0018 Y17.3671
G0 Z110.0
G0 X115.6358 Y17.844
G1 F508.0 Z65.0
G2 F2032.0 X115.6293 Y17.9863 I1.2353 J0.1271
G2 X115.7758 Y18.5332 I1.241 J-0.0393
G2 X116.186 Y19.085 I1.9747 J-1.0396
G2 X116.7426 Y19.5049 I1.5881 J-1.5262
G2 X117.309 Y19.6563 I0.5998 J-1.1089
G2 X117.6996 Y19.5439 I0.0298 J-0.6319
G2 X117.851 Y19.2559 I-0.193 J-0.2852
G2 X117.7429 Y18.9493 I-0.5075 J0.0066
G2 X117.5043 Y18.7285 I-0.7963 J0.6211
G2 X116.8445 Y18.3814 I-2.5008 J3.9536
G2 X116.1567 Y18.0938 I-6.7496 J15.1716
G3 X116.1469 Y17.9277 I1.1106 J-0.1486
G3 X116.2245 Y17.5757 I0.6881 J-0.0329
G3 X116.5473 Y17.415 I0.2958 J0.1897
G3 X116.8534 Y17.4894 I-0.0307 J0.7938
G3 X117.2569 Y17.7294 I-0.9236 J2.0118
G3 X117.6215 Y18.0254 I-2.9066 J3.9531
G1 X117.7192 Y17.9277
G2 X117.3804 Y17.6057 I-3.5706 J3.4174
G2 X117.0014 Y17.332 I-1.6534 J1.8904
G2 X116.3666 Y17.1563 I-0.6485 J1.1077
G2 X116.0695 Y17.2033 I-0.0136 J0.8768
G2 X115.8198 Y17.3711 I0.1988 J0.5655
G2 X115.6685 Y17.6614 I0.5413 J0.4666
G2 X115.6358 Y17.844 I1.2025 J0.3097
G1 F508.0 X116.186 Y18.2451
G3 F2032.0 X116.678 Y18.4601 I-3.2024 J7.9999
G3 X117.143 Y18.7285 I-1.1916 J2.6013
G3 X117.3338 Y18.9305 I-0.4601 J0.6258
G3 X117.4116 Y19.1973 I-0.4185 J0.2667
G3 X117.3469 Y19.3914 I-0.2677 J0.0186
G3 X117.1528 Y19.4561 I-0.1755 J-0.2031
G3 X116.8356 Y19.3452 I0.0137 J-0.5485
G3 X116.5961 Y19.1094 I0.7066 J-0.957
G3 X116.186 Y18.2451 I1.8354 J-1.4005
G0 Z110.0
G0 X120.5212 Y17.6532
G1 F508.0 Z65.0
G2 F2032.0 X120.5619 Y17.835 I1.093 J-0.1492
G1 X121.1478 Y19.8418
G1 X120.6986
G1 X120.7816 Y20.1641
G1 X121.2406
G1 X121.6996 Y21.7461
G1 X122.2074 Y21.8535
G1 X121.7094 Y20.1641
G1 X122.4223
G1 X122.3393 Y19.8418
G1 X121.6215
G1 X120.9916 Y17.6738
G3 X120.9681 Y17.5417 I0.3483 J-0.13
G3 X121.0697 Y17.4541 I0.0878 J-0.0009
G3 X121.2218 Y17.5203 I-0.0767 J0.384
G3 X121.3578 Y17.6152 I-1.1393 J1.7773
G3 X121.8119 Y18.0254 I-2.347 J3.055
G1 X121.9096 Y17.9229
G2 X121.265 Y17.332 I-4.4456 J4.2028
G2 X121.0706 Y17.2132 I-0.7224 J0.9632
G2 X120.85 Y17.1563 I-0.2392 J0.4711
G2 X120.5521 Y17.3418 I-0.0206 J0.2988
G2 X120.5144 Y17.5892 I0.4843 J0.2005
G2 X120.5212 Y17.6532 I1.0999 J-0.0853
G0 Z110.0
G0 X122.2668 Y17.8632
G1 F508.0 Z65.0
G2 F2032.0 X122.2611 Y17.9961 I0.8562 J0.103
G2 X122.393 Y18.5283 I1.3003 J-0.0396
G2 X122.7641 Y19.0703 I1.864 J-0.8782
G2 X123.2892 Y19.4904 I1.493 J-1.3281
G2 X123.9408 Y19.6563 I0.6528 J-1.2016
G2 X124.517 Y19.417 I0.028 J-0.746
G2 X124.7367 Y18.8164 I-0.6249 J-0.5691
G2 X124.6 Y18.2793 I-1.2962 J0.044
G2 X124.2338 Y17.7422 I-1.8084 J0.8396
G2 X123.7087 Y17.3221 I-1.493 J1.3281
G2 X123.057 Y17.1563 I-0.6528 J1.2016
G2 X122.4809 Y17.3906 I-0.0291 J0.7539
G2 X122.2668 Y17.8632 I0.6422 J0.5756
G1 F508.0 X122.779 Y17.8409
G3 F2032.0 X122.7787 Y17.835 I1.5749 J-0.0686
G3 X122.8715 Y17.4688 I0.6396 J-0.0328
G3 X123.14 Y17.3369 I0.2569 J0.1839
G3 X123.3856 Y17.4059 I-0.0076 J0.4988
G3 X123.6682 Y17.6559 I-0.5472 J0.9032
G3 X123.8822 Y17.9668 I-1.8713 J1.5172
G3 X124.1264 Y18.499 I-2.3278 J1.3899
G3 X124.2191 Y18.9775 I-1.5309 J0.5451
G3 X124.1215 Y19.3438 I-0.6144 J0.0323
G3 X123.8578 Y19.4756 I-0.2505 J-0.1713
G3 X123.6123 Y19.4066 I0.0076 J-0.4988
G3 X123.3296 Y19.1566 I0.5472 J-0.9032
G3 X123.1156 Y18.8457 I1.8713 J-1.5172
G3 X122.8715 Y18.3086 I2.2912 J-1.3655
G3 X122.779 Y17.8409 I1.4824 J-0.5363
G0 Z110.0
G0 X127.3304 Y17.2539
G1 F508.0 Z65.0
G1 F2032.0 X129.2494 Y24.3047
G1 X129.8402 Y24.4561
G1 X128.0531 Y18.2061
G2 X128.6418 Y19.0421 I7.5899 J-4.7197
G2 X128.9965 Y19.4212 I2.5491 J-2.0294
G2 X129.2083 Y19.5774 I0.8929 J-0.9886
G2 X129.4593 Y19.6563 I0.2762 J-0.4404
G2 X129.6927 Y19.5981 I0.0137 J-0.4424
G2 X129.8451 Y19.4121 I-0.2065 J-0.3246
G2 X129.8901 Y19.0925 I-0.5962 J-0.247
G2 X129.8207 Y18.7773 I-1.3727 J0.1373
G1 X129.4496 Y17.6738
G3 X129.4398 Y17.5127 I0.2717 J-0.0973
G3 X129.5326 Y17.4541 I0.0856 J0.0328
G3 X129.6451 Y17.4921 I-0.0271 J0.2661
G3 X129.9721 Y17.7416 I-1.0747 J1.747
G3 X130.2699 Y18.0254 I-5.046 J5.5934
G1 X130.3724 Y17.9229
G2 X130.0554 Y17.6092 I-8.5931 J8.3703
G2 X129.7181 Y17.3174 I-2.774 J2.8647
G2 X129.528 Y17.2053 I-0.6015 J0.803
G2 X129.3129 Y17.1563 I-0.2255 J0.4927
G2 X129.0101 Y17.3467 I-0.0139 J0.3137
G2 X128.9696 Y17.5917 I0.4762 J0.2046
G2 X129.0199 Y17.835 I0.9509 J-0.0697
G1 X129.4007 Y18.9482
G3 X129.4649 Y19.2043 I-1.1635 J0.4274
G3 X129.4514 Y19.3524 I-0.301 J0.0472
G3 X129.3226 Y19.4268 I-0.116 J-0.0522
G3 X129.1916 Y19.3849 I0.0168 J-0.279
G3 X129.005 Y19.2388 I0.522 J-0.8583
G3 X128.5511 Y18.6943 I3.0705 J-3.0211
G3 X127.7504 Y17.2539 I5.2383 J-3.8549
G1 X127.3304
G0 Z110.0
G0 X130.5895 Y17.7143
G1 F508.0 Z65.0
G2 F2032.0 X130.5824 Y17.8447 I0.7558 J0.1068
G2 X130.724 Y18.4453 I1.4847 J-0.0331
G2 X131.1195 Y19.0361 I2.0108 J-0.9183
G2 X131.6867 Y19.4845 I1.5405 J-1.3662
G2 X132.389 Y19.6563 I0.699 J-1.3362
G2 X132.5974 Y19.6367 I0.0107 J-1.007
G2 X132.7894 Y19.5537 I-0.0866 J-0.4641
G1 X133.3216 Y19.6563
G1 X132.7699 Y17.6738
G3 X132.7748 Y17.5127 I0.2354 J-0.0735
G3 X132.8675 Y17.4541 I0.0893 J0.0386
G3 X132.9787 Y17.4919 I-0.026 J0.2592
G3 X133.2995 Y17.7414 I-1.0435 J1.672
G3 X133.5902 Y18.0254 I-4.9057 J5.3133
G1 X133.6879 Y17.9229
G2 X133.2281 Y17.4578 I-3.6649 J3.1628
G2 X132.9616 Y17.2616 I-1.2702 J1.4468
G2 X132.6478 Y17.1563 I-0.3577 J0.5455
G2 X132.3451 Y17.3418 I-0.0156 J0.3143
G2 X132.3002 Y17.588 I0.5021 J0.2188
G2 X132.3402 Y17.835 I1.0568 J-0.0445
G1 X132.4476 Y18.2646
G2 X132.1205 Y17.8174 I-5.5346 J3.7051
G2 X131.7396 Y17.415 I-2.3541 J1.8468
G2 X131.4621 Y17.2328 I-0.8355 J0.97
G2 X131.139 Y17.1563 I-0.3325 J0.6832
G2 X130.7435 Y17.3516 I-0.0016 J0.4949
G2 X130.5895 Y17.7143 I0.6018 J0.4695
G1 F508.0 X131.1019 Y17.7567
G3 F2032.0 X131.1416 Y17.5781 I0.6698 J0.0554
G3 X131.3588 Y17.4346 I0.2061 J0.0758
G3 X131.5841 Y17.5114 I-0.0254 J0.4436
G3 X131.8529 Y17.7409 I-0.7966 J1.205
G3 X132.0814 Y18.0107 I-2.5366 J2.3797
G3 X132.427 Y18.5305 I-3.4811 J2.6892
G3 X132.6722 Y19.1045 I-2.3575 J1.3467
G1 X132.7504 Y19.3975
G3 X132.389 Y19.4854 I-0.3644 J-0.7116
G3 X131.8315 Y19.2931 I0.0022 J-0.9112
G3 X131.4418 Y18.8506 I1.0189 J-1.2902
G3 X131.1927 Y18.3281 I2.1117 J-1.3271
G3 X131.1 Y17.835 I1.5506 J-0.547
G3 X131.1019 Y17.7567 I0.6717 J-0.0228
G0 Z110.0
G0 X133.9027 Y17.2539
G1 F508.0 Z65.0
G1 F2032.0 X134.5228 Y19.5488
G1 X135.0306 Y19.6563
G1 X134.7035 Y18.4551
G2 X134.9935 Y18.9323 I9.7448 J-5.5956
G2 X135.3236 Y19.3828 I3.3309 J-2.0944
G2 X135.5205 Y19.565 I0.8574 J-0.729
G2 X135.7728 Y19.6563 I0.2719 J-0.3575
G2 X136.1241 Y19.4221 I-0.0033 J-0.3855
G2 X136.2416 Y19.0166 I-1.1638 J-0.5569
G1 X135.8705 Y18.8945
G3 X135.8071 Y19.18 I-1.6714 J-0.221
G3 X135.7417 Y19.3177 I-0.526 J-0.1657
G3 X135.6117 Y19.3975 I-0.1392 J-0.0811
G3 X135.5092 Y19.3503 I0.0251 J-0.1893
G3 X135.2527 Y19.0595 I1.0779 J-1.2093
G3 X135.0355 Y18.7383 I5.0315 J-3.6367
G3 X134.3226 Y17.2539 I5.4256 J-3.5191
G1 X133.9027
G0 Z110.0
G0 X136.1244
G1 F508.0 Z65.0
G1 F2032.0 X136.7445 Y19.5439
G1 X137.2523 Y19.6563
G1 X136.8617 Y18.2256
G2 X137.2443 Y18.7987 I12.5242 J-7.9462
G2 X137.6722 Y19.3389 I4.2033 J-2.8906
G2 X137.9135 Y19.5483 I1.095 J-1.018
G2 X138.2142 Y19.6563 I0.3307 J-0.4482
G2 X138.4399 Y19.5989 I0.0133 J-0.4201
G2 X138.5853 Y19.417 I-0.2042 J-0.3124
G2 X138.6223 Y19.0991 I-0.6152 J-0.2326
G2 X138.5511 Y18.7871 I-1.4569 J0.168
G1 X138.4047 Y18.3232
G2 X138.7668 Y18.8541 I11.1907 J-7.2447
G2 X139.1713 Y19.3535 I3.9453 J-2.7819
G2 X139.4051 Y19.5521 I1.0915 J-1.0481
G2 X139.6937 Y19.6563 I0.3209 J-0.4375
G2 X139.9194 Y19.5989 I0.0133 J-0.4201
G2 X140.0648 Y19.417 I-0.2042 J-0.3124
G2 X140.1058 Y19.0946 I-0.6192 J-0.2425
G2 X140.0355 Y18.7773 I-1.4453 J0.1538
G1 X139.6644 Y17.6738
G3 X139.6547 Y17.5127 I0.2717 J-0.0973
G3 X139.7425 Y17.4541 I0.083 J0.0293
G3 X139.8952 Y17.5193 I-0.0672 J0.3688
G3 X140.0306 Y17.6152 I-1.0304 J1.5973
G3 X140.4847 Y18.0254 I-2.7475 J3.4983
G1 X140.5824 Y17.9229
G2 X139.9379 Y17.332 I-4.4456 J4.2028
G2 X139.7434 Y17.2132 I-0.7224 J0.9632
G2 X139.5228 Y17.1563 I-0.2392 J0.4711
G2 X139.2201 Y17.3467 I-0.0139 J0.3137
G2 X139.1811 Y17.5922 I0.4656 J0.1998
G2 X139.2347 Y17.835 I0.9384 J-0.0801
G1 X139.6156 Y18.9434
G3 X139.6812 Y19.2047 I-1.464 J0.5062
G3 X139.6793 Y19.354 I-0.4088 J0.0697
G3 X139.5619 Y19.4463 I-0.109 J-0.0179
G3 X139.4331 Y19.4009 I0.0195 J-0.2608
G3 X139.0965 Y19.0742 I0.9604 J-1.3261
G3 X138.8148 Y18.6992 I4.7073 J-3.8295
G3 X138.0238 Y17.2539 I5.4325 J-3.9123
G1 X137.6039
G1 X138.1312 Y18.9434
G3 X138.2013 Y19.204 I-1.4446 J0.5282
G3 Y19.3543 I-0.3995 J0.0751
G3 X138.0824 Y19.4463 I-0.1093 J-0.0184
G3 X137.9536 Y19.4009 I0.0195 J-0.2608
G3 X137.617 Y19.0742 I0.9604 J-1.3261
G3 X137.3353 Y18.6992 I4.7073 J-3.8295
G3 X136.5443 Y17.2539 I5.4325 J-3.9123
G1 X136.1244
G0 Z110.0
G0 X140.9833 Y17.5286
G1 F508.0 Z65.0
G2 F2032.0 X140.9828 Y17.5566 I0.3852 J0.0218
G2 X141.1 Y17.8398 I0.3858 J0.0062
G2 X141.3832 Y17.957 I0.277 J-0.2686
G2 X141.6664 Y17.8398 I0.0062 J-0.3858
G2 X141.7836 Y17.5566 I-0.2686 J-0.277
G2 X141.6664 Y17.2734 I-0.3858 J-0.0062
G2 X141.3832 Y17.1563 I-0.277 J0.2686
G2 X141.1 Y17.2734 I-0.0062 J0.3858
G2 X140.9833 Y17.5286 I0.2686 J0.277
G0 Z110.0
G0 X147.1556 Y22.7324
G1 F508.0 Z65.0
G1 F2032.0 X146.887 Y23.1719
G3 X147.9271 Y23.5527 I-3.4189 J10.9467
G3 X146.9652 Y24.0654 I-4.2938 J-6.8973
G1 X147.3949 Y24.417
G3 X148.137 Y23.7725 I4.0014 J3.8581
G3 X148.264 Y24.8516 I-12.5006 J2.0177
G1 X148.806 Y24.7246
G3 X148.4642 Y23.8164 I5.1791 J-2.4675
G3 X149.304 Y24.3242 I-3.0275 J5.9554
G1 X149.5775 Y23.8848
G3 X148.5374 Y23.5039 I2.7581 J-9.1422
G3 X149.4945 Y22.9912 I4.6597 J7.5485
G1 X149.0648 Y22.6396
G3 X148.3372 Y23.2744 I-3.9854 J-3.8336
G3 X148.2054 Y22.2881 I7.7777 J-1.5416
G1 X147.6781 Y22.2002
G3 X148.015 Y23.2549 I-8.7188 J3.3663
G3 X147.1556 Y22.7324 I3.2712 J-6.3486
G0 Z110.0
G0 X96.1597 Y19.4072
G1 F508.0 Z65.0
G1 F2032.0 X96.0181 Y19.0947
G3 X95.6372 Y19.373 I-0.9008 J-0.8329
G3 X95.2173 Y19.4854 I-0.4496 J-0.84
G3 X94.6598 Y19.2931 I0.0022 J-0.9112
G3 X94.27 Y18.8506 I1.0189 J-1.2902
G3 X94.021 Y18.3281 I2.1117 J-1.3271
G3 X93.9282 Y17.835 I1.5506 J-0.547
G3 X93.9699 Y17.5781 I0.6717 J-0.0228
G3 X94.187 Y17.4346 I0.2061 J0.0758
G3 X94.425 Y17.5181 I-0.0274 J0.4592
G3 X94.7061 Y17.7654 I-0.8579 J1.2586
G3 X94.9438 Y18.0547 I-2.7402 J2.4938
G3 X95.2578 Y18.5319 I-3.9103 J2.9147
G3 X95.4858 Y19.0557 I-2.0378 J1.1986
G1 X95.8862 Y18.9141
G1 X95.5395 Y17.6348
G1 X96.0376 Y17.9961
G1 X96.1206 Y17.874
G3 X95.7983 Y17.6445 I11.0116 J-15.8041
G3 X95.4858 Y17.4248 I3.1488 J-4.8104
G1 X95.1489 Y16.1748
G2 X94.9563 Y15.6631 I-2.6772 J0.7155
G2 X94.646 Y15.2129 I-1.6876 J0.8313
