( Made using CamBam - http://www.cambam.co.uk )
( Hello World 2012-03-28 8:33:06 AM )
( T0 : 0.8 )
G21 G90 G64 G40
G0 Z90.0
( T0 : 0.8 )
T0 M6
( Pocket1 )
G17
M3 S1000
G0 X-4.4904 Y2.2269
G1 F1.0 Z0.0
G1 F4.0 X-4.5008 Y2.276
G2 X-4.5354 Y2.5097 I2.1205 J0.4333
G3 X-4.5362 Y2.5172 I-1.0356 J-0.0959
G2 X-4.5485 Y2.7971 I2.5025 J0.2501
G3 X-4.5484 Y2.7993 I-1.0399 J0.0123
G2 X-4.4906 Y3.3539 I2.9608 J-0.0287
G2 X-4.3155 Y3.8907 I2.8415 J-0.6294
G2 X-4.2828 Y3.9625 I3.2153 J-1.4231
G3 X-4.3747 Y3.5226 I6.1932 J-1.5229
G3 X-4.4904 Y2.2269 I7.5686 J-1.3289
G1 F1.0 X-4.1704 Y2.2256
G3 F4.0 X-4.1702 Y2.1353 I7.3643 J-0.0318
G3 X-4.1384 Y1.5008 I6.1608 J-0.0092
G3 X-4.1329 Y1.4441 I3.2058 J0.2851
G2 X-4.1576 Y1.4543 I0.471 J1.1703
G2 X-4.4198 Y1.5993 I0.8692 J1.8821
G3 X-4.4516 Y1.6188 I-0.393 J-0.6033
G2 X-4.4535 Y1.62 I0.0148 J0.0254
G3 X-4.4901 Y1.6437 I-0.4092 J-0.5924
G2 X-4.5164 Y1.6605 I0.3211 J0.5307
G3 X-4.6618 Y1.7363 I-0.4033 J-0.5965
G3 X-4.7306 Y1.9637 I-0.7141 J-0.0919
G3 X-4.7577 Y2.0167 I-2.0741 J-1.0263
G1 X-4.7685 Y2.0373
G2 X-4.7969 Y2.1297 I0.4647 J0.1934
G3 X-4.798 Y2.1352 I-0.7053 J-0.1445
G1 X-4.8141 Y2.2105
G2 X-4.8541 Y2.4802 I2.4337 J0.4988
G3 X-4.8546 Y2.4854 I-0.7169 J-0.0664
G2 X-4.8684 Y2.8009 I2.8209 J0.282
G3 Y2.8024 I-0.7199 J0.0085
G2 X-4.8037 Y3.42 I3.2808 J-0.0318
G2 X-4.6084 Y4.0196 I3.1546 J-0.6955
G2 X-4.2712 Y4.6266 I3.5082 J-1.5519
G3 X-4.2679 Y4.6314 I-0.5952 J0.4052
G2 X-3.9236 Y5.0935 I4.7115 J-3.1518
G3 X-3.9156 Y5.1034 I-0.5547 J0.459
G2 X-3.8028 Y5.2366 I2.3364 J-1.8648
G3 X-3.7934 Y5.2472 I-0.5356 J0.4812
G2 X-3.2402 Y5.8108 I4.6908 J-4.0508
G1 X-3.1133 Y5.9213
G3 X-3.1097 Y5.9246 I-0.473 J0.5429
G2 X-3.0086 Y6.0087 I1.5008 J-1.6991
G3 X-2.9857 Y6.0275 I-0.4445 J0.5664
G2 X-2.9257 Y6.076 I0.9372 J-1.0981
G3 X-2.8996 Y6.0969 I-0.4375 J0.5718
G2 X-2.8349 Y6.1489 I1.1837 J-1.4064
G3 X-3.1393 Y5.7516 I4.3087 J-3.617
G3 X-3.1399 Y5.7508 I0.5904 J-0.4121
G3 X-3.7178 Y4.68 I4.4273 J-3.0805
G3 X-3.7187 Y4.6777 I0.6681 J-0.2683
G3 X-4.0594 Y3.4678 I5.6291 J-2.2382
G3 X-4.1704 Y2.2256 I7.2533 J-1.274
G0 Z90.0
G0 X1.7595 Y2.3654
G1 F1.0 Z0.0
G1 F4.0 X1.6493 Y7.0381
G2 X1.7224 Y7.0462 I0.8247 J-7.1193
G1 X1.8352 Y-0.8414
G1 X1.7595 Y2.3654
G0 Z90.0
G0 X9.2042 Y4.8248
G1 F1.0 Z0.0
G1 F4.0 X9.364 Y5.2898
G1 X9.3728 Y4.6808
G3 X9.2042 Y4.8248 I-1.3817 J-1.446
G1 F1.0 X8.9016 Y4.9289
G1 F4.0 X9.6043 Y6.9736
G1 X9.6599
G1 X9.783 Y-1.6066
G1 X9.6707 Y3.2735
G3 X8.8214 Y4.6953 I-1.6796 J-0.0387
G1 X8.9016 Y4.9289
G0 Z90.0
G0 X16.1706 Y5.9652
G1 F1.0 Z0.0
G1 F4.0 X16.8456 Y7.9336
G1 X16.9058
G1 X16.1706 Y5.9652
G0 Z90.0
G0 X15.259 Y-1.6592
G1 F1.0 Z0.0
G3 F4.0 X15.2358 Y-1.7526 I5.2162 J-1.347
G3 X15.1989 Y-1.8985 I6.186 J-1.6428
G3 X15.0342 Y-1.6964 I-1.6296 J-1.1595
G3 X15.259 Y-1.6592 I-0.2139 J1.9885
G1 F1.0 X15.1889 Y-1.347
G3 F4.0 X15.7373 Y-1.1156 I-0.3685 J1.6391
G3 X15.7311 Y-1.1378 I4.6223 J-1.2866
G3 X15.587 Y-1.671 I13.5953 J-3.9617
G3 X15.5461 Y-1.8309 I4.8882 J-1.3352
G3 X15.5026 Y-2.0045 I5.8757 J-1.5645
G3 X15.4516 Y-2.2107 I9.2302 J-2.3922
G3 X15.4384 Y-2.2718 I1.6353 J-0.3852
G1 X15.3706 Y-2.6169
G3 X15.2976 Y-3.0249 I10.3989 J-2.0716
G3 X15.224 Y-3.5562 I11.2266 J-1.8256
G3 X15.2213 Y-3.5812 I1.6691 J-0.1912
G1 X15.2061 Y-3.7339
G3 X15.2052 Y-3.744 I1.6718 J-0.1661
G3 X15.1822 Y-4.0715 I7.0669 J-0.659
G3 X15.1718 Y-4.4139 I5.9949 J-0.3546
G3 X15.1887 Y-5.0696 I9.9452 J-0.0712
G3 X15.1907 Y-5.0989 I1.6771 J0.0987
G1 X15.2047 Y-5.2815
G3 X15.207 Y-5.3088 I1.6751 J0.128
G3 X15.2467 Y-5.654 I7.8182 J0.726
G3 X15.2518 Y-5.6882 I1.6643 J0.2292
G3 X15.3282 Y-6.0767 I5.3266 J0.8455
G3 X15.3694 Y-6.2332 I2.9172 J0.6841
G2 X15.2077 Y-5.9465 I3.4954 J2.1598
G3 X15.1859 Y-5.9054 I-1.4953 J-0.7658
G1 X15.1741 Y-5.8709
G1 X15.1304 Y-5.733
G2 X15.1152 Y-5.6778 I2.6849 J0.7675
G2 X15.072 Y-5.435 I1.5788 J0.4058
G1 X15.0619 Y-5.3281
G1 X15.0557 Y-5.2354
G2 X15.05 Y-5.0406 I6.5506 J0.2892
G2 X15.0523 Y-4.84 I4.5784 J0.0468
G3 X15.0527 Y-4.8281 I-1.6791 J0.0564
G2 X15.0623 Y-4.611 I6.0168 J-0.1593
G3 X15.0624 Y-4.6108 I-1.6767 J0.105
G2 X15.1025 Y-4.1253 I12.1225 J-0.7574
G2 X15.167 Y-3.6533 I10.6106 J-1.2097
G1 X15.1826 Y-3.5635
G2 X15.1961 Y-3.4921 I3.9753 J-0.7163
G3 X15.1971 Y-3.4874 I-1.6478 J0.3276
G1 X15.2179 Y-3.3809
G3 X14.5576 Y-1.6994 I-1.6487 J0.3229
G1 X14.6668 Y-1.3808
G3 X15.1889 Y-1.347 I0.1536 J1.673
G1 F1.0 X15.1187 Y-1.0348
G3 F4.0 X15.9786 Y-0.4207 I-0.2983 J1.3269
G1 X16.1435 Y-0.1528
G2 X16.2818 Y0.0597 I4.8268 J-2.9915
G3 X16.2864 Y0.0664 I-1.1229 J0.7673
G2 X16.4872 Y0.3388 I3.3625 J-2.2686
G1 X16.5702 Y0.4395
G2 X16.7444 Y0.6356 I7.072 J-6.109
G3 X16.2125 Y-0.6635 I9.4783 J-4.6392
G3 X16.0836 Y-1.0722 I11.6161 J-3.8881
G3 X16.0391 Y-1.2247 I4.2759 J-1.33
G3 X15.8966 Y-1.7519 I13.2873 J-3.8748
G3 X15.8564 Y-1.9092 I4.5786 J-1.2543
G3 X15.8133 Y-2.0812 I5.5654 J-1.4862
G3 X15.7631 Y-2.284 I8.9195 J-2.3155
G3 X15.7524 Y-2.3336 I1.3238 J-0.3118
G1 X15.6845 Y-2.679
G3 X15.6135 Y-3.0757 I10.085 J-2.0095
G3 X15.5419 Y-3.5926 I10.9106 J-1.7748
G3 X15.5397 Y-3.6129 I1.3512 J-0.1548
G1 X15.5246 Y-3.7655
G3 X15.5238 Y-3.7737 I1.3533 J-0.1345
G3 X15.5018 Y-4.0884 I6.7483 J-0.6293
G3 X15.4918 Y-4.4154 I5.6754 J-0.3377
G3 X15.5082 Y-5.0508 I9.6252 J-0.0697
G3 X15.5098 Y-5.0745 I1.3576 J0.0799
G1 X15.5237 Y-5.2571
G3 X15.5256 Y-5.2792 I1.356 J0.1036
G3 X15.5637 Y-5.6104 I7.4996 J0.6964
G3 X15.5678 Y-5.638 I1.3473 J0.1855
G3 X15.6397 Y-6.0036 I5.0105 J0.7954
G3 X15.7527 Y-6.3669 I2.6056 J0.611
G3 X15.7549 Y-6.3725 I1.2667 J0.4951
G3 X15.9475 Y-6.7555 I2.247 J0.8897
G3 X15.962 Y-6.7785 I1.1561 J0.7163
G3 X16.2088 Y-7.0907 I1.7743 J1.1489
G2 X15.9093 Y-7.011 I0.6193 J2.9293
G2 X15.6553 Y-6.9115 I0.7344 J2.2489
G3 X15.6293 Y-6.8999 I-0.5681 J-1.2356
G2 X15.6125 Y-6.8916 I0.0814 J0.1874
G3 X15.6009 Y-6.8854 I-0.6546 J-1.1921
G1 X15.5328 Y-6.8488
G2 X15.3114 Y-6.688 I0.5206 J0.9491
G2 X15.1445 Y-6.4763 I0.9718 J0.9385
G3 X15.1415 Y-6.4716 I-1.1464 J-0.7317
G2 X14.9229 Y-6.0924 I3.7234 J2.3982
G3 X14.896 Y-6.0425 I-1.2105 J-0.62
G3 X14.8916 Y-6.0337 I-1.2193 J-0.6023
G1 X14.8702 Y-5.9712
G1 X14.824 Y-5.8254
G2 X14.8055 Y-5.7584 I2.9913 J0.86
G2 X14.7536 Y-5.466 I1.8885 J0.4864
G1 X14.7429 Y-5.3539
G1 X14.7361 Y-5.2532
G2 X14.73 Y-5.0446 I6.8701 J0.3071
G2 X14.7325 Y-4.8293 I4.8984 J0.0507
G3 X14.7328 Y-4.8196 I-1.3592 J0.0457
G2 X14.743 Y-4.591 I6.3367 J-0.1678
G3 Y-4.5908 I-1.3573 J0.085
G2 X14.7843 Y-4.0908 I12.4419 J-0.7773
G2 X14.8513 Y-3.6006 I10.9288 J-1.2442
G1 X14.8675 Y-3.5077
G2 X14.8823 Y-3.4297 I4.2904 J-0.7721
G3 X14.883 Y-3.4259 I-1.3339 J0.2652
G1 X14.9039 Y-3.3193
G3 X14.1715 Y-1.8386 I-1.3346 J0.2614
G1 X14.4531 Y-1.0173
G3 X15.1187 Y-1.0348 I0.3673 J1.3095
G1 F1.0 X15.0485 Y-0.7225
G3 F4.0 X15.7061 Y-0.2529 I-0.2281 J1.0147
G1 X15.8712 Y0.0154
G2 X16.0176 Y0.2402 I5.0991 J-3.1597
G3 X16.0211 Y0.2453 I-0.8587 J0.5868
G2 X16.239 Y0.5408 I3.6278 J-2.4476
G1 X16.3255 Y0.6458
G2 X16.6574 Y1.0111 I7.3166 J-6.3153
G2 X17.0105 Y1.3168 I9.3113 J-10.3975
G3 X17.0128 Y1.3187 I-0.6675 J0.7975
G2 X17.3637 Y1.5873 I3.0644 J-3.6402
G2 X17.8895 Y1.8803 I1.8554 J-2.7107
G3 X17.8651 Y1.85 I12.4801 J-10.054
G3 X17.8579 Y1.8409 I0.8115 J-0.6505
G3 X17.4445 Y1.2469 I5.0411 J-3.9491
G3 X17.1048 Y0.641 I6.7995 J-4.2106
G3 X16.516 Y-0.7649 I9.118 J-4.6446
G3 X16.3898 Y-1.1652 I11.3126 J-3.7866
G3 X16.3471 Y-1.3116 I3.9697 J-1.237
G3 X16.2062 Y-1.8329 I12.9793 J-3.788
G3 X16.1667 Y-1.9874 I4.269 J-1.1732
G3 X16.124 Y-2.1579 I5.2551 J-1.408
G3 X16.0746 Y-2.3574 I8.6088 J-2.2388
G3 X16.0664 Y-2.3953 I1.0123 J-0.2384
G1 X15.9984 Y-2.7412
G3 X15.9295 Y-3.1265 I9.7711 J-1.9474
G3 X15.8598 Y-3.629 I10.5947 J-1.724
G3 X15.8582 Y-3.6445 I1.0332 J-0.1183
G1 X15.843 Y-3.7972
G3 X15.8424 Y-3.8034 I1.0349 J-0.1028
G3 X15.8214 Y-4.1053 I6.4296 J-0.5996
G3 X15.8118 Y-4.4168 I5.3558 J-0.3207
G3 X15.8276 Y-5.032 I9.3052 J-0.0683
G3 X15.8288 Y-5.0501 I1.0382 J0.0611
G1 X15.8428 Y-5.2328
G3 X15.8442 Y-5.2497 I1.037 J0.0793
G3 X15.8808 Y-5.5667 I7.1809 J0.6668
G3 X15.8839 Y-5.5879 I1.0303 J0.1419
G3 X15.9512 Y-5.9304 I4.6945 J0.7452
G3 X16.0507 Y-6.2504 I2.2941 J0.5379
G3 X16.0524 Y-6.2547 I0.9686 J0.3786
G3 X16.2195 Y-6.587 I1.9494 J0.7719
G3 X16.2306 Y-6.6045 I0.8841 J0.5477
G3 X16.7089 Y-7.1 I1.5057 J0.975
G3 X16.7102 Y-7.1009 I0.5957 J0.8525
G3 X17.2963 Y-7.3754 I1.091 J1.5668
G3 X17.2983 Y-7.3759 I0.2751 J1.003
G3 X17.5919 Y-7.435 I0.5861 J2.1541
G2 X17.5776 Y-7.4372 I-0.5007 J3.2887
G2 X17.0272 Y-7.4811 I-0.6107 J4.1751
G3 X17.0207 Y-7.4813 I0.0149 J-1.0399
G2 X16.3926 Y-7.4467 I-0.0856 J4.1739
G2 X15.8105 Y-7.3154 I0.4355 J3.2853
G2 X15.5216 Y-7.2023 I0.8331 J2.5533
G3 X15.5018 Y-7.1934 I-0.4345 J-0.9449
G2 X15.4584 Y-7.1721 I0.209 J0.4808
G3 X15.4496 Y-7.1673 I-0.5006 J-0.9116
G1 X15.3802 Y-7.1301
G2 X15.0865 Y-6.9157 I0.6732 J1.2304
G2 X14.8747 Y-6.6485 I1.1967 J1.1662
G3 X14.8724 Y-6.6449 I-0.8766 J-0.5596
G2 X14.6381 Y-6.2382 I3.9924 J2.5715
G3 X14.6131 Y-6.1923 I-0.9257 J-0.4741
G3 X14.5965 Y-6.1594 I-0.9364 J-0.4525
G1 X14.5663 Y-6.0715
G1 X14.5177 Y-5.9181
G2 X14.4959 Y-5.8391 I3.2976 J0.9527
G2 X14.4351 Y-5.4971 I2.1982 J0.5671
G1 X14.4239 Y-5.3798
G1 X14.4166 Y-5.2711
G2 X14.41 Y-5.0485 I7.1896 J0.325
G2 X14.4127 Y-4.8185 I5.2184 J0.0547
G3 X14.4129 Y-4.8111 I-1.0394 J0.0349
G2 X14.4236 Y-4.571 I6.6566 J-0.1763
G3 Y-4.5708 I-1.038 J0.065
G2 X14.4662 Y-4.0564 I12.7613 J-0.7973
G2 X14.5357 Y-3.5479 I11.2469 J-1.2786
G1 X14.5524 Y-3.4519
G2 X14.5684 Y-3.3673 I4.6055 J-0.8279
G3 X14.569 Y-3.3644 I-1.02 J0.2028
G1 X14.5899 Y-3.2578
G3 X13.7654 Y-2.0366 I-1.0206 J0.1999
G1 X14.2628 Y-0.5858
G3 X15.0485 Y-0.7225 I0.5576 J0.8779
G0 Z90.0
G0 X21.1043 Y-0.6283
G1 F1.0 Z0.0
G2 F4.0 X21.1045 Y-0.6007 I0.6887 J0.0107
G3 X21.1047 Y-0.5631 I-1.0397 J0.0256
G2 X21.1111 Y-0.4637 I0.6542 J0.0075
G3 X21.1137 Y-0.444 I-1.0297 J0.1461
G2 X21.1269 Y-0.3844 I0.3197 J-0.0391
G3 X21.1274 Y-0.3827 I-0.9899 J0.3188
G2 X21.1566 Y-0.364 I0.3825 J-0.5647
G1 X21.252 Y-0.3063
G3 X21.5445 Y-0.0422 I-0.538 J0.89
G2 X21.5547 Y-0.429 I-9.2548 J-0.4369
G1 Y-0.4484
G3 X21.7004 Y-0.9794 I1.04 J0.0
G3 X21.5605 Y-1.2146 I0.816 J-0.6448
G3 X21.1139 Y-0.7327 I-0.9471 J-0.4297
G2 X21.1043 Y-0.6283 I0.6791 J0.1151
G1 F1.0 X20.7844 Y-0.6333
G2 F4.0 X20.7846 Y-0.5928 I1.0087 J0.0157
G3 X20.7847 Y-0.5668 I-0.7198 J0.0177
G2 X20.7943 Y-0.4187 I0.9742 J0.0112
G3 X20.7961 Y-0.4051 I-0.7129 J0.1011
G2 X20.8223 Y-0.2863 I0.6373 J-0.078
G3 X20.8262 Y-0.2736 I-0.6853 J0.2207
G2 X20.8823 Y-0.1684 I0.2917 J-0.088
G2 X20.9107 Y-0.1442 I0.2149 J-0.2235
G2 X20.9909 Y-0.0902 I0.5992 J-0.8032
G1 X21.0864 Y-0.0325
G3 X21.4304 Y0.655 I-0.3725 J0.6162
G3 X21.3932 Y0.9965 I-18.0656 J-1.7974
G3 X21.39 Y1.0198 I-0.715 J-0.0848
G1 X21.3735 Y1.1285
G3 X21.3716 Y1.1405 I-0.7118 J-0.1082
G3 X21.2672 Y1.5738 I-3.1935 J-0.5404
G3 X21.0746 Y1.9901 I-1.6282 J-0.5005
G3 X21.074 Y1.991 I-0.6068 J-0.3875
G3 X20.9428 Y2.1601 I-1.0014 J-0.6417
G3 X20.9336 Y2.1698 I-0.5268 J-0.4908
G3 X20.8183 Y2.2776 I-1.1197 J-1.0826
G3 X20.8074 Y2.2866 I-0.4643 J-0.5503
G3 X20.7541 Y2.3271 I-0.6914 J-0.8528
G1 X20.7699 Y2.3201
G2 X21.0577 Y2.1545 I-0.6924 J-1.536
G2 X21.2772 Y1.9429 I-0.7842 J-1.0331
G3 X21.2808 Y1.9385 I0.5572 J0.456
G2 X21.4622 Y1.6647 I-1.1645 J-0.9685
G3 X21.4623 Y1.6646 I0.6398 J0.3303
G2 X21.6441 Y1.2109 I-2.273 J-1.1741
G1 X21.7005 Y1.0183
G1 X21.7635 Y0.7835
G1 X21.7943 Y0.6135
G1 X21.8262 Y0.4114
G2 X21.8457 Y0.2414 I-2.1243 J-0.33
G3 X21.8462 Y0.2361 I0.718 J0.0536
G2 X21.8616 Y0.0242 I-11.8074 J-0.9682
G2 X21.8747 Y-0.4281 I-9.5719 J-0.5033
G1 Y-0.4484
G3 X22.1426 Y-1.0088 I0.72 J0.0
G3 X21.8015 Y-1.5389 I0.3738 J-0.6153
G2 X21.6725 Y-2.4973 I-31.7145 J3.7799
G3 X21.6723 Y-2.4991 I0.712 J-0.1068
G2 X21.497 Y-3.4051 I-10.2097 J1.505
G2 X20.948 Y-4.9327 I-7.5139 J1.8379
G2 X20.153 Y-6.1887 I-5.9933 J2.9141
G2 X19.7333 Y-6.6519 I-4.2642 J3.4416
G2 X19.2659 Y-7.0549 I-3.4055 J3.4774
G3 X19.2535 Y-7.0645 I0.4346 J-0.574
G2 X19.2186 Y-7.0902 I-0.3768 J0.4758
G3 X19.1995 Y-7.1037 I0.4057 J-0.5948
G2 X18.1806 Y-7.6264 I-2.1594 J2.9549
G2 X17.6241 Y-7.7537 I-1.0894 J3.48
G2 X17.0317 Y-7.8011 I-0.6573 J4.4917
G3 X17.0273 Y-7.8012 I0.0103 J-0.7199
G2 X16.3508 Y-7.764 I-0.0921 J4.4938
G2 X15.7117 Y-7.6197 I0.4773 J3.6026
G2 X15.3879 Y-7.493 I0.9319 J2.8577
G3 X15.3742 Y-7.4869 I-0.3008 J-0.6542
G2 X15.3044 Y-7.4526 I0.3366 J0.7743
G3 X15.2983 Y-7.4493 I-0.3466 J-0.6311
G1 X15.2278 Y-7.4115
G2 X14.8615 Y-7.1433 I0.8255 J1.5118
G2 X14.605 Y-6.8207 I1.4217 J1.3938
G3 X14.6034 Y-6.8182 I-0.6069 J-0.3874
G2 X14.3533 Y-6.3841 I4.2614 J2.7448
G3 X14.3347 Y-6.3502 I-0.6408 J-0.3282
G2 X14.3261 Y-6.3338 I0.1991 J0.1159
G3 X14.3054 Y-6.294 I-0.6493 J-0.311
G2 X14.3025 Y-6.2887 I0.8353 J0.4662
G1 X14.2624 Y-6.1718
G1 X14.2114 Y-6.011
G2 X14.1862 Y-5.9198 I3.6039 J1.0456
G2 X14.1166 Y-5.5281 I2.5078 J0.6478
G1 X14.1049 Y-5.4057
G1 X14.0971 Y-5.2891
G2 X14.09 Y-5.0525 I7.5091 J0.3429
G2 X14.0929 Y-4.8078 I5.5384 J0.0586
G3 X14.093 Y-4.8027 I-0.7196 J0.0242
G2 X14.1042 Y-4.551 I6.9765 J-0.1847
G3 Y-4.5509 I-0.7186 J0.045
G2 X14.1481 Y-4.0219 I13.0806 J-0.8173
G2 X14.2201 Y-3.4952 I11.5651 J-1.3131
G1 X14.2373 Y-3.3961
G2 X14.2546 Y-3.3049 I4.9206 J-0.8837
G3 X14.255 Y-3.3029 I-0.7062 J0.1404
G1 X14.2758 Y-3.1963
G3 X13.3068 Y-2.3875 I-0.7066 J0.1384
G1 X14.1424 Y0.0497
G3 X15.4336 Y-0.0852 I0.678 J0.2424
G1 X15.599 Y0.1835
G2 X15.7534 Y0.4208 I5.3714 J-3.3278
G3 X15.7558 Y0.4243 I-0.5945 J0.4062
G2 X15.9908 Y0.7428 I3.893 J-2.6266
G1 X16.0808 Y0.8521
G2 X16.4347 Y1.2412 I7.5613 J-6.5216
G2 X16.8051 Y1.5622 I9.534 J-10.6276
G3 X16.8067 Y1.5635 I-0.4621 J0.5521
G2 X17.182 Y1.8507 I3.2705 J-3.8851
G2 X17.9423 Y2.2478 I2.037 J-2.9741
G1 X18.0977 Y2.302
G2 X18.2189 Y2.3394 I0.639 J-1.8565
G3 X18.2363 Y2.3444 I-0.1899 J0.6945
G2 X18.5299 Y2.4224 I1.3646 J-4.5409
G3 X18.5591 Y2.4298 I-0.1626 J0.7014
G2 X18.6109 Y2.4424 I0.2193 J-0.7937
G3 X18.6495 Y2.4515 I-0.1464 J0.705
G2 X18.7171 Y2.4675 I0.3271 J-1.2307
G2 X18.7338 Y2.3736 I-0.2506 J-0.0932
G3 Y2.369 I0.72 J-0.0018
G2 X18.7227 Y2.2917 I-0.2676 J-0.0011
G3 X18.7183 Y2.2761 I0.6902 J-0.205
G2 X18.7132 Y2.2627 I-0.0703 J0.0192
G2 X18.6559 Y2.2041 I-0.3938 J0.3275
G3 X18.6374 Y2.1873 I0.4731 J-0.5427
G1 X18.6 Y2.157
G3 X18.5837 Y2.1434 I0.4536 J-0.5592
G1 X18.5092 Y2.0792
G3 X18.5086 Y2.0787 I0.4699 J-0.5455
G3 X18.3831 Y1.9588 I1.1237 J-1.3016
G3 X18.2894 Y1.8585 I1.9022 J-1.8715
G3 X18.2832 Y1.8515 I0.5385 J-0.4779
G1 X18.206 Y1.7622
G3 X18.1925 Y1.7461 I0.5447 J-0.4708
G3 X18.1148 Y1.6499 I12.177 J-9.9198
G3 X18.1098 Y1.6435 I0.5618 J-0.4503
G3 X17.7168 Y1.0788 I4.7892 J-3.7518
G3 X17.3902 Y0.4962 I6.5272 J-4.0425
G3 X16.8195 Y-0.8663 I8.8326 J-4.4998
G3 X16.696 Y-1.2583 I11.0091 J-3.6852
G3 X16.6552 Y-1.3983 I3.6635 J-1.144
G3 X16.5158 Y-1.914 I12.6713 J-3.7012
G3 X16.4771 Y-2.0656 I3.9594 J-1.0921
G3 X16.4347 Y-2.2345 I4.9447 J-1.3298
G3 X16.386 Y-2.4308 I8.2981 J-2.1621
G3 X16.3804 Y-2.457 I0.7008 J-0.1651
G1 X16.3123 Y-2.8033
G3 X16.2454 Y-3.1772 I9.4572 J-1.8852
G3 X16.1777 Y-3.6654 I10.2787 J-1.6732
G3 X16.1766 Y-3.6762 I0.7153 J-0.0819
G1 X16.1614 Y-3.8288
G3 X16.161 Y-3.8331 I0.7165 J-0.0712
G3 X16.1409 Y-4.1223 I6.111 J-0.5699
G3 X16.1318 Y-4.4183 I5.0362 J-0.3038
G3 X16.1471 Y-5.0132 I8.9852 J-0.0668
G3 X16.1479 Y-5.0257 I0.7188 J0.0423
G1 X16.1619 Y-5.2084
G3 X16.1629 Y-5.2201 I0.7179 J0.0549
G3 X16.1978 Y-5.523 I6.8623 J0.6372
G3 X16.1999 Y-5.5377 I0.7133 J0.0982
G3 X16.2628 Y-5.8573 I4.3784 J0.695
G3 X16.3488 Y-6.1339 I1.9826 J0.4647
G3 X16.3499 Y-6.1369 I0.6706 J0.2621
G3 X16.4915 Y-6.4185 I1.6519 J0.6541
G3 X16.4992 Y-6.4306 I0.6121 J0.3792
G3 X16.8921 Y-6.8377 I1.2371 J0.8011
G3 X16.8931 Y-6.8383 I0.4124 J0.5902
G3 X17.381 Y-7.0668 I0.9082 J1.3042
G3 X17.3824 Y-7.0672 I0.1904 J0.6944
G3 X17.916 Y-7.134 I0.5021 J1.8453
G3 X17.9168 I-0.0119 J0.7199
G3 X18.8479 Y-6.9061 I-0.0384 J2.1727
G3 X18.8568 Y-6.9016 I-0.3212 J0.6444
G3 X19.2899 Y-6.6166 I-1.1275 J2.1853
G3 X19.2973 Y-6.6105 I-0.4569 J0.5564
G3 X19.6329 Y-6.2841 I-2.142 J2.5385
G3 X19.6445 Y-6.2708 I-0.5371 J0.4795
G1 X19.7285 Y-6.172
G3 X19.7475 Y-6.1487 I-0.5487 J0.4662
G1 X19.8272 Y-6.0464
G3 X19.8412 Y-6.0279 I-0.5676 J0.443
G1 X19.8922 Y-5.9581
G3 X19.9038 Y-5.9417 I-0.5816 J0.4244
G1 X19.9691 Y-5.8467
G3 X19.974 Y-5.8396 I-0.5932 J0.4081
G3 X20.2485 Y-5.3781 I-4.1429 J2.7771
G3 X20.6196 Y-4.578 I-7.4605 J3.9458
G3 X20.7263 Y-4.2986 I-6.1447 J2.5068
G3 X21.0842 Y-3.0843 I-9.9084 J3.5803
G3 X21.0855 Y-3.0785 I-0.7016 J0.1617
G3 X21.2555 Y-2.1887 I-15.0533 J3.338
G3 X21.2767 Y-2.0589 I-4.1358 J0.7415
G3 X21.2996 Y-1.9155 I-5.153 J0.8942
G3 X21.3257 Y-1.7491 I-8.6542 J1.444
G3 X20.9521 Y-1.0089 I-0.7123 J0.1048
G2 X20.8444 Y-0.9455 I0.6893 J1.2929
G1 X20.8443 Y-0.9454
G1 X20.8444 Y-0.9455
G2 X20.8415 Y-0.9436 I0.0571 J0.0881
G3 X20.84 Y-0.9406 I-0.6451 J-0.3198
G2 X20.823 Y-0.895 I0.2045 J0.1026
G3 X20.8201 Y-0.8842 I-0.6973 J-0.1795
G2 X20.7844 Y-0.6333 I0.9729 J0.2666
G0 Z90.0
G0 X26.944 Y1.2525
G1 F1.0 Z0.0
G1 F4.0 X26.9598 Y1.3269
G3 X26.9675 Y1.2848 I1.6557 J0.2844
G3 X26.944 Y1.2525 I1.3457 J-1.0057
G1 F1.0 X26.6309 Y1.3188
G1 F4.0 X26.7061 Y1.6734
G1 X27.2569
G3 X27.3175 Y1.2054 I1.3586 J-0.062
G3 X26.9825 Y0.5596 I0.9957 J-0.9263
G1 X25.374 Y-7.0714
G1 X24.853
G1 X26.0855 Y-1.2546
G3 X26.0856 Y-0.691 I-1.3305 J0.2819
G3 X26.3143 Y-0.1755 I-1.1017 J0.7974
G1 X26.6309 Y1.3188
G1 F1.0 X26.3179 Y1.3852
G1 F4.0 X26.4467 Y1.9934
G1 X27.6321
G1 X27.5966 Y1.8199
G3 X27.6957 Y1.1261 I1.0189 J-0.2085
G3 X27.589 Y1.0255 I3.4422 J-3.7579
G3 X27.2956 Y0.4936 I0.7242 J-0.7464
G1 X25.6336 Y-7.3914
G1 X24.4581
G1 X25.7725 Y-1.1882
G3 X25.732 Y-0.616 I-1.0174 J0.2156
G3 X26.0013 Y-0.1092 I-0.7482 J0.7224
G1 X26.3179 Y1.3852
G1 F1.0 X26.0048 Y1.4515
G1 F4.0 X26.1874 Y2.3134
G1 X28.0242
G1 X27.9101 Y1.7557
G3 X28.1271 Y1.0824 I0.7054 J-0.1444
G3 X27.975 Y0.9469 I2.7715 J-3.2655
G3 X27.8118 Y0.7958 I3.1629 J-3.5788
G3 X27.6087 Y0.4276 I0.5014 J-0.5167
G1 X25.8931 Y-7.7114
G1 X24.0632
G1 X25.4594 Y-1.1219
G3 X25.3223 Y-0.5292 I-0.7044 J0.1492
G3 X25.6882 Y-0.0429 I-0.3384 J0.6355
G1 X26.0048 Y1.4515
G0 Z90.0
G0 X31.4397 Y1.6706
G1 F1.0 Z0.0
G2 F4.0 X31.5018 Y1.6607 I-0.0564 J-0.5518
G1 X31.5236 Y1.6312
G3 X31.5369 Y1.6103 I1.1541 J0.7195
G2 X31.5507 Y1.5886 I-0.8445 J-0.5481
G1 X31.5758 Y1.5441
G3 X31.5965 Y1.5018 I1.2317 J0.5767
G3 X31.7508 Y1.2347 I1.2472 J0.5424
G3 X31.6366 Y1.1628 I0.6671 J-1.1851
G3 X31.6218 Y1.2161 I-3.0525 J-0.8198
G3 X31.5114 Y1.527 I-2.1591 J-0.5913
G3 X31.5097 Y1.5309 I-1.2447 J-0.548
G3 X31.4397 Y1.6706 I-1.5305 J-0.6797
G1 F1.0 X31.1606 Y1.5141
G3 F4.0 X30.9301 Y1.816 I-1.1814 J-0.6628
G3 X30.8972 Y1.8471 I-0.73 J-0.7407
G3 X30.8317 Y1.9025 I-0.8767 J-0.9705
G2 X31.0487 Y1.963 I0.5424 J-1.5249
G2 X31.3612 Y1.9934 I0.3086 J-1.5503
G3 X31.3744 Y1.9935 I0.0026 J1.04
G2 X31.5979 Y1.9668 I0.0089 J-0.8746
G3 X31.5988 Y1.9665 I0.2552 J1.0082
G2 X31.6792 Y1.9328 I-0.0714 J-0.2832
G2 X31.7421 Y1.8739 I-0.1932 J-0.2689
G1 X31.7849 Y1.8162
G2 X31.7941 Y1.8023 I-0.2265 J-0.1603
G3 X31.8054 Y1.7846 I0.8836 J0.5485
G2 X31.8266 Y1.7507 I-1.113 J-0.7223
G1 X31.8599 Y1.6918
G2 X31.8624 Y1.6867 I-0.1 J-0.0522
G3 X31.882 Y1.6464 I0.945 J0.4342
G2 X31.8895 Y1.6305 I-0.2423 J-0.1242
G3 X32.431 Y1.0895 I0.9542 J0.4137
G3 X31.7123 Y0.8136 I-0.0131 J-1.0399
G2 X31.5736 Y0.7039 I-0.7862 J0.8511
G2 X31.5501 Y0.6944 I-0.0538 J0.099
G2 X31.4453 Y0.6809 I-0.1109 J0.4474
G3 X31.4328 Y0.6806 I0.0137 J-1.0399
G2 X31.41 Y0.6804 I-0.0163 J0.6474
G3 X31.4091 Y0.6857 I-1.0257 J-0.1717
G1 X31.3932 Y0.7778
G3 X31.3908 Y0.7908 I-1.0248 J-0.177
G1 X31.3743 Y0.8797
G3 X31.3389 Y1.0362 I-1.8028 J-0.3258
G3 X31.3137 Y1.1297 I-2.7547 J-0.6932
G3 X31.2186 Y1.3981 I-1.851 J-0.5048
G3 X31.2172 Y1.4011 I-0.9518 J-0.4191
G3 X31.1606 Y1.5141 I-1.238 J-0.5498
G0 Z90.0
G0 X33.9365 Y0.7682
G1 F1.0 Z0.0
G3 F4.0 X34.2212 Y1.0825 I-1.0928 J1.276
G1 X34.0684 Y0.3632
G3 X33.9365 Y0.7682 I-1.6505 J-0.3136
G0 Z90.0
G0 X33.0121 Y-6.2499
G1 F1.0 Z0.0
G3 F4.0 X33.1725 Y-6.6883 I2.2418 J0.5712
G1 X33.1509 Y-6.6629
G1 X33.1204 Y-6.6247
G2 X33.0859 Y-6.5749 I0.4683 J0.3622
G2 X33.0777 Y-6.5545 I0.1742 J0.0813
G2 X33.0332 Y-6.3764 I1.7775 J0.5386
G2 X33.0121 Y-6.2499 I2.6219 J0.5025
G1 F1.0 X32.6953 Y-6.2949
G2 F4.0 X32.6657 Y-5.8388 I2.9598 J0.421
G3 X32.6656 Y-5.7979 I-1.3599 J0.016
G2 X32.666 Y-5.7715 I0.4084 J0.0075
G3 X32.6674 Y-5.7169 I-1.3586 J0.0627
G2 X32.6686 Y-5.6806 I0.6348 J-0.0037
G3 X32.6704 Y-5.6457 I-1.3573 J0.0857
G2 X32.68 Y-5.4926 I3.0351 J-0.1134
G1 X32.6957 Y-5.3283
G1 X32.7148 Y-5.1749
G1 X32.7303 Y-5.0695
G2 X32.7573 Y-4.9105 I5.1797 J-0.796
G3 X32.7622 Y-4.8821 I-1.3372 J0.2478
G2 X32.7888 Y-4.7406 I3.0356 J-0.4964
G3 X32.7961 Y-4.7036 I-1.3304 J0.282
G2 X32.8159 Y-4.6019 I4.6716 J-0.8556
G1 X33.748 Y-0.2342
G3 X33.5109 Y0.859 I-1.33 J0.2839
G3 X34.1738 Y1.7603 I-0.6671 J1.1851
G1 X35.0669 Y5.9452
G1 X35.5967 Y6.017
G1 X33.3679 Y-4.4744
G3 X33.3033 Y-4.8302 I5.3764 J-1.1592
G3 X33.2625 Y-5.1956 I4.2328 J-0.6578
G3 X33.2508 Y-5.3803 I3.0013 J-0.2818
G3 X33.2489 Y-5.623 I2.4914 J-0.1411
G3 X33.2966 Y-6.0561 I2.6503 J0.0723
G3 X33.5466 Y-6.7077 I1.9574 J0.3775
G3 X33.5753 Y-6.7532 I1.1648 J0.7021
G3 X33.9713 Y-7.1979 I1.7143 J1.1279
G2 X33.6666 Y-7.2061 I-0.2335 J2.9876
G3 X33.6548 Y-7.2059 I-0.0323 J-1.3596
G2 X33.3674 Y-7.1709 I0.0206 J1.3684
G2 X33.1887 Y-7.0988 I0.1683 J0.6747
G3 X33.1782 Y-7.0928 I-0.6789 J-1.1784
G2 X33.1051 Y-7.0448 I0.3216 J0.5698
G3 X33.0907 Y-7.0341 I-0.8206 J-1.0845
G2 X32.9642 Y-6.9376 I2.7609 J3.7503
G1 X32.9036 Y-6.866
G1 X32.869 Y-6.8226
G2 X32.8055 Y-6.7297 I0.7198 J0.5601
G2 X32.7725 Y-6.6508 I0.4545 J0.2361
G2 X32.7191 Y-6.4376 I2.0827 J0.6349
G2 X32.6953 Y-6.2949 I2.936 J0.5636
G1 F1.0 X32.3785 Y-6.34
G2 F4.0 X32.3457 Y-5.835 I3.2766 J0.4661
G3 X32.3456 Y-5.8037 I-1.0399 J0.0122
G2 X32.3463 Y-5.7568 I0.7283 J0.0134
G3 X32.3474 Y-5.715 I-1.0389 J0.0479
G2 X32.3493 Y-5.6604 I0.9548 J-0.0056
G3 X32.3506 Y-5.6337 I-1.0379 J0.0655
G2 X32.3613 Y-5.4633 I3.3549 J-0.1253
G1 X32.3776 Y-5.2933
G1 X32.3977 Y-5.1319
G1 X32.4139 Y-5.0219
G2 X32.4426 Y-4.8522 I5.4961 J-0.8436
G3 X32.4464 Y-4.8305 I-1.0226 J0.1895
G2 X32.4757 Y-4.6742 I3.3514 J-0.548
G3 X32.4813 Y-4.6459 I-1.0174 J0.2157
G2 X32.5027 Y-4.5363 I4.9863 J-0.9132
G1 X33.435 Y-0.1674
G3 X32.8306 Y1.0042 I-1.0171 J0.2171
G3 X33.8608 Y1.8271 I0.0131 J1.0399
G1 X34.8009 Y6.2322
G1 X36.0041 Y6.395
G1 X33.6808 Y-4.5413
G3 X33.6197 Y-4.8782 I5.0635 J-1.0922
G3 X33.5814 Y-5.2216 I3.9164 J-0.6099
G3 X33.5706 Y-5.3945 I2.6824 J-0.2559
G3 X33.5687 Y-5.6121 I2.1717 J-0.1269
G3 X33.6107 Y-5.9953 I2.3304 J0.0614
G3 X33.8207 Y-6.5425 I1.6432 J0.3167
G3 X33.8426 Y-6.5773 I0.8907 J0.5369
G3 X34.612 Y-7.2193 I1.447 J0.9521
G3 X34.8971 Y-7.3177 I0.8026 J1.8624
G2 X33.659 Y-7.526 I-1.1594 J3.1075
G3 X33.6499 Y-7.5259 I-0.0247 J-1.0397
G2 X33.2928 Y-7.4821 I0.0255 J1.6883
G2 X33.0289 Y-7.3761 I0.243 J0.9859
G3 X33.021 Y-7.3715 I-0.5192 J-0.9011
G2 X32.912 Y-7.3 I0.4789 J0.8485
G3 X32.901 Y-7.2918 I-0.6275 J-0.8293
G2 X32.7403 Y-7.1684 I2.9506 J4.008
G1 X32.6564 Y-7.0692
G1 X32.6177 Y-7.0207
G2 X32.5261 Y-6.8859 I0.971 J0.7583
G2 X32.4671 Y-6.7463 I0.7339 J0.3923
G2 X32.405 Y-6.4987 I2.3881 J0.7304
G2 X32.3785 Y-6.34 I3.2501 J0.6248
G1 F1.0 X32.0617 Y-6.385
G2 F4.0 X32.0258 Y-5.8313 I3.5934 J0.5111
G3 X32.0257 Y-5.8096 I-0.72 J0.0085
G2 X32.0266 Y-5.742 I1.0482 J0.0192
G3 X32.0274 Y-5.7131 I-0.7192 J0.0332
G2 X32.0299 Y-5.6403 I1.2748 J-0.0075
G3 X32.0308 Y-5.6218 I-0.7186 J0.0454
G2 X32.0427 Y-5.4339 I3.6747 J-0.1373
G1 X32.0595 Y-5.2583
G1 X32.0806 Y-5.0888
G1 X32.0974 Y-4.9743
G2 X32.128 Y-4.7939 I5.8126 J-0.8911
G3 X32.1306 Y-4.7789 I-0.7079 J0.1312
G2 X32.1627 Y-4.6079 I3.6672 J-0.5996
G3 X32.1666 Y-4.5883 I-0.7043 J0.1493
G2 X32.1895 Y-4.4706 I5.3011 J-0.9709
G1 X33.1221 Y-0.1007
G3 X31.9294 Y0.5785 I-0.7041 J0.1503
G2 X31.7432 Y0.4323 I-1.0033 J1.0862
G2 X31.6306 Y0.3846 I-0.2233 J0.3706
G2 X31.4495 Y0.3609 I-0.1914 J0.7571
G3 X31.4408 Y0.3607 I0.0095 J-0.7199
G2 X31.2283 Y0.3789 I-0.0243 J0.9673
G3 X31.2099 Y0.3823 I-0.1401 J-0.7062
G2 X31.1853 Y0.3883 I0.0313 J0.1822
G2 X31.1646 Y0.4257 I0.2808 J0.1798
G3 X31.1626 Y0.4299 I-0.651 J-0.3076
G2 X31.121 Y0.5219 I1.9287 J0.9268
G1 X31.1143 Y0.5407
G2 X31.095 Y0.6239 I0.5987 J0.1834
G3 X31.0937 Y0.6313 I-0.7107 J-0.1152
G1 X31.0778 Y0.7233
G3 X31.0762 Y0.7324 I-0.7095 J-0.1225
G1 X31.0595 Y0.822
G3 X31.0294 Y0.9549 I-1.4881 J-0.2682
G3 X31.0055 Y1.0433 I-2.4452 J-0.612
G3 X30.9257 Y1.2691 I-1.5429 J-0.4184
G3 X30.9248 Y1.2712 I-0.659 J-0.2901
G3 X30.7055 Y1.5881 I-0.9456 J-0.4199
G3 X30.6827 Y1.6096 I-0.5054 J-0.5128
G3 X30.3044 Y1.8228 I-0.6622 J-0.7331
G3 X30.2845 Y1.8284 I-0.2069 J-0.6896
G3 X30.1056 Y1.8631 I-0.3331 J-1.2386
G2 X30.2142 Y1.9362 I3.9654 J-5.7743
G3 X30.2299 Y1.9469 I-0.3964 J0.601
G2 X30.246 Y1.9573 I0.1619 J-0.232
G3 X30.2678 Y1.971 I-0.3711 J0.617
G2 X30.6303 Y2.1677 I1.4048 J-2.1566
G2 X30.9853 Y2.2766 I0.7438 J-1.7901
G2 X31.362 Y2.3134 I0.372 J-1.864
G3 X31.3711 I0.0018 J0.72
G2 X31.6764 Y2.277 I0.0121 J-1.1946
G3 X31.6771 Y2.2768 I0.1767 J0.698
G2 X31.8561 Y2.1996 I-0.1497 J-0.5934
G2 X31.9952 Y2.0698 I-0.3701 J-0.5357
G1 X32.0436 Y2.0046
G2 X32.066 Y1.971 I-0.4852 J-0.3487
G3 X32.0738 Y1.9588 I0.6117 J0.3797
G2 X32.1029 Y1.9123 I-1.3814 J-0.8965
G1 X32.1402 Y1.8462
G2 X32.1532 Y1.8203 I-0.3803 J-0.2066
G3 X32.1668 Y1.7924 I0.6543 J0.3006
G2 X32.1831 Y1.7578 I-0.5271 J-0.2702
G3 X33.5479 Y1.8939 I0.6606 J0.2864
G1 X34.5349 Y6.5191
G1 X36.4116 Y6.7731
G1 X33.9937 Y-4.6083
G3 X33.9361 Y-4.9261 I4.7505 J-1.0252
G3 X33.9004 Y-5.2476 I3.6 J-0.5619
G3 X33.8903 Y-5.4088 I2.3634 J-0.2299
G3 X33.8886 Y-5.6012 I1.852 J-0.1126
G3 X33.9249 Y-5.9345 I2.0106 J0.0505
G3 X34.0948 Y-6.3773 I1.329 J0.2559
G3 X34.1099 Y-6.4014 I0.6166 J0.3717
G3 X34.7379 Y-6.9251 I1.1797 J0.7762
G3 X35.1687 Y-7.0471 I0.6767 J1.5683
G3 X35.5564 Y-7.0688 I0.3086 J2.037
G3 X36.0735 Y-7.003 I-0.033 J2.3234
G2 X35.0333 Y-7.6084 I-2.2827 J2.7256
G3 X35.0292 Y-7.6099 I0.2516 J-0.6746
G2 X33.6514 Y-7.8459 I-1.2915 J3.3997
G3 X33.6451 Y-7.8458 I-0.0171 J-0.7198
G2 X33.2183 Y-7.7933 I0.0303 J2.0083
G2 X32.8692 Y-7.6533 I0.3175 J1.2971
G3 X32.8637 Y-7.6502 I-0.3594 J-0.6239
G2 X32.7189 Y-7.5552 I0.6362 J1.1271
G3 X32.7113 Y-7.5495 I-0.4344 J-0.5742
G2 X32.5234 Y-7.4046 I3.1403 J4.2657
G3 X32.516 Y-7.3987 I-0.4524 J-0.5601
G1 X32.4091 Y-7.2724
G1 X32.3666 Y-7.2191
G2 X32.247 Y-7.0425 I1.2221 J0.9567
G2 X32.1616 Y-6.8416 I1.0131 J0.5489
G2 X32.0909 Y-6.5598 I2.6936 J0.8257
G2 X32.0617 Y-6.385 I3.5642 J0.6859
G0 Z90.0
G0 X39.225 Y-5.1424
G1 F1.0 Z0.0
G3 F4.0 X39.3726 Y-4.6287 I-2.5791 J1.0189
G3 X39.3811 Y-4.5783 I-1.6519 J0.3061
G3 X39.4214 Y-4.1218 I-3.4916 J0.5376
G1 X39.4232 Y-4.0844
G2 X39.4255 Y-4.0576 I2.8094 J-0.2267
G3 X39.4238 Y-4.0902 I6.0391 J-0.3201
G3 X39.4237 Y-4.0923 I1.6781 J-0.0798
G1 X39.416 Y-4.2585
G3 X39.4158 Y-4.2641 I1.6782 J-0.0777
G3 X39.4079 Y-4.6871 I8.6445 J-0.3716
G3 X39.44 Y-5.3173 I6.4194 J0.0104
G3 X39.4417 Y-5.3337 I1.6716 J0.1676
G3 X39.627 Y-6.1564 I3.7567 J0.4141
G3 X39.7792 Y-6.52 I2.9064 J1.0028
G2 X39.7016 Y-6.4036 I0.9884 J0.7432
G2 X39.5695 Y-6.1311 I1.8318 J1.056
G3 X39.5549 Y-6.0957 I-1.5604 J-0.6225
G2 X39.5486 Y-6.0789 I0.1994 J0.0849
G3 X39.5425 Y-6.0608 I-1.595 J-0.5276
G1 X39.5178 Y-5.9888
G1 X39.4949 Y-5.9161
G2 X39.4806 Y-5.8625 I0.6122 J0.1924
G3 X39.4772 Y-5.8477 I-1.6402 J-0.3634
G2 X39.4402 Y-5.6801 I8.497 J1.9638
G3 X39.225 Y-5.1424 I-1.644 J-0.346
G1 F1.0 X38.9529 Y-5.3107
G3 F4.0 X38.8611 Y-5.1801 I-1.1566 J-0.7154
G3 X38.9144 Y-5.0571 I-2.9529 J1.354
G3 X39.058 Y-4.5704 I-2.2685 J0.9336
G3 X39.0649 Y-4.5296 I-1.3372 J0.2478
G3 X39.1015 Y-4.1106 I-3.1753 J0.4889
G1 X39.1038 Y-4.0639
G2 X39.1348 Y-3.8069 I3.1288 J-0.2471
G3 X39.1394 Y-3.776 I-1.3423 J0.2185
G2 X39.1937 Y-3.4238 I12.1916 J-1.6981
G3 X39.1953 Y-3.4145 I-1.341 J0.2265
G2 X39.239 Y-3.1823 I4.5263 J-0.7326
G3 X39.2426 Y-3.1651 I-1.3296 J0.2862
G2 X39.2966 Y-2.9215 I6.3438 J-1.2798
G1 X39.3483 Y-2.7139
G1 X39.4023 Y-2.5152
G1 X39.4422 Y-2.378
G3 X39.4427 Y-2.3764 I-1.3058 J0.38
G2 X39.5624 Y-2.0054 I6.1882 J-1.7927
G3 X39.5729 Y-1.9749 I-1.281 J0.4567
G2 X39.6051 Y-1.8843 I2.0261 J-0.6687
G3 X39.6135 Y-1.8615 I-1.271 J0.484
G2 X40.0834 Y-0.7966 I7.8822 J-2.8415
G3 X40.0838 Y-0.7957 I-1.2031 J0.6341
G2 X40.6553 Y0.1131 I6.1745 J-3.2485
G3 X40.661 Y0.1207 I-1.0922 J0.8104
G2 X40.9488 Y0.4823 I4.554 J-3.33
G3 X40.9047 Y0.3959 I6.546 J-3.391
G3 X40.3428 Y-0.9628 I8.5915 J-4.3489
G3 X40.2028 Y-1.4193 I10.8946 J-3.5914
G3 X40.2016 Y-1.4234 I1.3082 J-0.3717
G3 X39.9535 Y-2.4717 I12.5818 J-3.5312
G3 X39.9533 Y-2.4729 I1.3352 J-0.2584
G3 X39.7924 Y-3.5343 I13.2206 J-2.5467
G3 X39.7917 Y-3.5407 I1.3517 J-0.15
G1 X39.7748 Y-3.7004
G3 X39.7743 Y-3.7045 I1.3524 J-0.1437
G3 X39.7573 Y-3.8956 I6.9037 J-0.7121
G3 X39.7435 Y-4.1054 I5.7073 J-0.482
G3 X39.7434 Y-4.1071 I1.3585 J-0.0646
G1 X39.7357 Y-4.2733
G3 X39.7355 Y-4.2778 I1.3585 J-0.0629
G3 X39.7279 Y-4.6859 I8.3247 J-0.3578
G3 X39.7584 Y-5.2854 I6.0994 J0.0092
G3 X39.7598 Y-5.2987 I1.3532 J0.1357
G3 X39.9295 Y-6.0518 I3.4387 J0.379
G3 X40.2222 Y-6.6522 I2.604 J0.8982
G3 X40.7192 Y-7.2046 I1.9637 J1.267
G2 X40.6416 Y-7.2057 I-0.075 J2.4171
G3 X40.6377 I-0.0014 J-1.36
G2 X40.2693 Y-7.1753 I-0.0041 J2.1984
G2 X40.0018 Y-7.098 I0.2095 J1.2258
G2 X39.5935 Y-6.7989 I0.4779 J1.0806
G2 X39.425 Y-6.5646 I1.1741 J1.0221
G2 X39.2723 Y-6.2497 I2.1084 J1.2169
G3 X39.2605 Y-6.221 I-1.2632 J-0.5039
G2 X39.2448 Y-6.1794 I0.4939 J0.2102
G3 X39.2398 Y-6.1648 I-1.2912 J-0.4271
G1 X39.2137 Y-6.0888
G1 X39.1896 Y-6.0121
G1 Y-6.012
G1 Y-6.0121
G2 X39.1682 Y-5.9318 I0.9175 J0.2883
G3 X39.1654 Y-5.9197 I-1.3278 J-0.2942
G2 X39.1271 Y-5.746 I8.8088 J2.0359
G3 X38.9529 Y-5.3107 I-1.3308 J-0.2801
G1 F1.0 X38.6807 Y-5.4791
G3 F4.0 X38.4742 Y-5.2374 I-0.8845 J-0.5471
G3 X38.6184 Y-4.9355 I-2.566 J1.4114
G3 X38.7433 Y-4.5121 I-1.9725 J0.8121
G3 X38.7486 Y-4.4809 I-1.0226 J0.1895
G3 X38.7817 Y-4.0995 I-2.859 J0.4402
G1 X38.7844 Y-4.0438
G2 X38.8189 Y-3.7555 I3.4482 J-0.2673
G3 X38.8225 Y-3.7319 I-1.0265 J0.1671
G2 X38.8782 Y-3.3705 I12.5086 J-1.7422
G3 X38.8794 Y-3.3634 I-1.0255 J0.1732
G2 X38.9262 Y-3.115 I4.8422 J-0.7837
G3 X38.9289 Y-3.1018 I-1.0167 J0.2188
G2 X38.9859 Y-2.8452 I6.6575 J-1.3431
G1 X39.0386 Y-2.6333
G1 X39.0942 Y-2.4285
G1 X39.135 Y-2.2886
G3 X39.1353 Y-2.2874 I-0.9986 J0.2906
G2 X39.261 Y-1.8979 I6.4956 J-1.8817
G3 X39.269 Y-1.8746 I-0.9796 J0.3493
G2 X39.3061 Y-1.7704 I2.33 J-0.769
G3 X39.3125 Y-1.753 I-0.9719 J0.3701
G2 X39.8003 Y-0.6474 I8.1832 J-2.95
G3 X39.8006 Y-0.6468 I-0.92 J0.4849
G2 X40.3983 Y0.3038 I6.4577 J-3.3975
G3 X40.4026 Y0.3096 I-0.8352 J0.6197
G2 X41.0994 Y1.1038 I4.8123 J-3.5189
G2 X41.4668 Y1.417 I3.1943 J-3.3753
G2 X41.8476 Y1.6698 I2.1805 J-2.8709
G2 X42.3528 Y1.9012 I1.6058 J-2.8391
G3 X42.197 Y1.7373 I2.8616 J-2.8756
G3 X41.7705 Y1.2104 I4.4658 J-4.0508
G3 X41.6334 Y1.0127 I3.1464 J-2.328
G3 X41.1905 Y0.2519 I5.8614 J-3.9213
G3 X40.6469 Y-1.0625 I8.3057 J-4.2049
G3 X40.5106 Y-1.5067 I10.5905 J-3.4916
G3 X40.5097 Y-1.5099 I1.0004 J-0.2842
G3 X40.2677 Y-2.5325 I12.2737 J-3.4447
G3 X40.2675 Y-2.5334 I1.0211 J-0.1976
G3 X40.1105 Y-3.5696 I12.9064 J-2.4862
G3 X40.11 Y-3.5745 I1.0337 J-0.1147
G1 X40.093 Y-3.7342
G3 X40.0927 Y-3.7373 I1.0342 J-0.1099
G3 X40.0763 Y-3.9211 I6.5854 J-0.6793
G3 X40.0631 Y-4.1206 I5.3883 J-0.4565
G3 X40.063 Y-4.1219 I1.0388 J-0.0494
G1 X40.0553 Y-4.2881
G3 X40.0552 Y-4.2916 I1.0389 J-0.0481
G3 X40.0479 Y-4.6847 I8.005 J-0.3441
G3 X40.0768 Y-5.2534 I5.7794 J0.008
G3 X40.0778 Y-5.2636 I1.0348 J0.1038
G3 X40.2319 Y-5.9473 I3.1206 J0.344
G3 X40.4909 Y-6.4784 I2.3015 J0.7937
G3 X40.9671 Y-6.9923 I1.695 J1.0932
G3 X40.9893 Y-7.0087 I0.6285 J0.8286
G3 X41.629 Y-7.3112 I1.1487 J1.6013
G3 X41.6747 Y-7.323 I0.5904 J2.2003
G2 X41.5438 Y-7.3737 I-1.0613 J2.5413
G2 X40.6413 Y-7.5257 I-0.8997 J2.5863
G3 X40.6383 I-0.0011 J-1.04
G2 X40.2159 Y-7.4908 I-0.0047 J2.5184
G2 X39.8758 Y-7.3921 I0.263 J1.5413
G2 X39.3528 Y-7.0098 I0.604 J1.3748
G2 X39.1484 Y-6.7255 I1.4148 J1.233
G2 X38.9751 Y-6.3683 I2.385 J1.3779
G3 X38.9661 Y-6.3464 I-0.966 J-0.3854
G2 X38.941 Y-6.2799 I0.7883 J0.3355
G3 X38.9372 Y-6.2687 I-0.9874 J-0.3266
G1 X38.9097 Y-6.1887
G1 X38.8844 Y-6.108
G2 X38.8557 Y-6.001 I1.2227 J0.3843
G3 X38.8537 Y-5.9918 I-1.0154 J-0.225
G2 X38.8139 Y-5.8119 I9.1205 J2.1079
G3 X38.6807 Y-5.4791 I-1.0177 J-0.2142
G1 F1.0 X38.4086 Y-5.6474
G3 F4.0 X38.036 Y-5.3472 I-0.6123 J-0.3787
G3 X38.1871 Y-5.0952 I-3.6809 J2.3786
G3 X38.3224 Y-4.814 I-2.279 J1.2692
G3 X38.4287 Y-4.4538 I-1.6765 J0.6905
G3 X38.4323 Y-4.4322 I-0.708 J0.1312
G3 X38.4618 Y-4.0887 I-2.5428 J0.3915
G1 X38.465 Y-4.0238
G2 X38.5031 Y-3.7041 I3.7676 J-0.2872
G3 X38.5056 Y-3.6877 I-0.7106 J0.1157
G2 X38.5627 Y-3.3172 I12.8255 J-1.7864
G3 X38.5635 Y-3.3123 I-0.7099 J0.1199
G2 X38.6133 Y-3.0477 I5.1581 J-0.8349
G3 X38.6152 Y-3.0385 I-0.7039 J0.1515
G2 X38.6751 Y-2.7689 I6.9711 J-1.4064
G1 X38.7289 Y-2.5527
G1 X38.7862 Y-2.3419
G1 X38.8277 Y-2.1992
G3 X38.8279 Y-2.1984 I-0.6913 J0.2012
G2 X38.9596 Y-1.7904 I6.8029 J-1.9708
G3 X38.9652 Y-1.7743 I-0.6782 J0.2418
G2 X39.007 Y-1.6565 I2.6339 J-0.8693
G3 X39.0115 Y-1.6444 I-0.6729 J0.2562
G2 X39.5172 Y-0.4982 I8.4842 J-3.0586
G3 X39.5174 Y-0.4978 I-0.637 J0.3357
G2 X40.1414 Y0.4945 I6.7409 J-3.5465
G3 X40.1443 Y0.4985 I-0.5782 J0.429
G2 X40.8789 Y1.3358 I5.0706 J-3.7078
G2 X41.2727 Y1.6714 I3.4147 J-3.6073
G2 X41.6889 Y1.9478 I2.3746 J-3.1253
G2 X42.5772 Y2.3037 I1.7645 J-3.117
G2 X43.5933 Y2.4254 I1.0017 J-4.0608
G3 X43.6006 I0.0025 J0.72
G2 X43.9196 Y2.4136 I0.0243 J-3.6697
G3 X43.9211 Y2.4135 I0.0578 J0.7177
G2 X43.9233 Y2.4134 I-0.2264 J-2.8876
G3 X43.594 Y2.3278 I0.352 J-2.0322
G3 X42.9678 Y2.0062 I0.7914 J-2.3115
G3 X42.9641 Y2.0036 I0.4178 J-0.5864
G3 X42.6793 Y1.7711 I1.8119 J-2.5099
G3 X42.6784 Y1.7702 I0.4877 J-0.5297
G3 X42.4345 Y1.5228 I2.536 J-2.7446
G3 X42.0289 Y1.0217 I4.2283 J-3.8364
G3 X41.9006 Y0.8366 I2.888 J-2.1393
G3 X41.4763 Y0.1079 I5.5942 J-3.7453
G3 X40.9509 Y-1.1623 I8.0199 J-4.0609
G3 X40.8184 Y-1.5942 I10.2865 J-3.3918
G3 X40.8178 Y-1.5964 I0.6926 J-0.1968
G3 X40.5819 Y-2.5933 I11.9656 J-3.3583
G3 X40.5818 Y-2.5939 I0.7069 J-0.1368
G3 X40.4285 Y-3.6049 I12.5921 J-2.4257
G3 X40.4282 Y-3.6083 I0.7156 J-0.0794
G1 X40.4112 Y-3.768
G3 X40.411 Y-3.7702 I0.716 J-0.0761
G3 X40.3953 Y-3.9466 I6.2671 J-0.6465
G3 X40.3827 Y-4.1358 I5.0693 J-0.431
G3 Y-4.1367 I0.7192 J-0.0342
G1 X40.375 Y-4.3029
G3 X40.3749 Y-4.3053 I0.7192 J-0.0333
G3 X40.3679 Y-4.6835 I7.6853 J-0.3303
G3 X40.3952 Y-5.2215 I5.4594 J0.0068
G3 X40.3959 Y-5.2285 I0.7164 J0.0718
G3 X40.5343 Y-5.8428 I2.8025 J0.3089
G3 X40.7596 Y-6.3047 I1.9991 J0.6892
G3 X41.1605 Y-6.7373 I1.4263 J0.9194
G3 X41.1759 Y-6.7487 I0.4351 J0.5737
G3 X41.7117 Y-7.0021 I0.9622 J1.3413
G3 X42.2361 Y-7.0689 I0.5076 J1.8912
G3 X42.2426 I-0.0062 J0.72
G3 X42.7442 Y-6.9976 I-0.0361 J2.0549
G2 X42.5558 Y-7.1642 I-2.8855 J3.0732
G2 X41.6505 Y-7.6754 I-1.9424 J2.3826
G2 X40.641 Y-7.8457 I-1.0063 J2.888
G3 X40.6389 I-0.0007 J-0.72
G2 X40.1624 Y-7.8064 I-0.0053 J2.8384
G2 X39.7497 Y-7.6863 I0.3164 J1.8568
G2 X39.1121 Y-7.2206 I0.7301 J1.6689
G2 X38.8718 Y-6.8864 I1.6555 J1.4438
G2 X38.6779 Y-6.4868 I2.6616 J1.5388
G3 X38.6716 Y-6.4717 I-0.6687 J-0.2668
G2 X38.6372 Y-6.3804 I1.0827 J0.4608
G3 X38.6346 Y-6.3727 I-0.6836 J-0.2261
G1 X38.6057 Y-6.2887
G1 X38.5791 Y-6.204
G2 X38.5433 Y-6.0702 I1.528 J0.4803
G3 X38.5419 Y-6.0638 I-0.703 J-0.1558
G2 X38.5008 Y-5.8778 I9.4323 J2.18
G3 X38.4086 Y-5.6474 I-0.7046 J-0.1483
G0 Z90.0
G0 X45.4255 Y-5.7578
G1 F1.0 Z0.0
G3 F4.0 X45.5172 Y-5.5284 I-3.6304 J1.5834
G3 X45.5542 Y-5.4287 I-8.5589 J3.2312
G3 X45.5583 Y-5.5489 I1.68 J-0.0022
G1 X45.5623 Y-5.606
G3 X45.5634 Y-5.6207 I1.6758 J0.118
G1 X45.5668 Y-5.6634
G3 X45.596 Y-5.9218 I2.7345 J0.1784
G1 X45.599 Y-5.9411
G3 X45.8362 Y-6.6928 I2.4734 J0.3674
G3 X45.8561 Y-6.7313 I1.5024 J0.7518
G2 X45.8132 Y-6.6841 I0.8542 J0.8207
G2 X45.7429 Y-6.577 I0.3963 J0.3366
G2 X45.6577 Y-6.3194 I1.8527 J0.7558
G3 X45.6402 Y-6.2565 I-1.6271 J-0.4183
G2 X45.6391 Y-6.2525 I0.0894 J0.0267
G3 X45.4255 Y-5.7578 I-1.6292 J-0.4099
G1 F1.0 X45.1559 Y-5.9301
G3 F4.0 X45.056 Y-5.7934 I-1.146 J-0.7324
G3 X45.0567 Y-5.792 I-3.138 J1.5264
G3 X45.2171 Y-5.4172 I-3.2616 J1.6176
G3 X45.3206 Y-5.1282 I-8.2588 J3.12
G3 X45.362 Y-4.9781 I-1.2882 J0.4361
G1 X46.5702 Y0.6389
G1 X46.7821 Y1.598
G3 X46.7845 Y1.609 I-1.328 J0.2934
G1 X47.7052 Y5.9454
G1 X48.234 Y6.017
G1 X46.0108 Y-4.4473
G1 X45.9887 Y-4.5326
G3 X45.9885 Y-4.5334 I1.3166 J-0.3407
G3 X45.946 Y-4.718 I3.487 J-0.8998
G3 X45.9448 Y-4.7242 I1.3329 J-0.2701
G3 X45.8925 Y-5.0729 I3.7263 J-0.7372
G3 X45.8919 Y-5.0782 I1.3529 J-0.1391
G3 X45.8798 Y-5.2513 I3.0266 J-0.2993
G3 X45.8742 Y-5.4272 I2.9897 J-0.1841
G3 X45.8775 Y-5.5264 I1.36 J-0.0037
G1 X45.8815 Y-5.5835
G3 X45.8824 Y-5.5954 I1.3566 J0.0955
G1 X45.886 Y-5.6404
G3 X45.9121 Y-5.872 I2.4153 J0.1554
G1 X45.9154 Y-5.8933
G3 X46.1224 Y-6.5496 I2.157 J0.3196
G3 X46.1447 Y-6.5922 I1.2162 J0.6086
G3 X46.6313 Y-7.1898 I1.8488 J1.0084
G2 X46.419 Y-7.2057 I-0.2241 J1.568
G1 X46.2832 Y-7.2046
G2 X46.235 Y-7.2023 I0.0082 J0.6892
G3 X46.2043 Y-7.2002 I-0.1112 J-1.3554
G2 X46.0287 Y-7.1827 I0.1302 J2.1977
G2 X45.8953 Y-7.1609 I0.862 J5.7074
G2 X45.8758 Y-7.156 I0.0371 J0.1893
G3 X45.8685 Y-7.1538 I-0.3993 J-1.3001
G2 X45.8085 Y-7.1241 I0.3722 J0.8269
G1 X45.7928 Y-7.1102
G1 X45.6852 Y-7.0118
G2 X45.5701 Y-6.8922 I1.0251 J1.1013
G2 X45.4505 Y-6.7073 I0.6394 J0.5448
G2 X45.3478 Y-6.3991 I2.1451 J0.8861
G3 X45.3336 Y-6.3482 I-1.3172 J-0.3386
G2 X45.3288 Y-6.3306 I0.396 J0.1184
G3 X45.1559 Y-5.9301 I-1.3189 J-0.3319
G1 F1.0 X44.8862 Y-6.1024
G3 F4.0 X44.6624 Y-5.8527 I-0.8763 J-0.56
G3 X44.7694 Y-5.651 I-2.7444 J1.5856
G3 X44.917 Y-5.3061 I-2.9743 J1.4766
G3 X45.0175 Y-5.0256 I-7.9587 J3.0089
G3 X45.0491 Y-4.9108 I-0.9851 J0.3335
G1 X46.2576 Y0.7071
G1 X46.4697 Y1.667
G3 X46.4715 Y1.6755 I-1.0155 J0.2244
G1 X47.4389 Y6.2323
G1 X48.6415 Y6.395
G1 X46.3224 Y-4.5207
G1 X46.2985 Y-4.6127
G3 X46.2984 Y-4.6134 I1.0068 J-0.2605
G3 X46.2597 Y-4.7816 I3.1772 J-0.8199
G3 X46.2587 Y-4.7863 I1.0193 J-0.2066
G3 X46.2108 Y-5.1057 I3.4124 J-0.6751
G3 X46.2104 Y-5.1097 I1.0345 J-0.1064
G3 X46.1994 Y-5.2678 I2.7081 J-0.2678
G3 X46.1942 Y-5.428 I2.6701 J-0.1676
G3 X46.1967 Y-5.5039 I1.04 J-0.0028
G1 X46.2007 Y-5.561
G3 X46.2014 Y-5.5702 I1.0374 J0.0731
G1 X46.2052 Y-5.6176
G3 X46.2282 Y-5.822 I2.0961 J0.1326
G1 X46.2318 Y-5.8456
G3 X46.4086 Y-6.4064 I1.8406 J0.2718
G3 X46.4256 Y-6.4389 I0.93 J0.4654
G3 X47.1761 Y-7.1716 I1.5678 J0.8551
G3 X47.1793 Y-7.1733 I0.476 J0.9247
G3 X47.337 Y-7.2449 I0.8578 J1.6808
G2 X47.14 Y-7.3623 I-0.7979 J1.1142
G3 X47.1321 Y-7.3662 I0.4561 J-0.9347
G2 X46.8062 Y-7.4834 I-0.6609 J1.3256
G2 X46.4188 Y-7.5257 I-0.3991 J1.8617
G1 X46.2801 Y-7.5246
G2 X46.2089 Y-7.5213 I0.0113 J1.0092
G3 X46.1854 Y-7.5196 I-0.085 J-1.0365
G2 X45.9826 Y-7.4993 I0.1491 J2.5171
G2 X45.8376 Y-7.4757 I0.9081 J6.0241
G2 X45.7819 Y-7.4619 I0.0948 J0.504
G3 X45.7618 Y-7.456 I-0.3053 J-0.9942
G2 X45.758 Y-7.4548 I0.0163 J0.0571
G2 X45.622 Y-7.3863 I0.4827 J1.1278
G1 X45.5789 Y-7.3483
G1 X45.4682 Y-7.2471
G2 X45.3271 Y-7.1004 I1.2421 J1.3365
G2 X45.1577 Y-6.8367 I0.8824 J0.753
G2 X45.0379 Y-6.4788 I2.4378 J1.0155
G3 X45.027 Y-6.4398 I-1.0072 J-0.2589
G2 X45.0185 Y-6.4087 I0.7026 J0.2101
G3 X44.8862 Y-6.1024 I-1.0086 J-0.2538
G1 F1.0 X44.6166 Y-6.2748
G3 F4.0 X44.2034 Y-5.969 I-0.6067 J-0.3877
G3 X44.4822 Y-5.51 I-2.2855 J1.702
G3 X44.6169 Y-5.195 I-2.6871 J1.3356
G3 X44.7144 Y-4.923 I-7.6586 J2.8978
G3 X44.7363 Y-4.8435 I-0.682 J0.2309
G1 X45.9449 Y0.7753
G1 X46.1572 Y1.7361
G3 X46.1585 Y1.7419 I-0.703 J0.1554
G1 X47.1727 Y6.5192
G1 X49.0489 Y6.7731
G1 X46.6339 Y-4.594
G1 X46.6083 Y-4.6929
G3 X46.6082 Y-4.6934 I0.697 J-0.1804
G3 X46.5733 Y-4.8451 I2.8673 J-0.7399
G3 X46.5726 Y-4.8484 I0.7057 J-0.143
G3 X46.5291 Y-5.1384 I3.0985 J-0.613
G3 X46.5288 Y-5.1412 I0.7162 J-0.0736
G3 X46.519 Y-5.2842 I2.3897 J-0.2363
G3 X46.5142 Y-5.4289 I2.3505 J-0.1511
G3 X46.5159 Y-5.4815 I0.72 J-0.002
G1 X46.52 Y-5.5385
G3 X46.5204 Y-5.5449 I0.7182 J0.0506
G1 X46.5244 Y-5.5949
G3 X46.5443 Y-5.772 I1.7769 J0.1099
G1 X46.5483 Y-5.7979
G3 X46.6947 Y-6.2632 I1.5241 J0.2242
G3 X46.7065 Y-6.2857 I0.6439 J0.3222
G3 X47.3225 Y-6.8871 I1.2869 J0.7019
G3 X47.3248 Y-6.8883 I0.3295 J0.6402
G3 X47.7962 Y-7.0409 I0.7124 J1.3958
G3 X47.9453 Y-7.0594 I0.3622 J2.3178
G2 X47.9191 Y-7.1011 I-1.2354 J0.7468
G2 X47.6426 Y-7.4113 I-1.2307 J0.8189
G3 X47.6389 Y-7.4144 I0.4648 J-0.5499
G2 X47.2804 Y-7.6499 I-1.0998 J1.2837
G3 X47.2749 Y-7.6526 I0.3158 J-0.6471
G2 X46.8759 Y-7.7958 I-0.8036 J1.612
G2 X46.4183 Y-7.8457 I-0.4688 J2.174
G1 X46.277 Y-7.8446
G2 X46.1827 Y-7.8402 I0.0144 J1.3292
G3 X46.1664 Y-7.839 I-0.0589 J-0.7176
G2 X45.9364 Y-7.816 I0.168 J2.8366
G2 X45.7806 Y-7.7906 I0.9543 J6.3407
G2 X45.6879 Y-7.7678 I0.1519 J0.8189
G3 X45.6741 Y-7.7637 I-0.2114 J-0.6883
G2 X45.6373 Y-7.7512 I0.1041 J0.3649
G2 X45.4324 Y-7.6457 I0.6034 J1.4242
G1 X45.3651 Y-7.5864
G1 X45.2514 Y-7.4824
G2 X45.0841 Y-7.3086 I1.4589 J1.5718
G2 X44.8648 Y-6.9656 I1.1254 J0.9612
G2 X44.7279 Y-6.5584 I2.7308 J1.1443
G3 X44.7204 Y-6.5315 I-0.6973 J-0.1793
G2 X44.7081 Y-6.4868 I1.0092 J0.3017
G3 X44.6166 Y-6.2748 I-0.6982 J-0.1757
G0 Z90.0
G0 X10.4284 Y-6.6654
G1 F1.0 Z0.0
G1 F4.0 X10.3963 Y-6.7514
G1 X9.9015
G1 X9.8786 Y-5.7557
G3 X10.4284 Y-6.6654 I1.6389 J0.3695
G1 F1.0 X10.7282 Y-6.7774
G1 F4.0 X10.6184 Y-7.0714
G1 X9.5888
G1 X9.3507 Y3.2661
G3 X8.4241 Y4.524 I-1.3596 J-0.0313
G1 X9.3759 Y7.2936
G1 X9.9753
G1 X10.1576 Y-5.4057
G3 X10.8133 Y-6.5497 I1.3599 J0.0195
G1 X10.7282 Y-6.7774
G1 F1.0 X11.028 Y-6.8893
G1 F4.0 X10.8404 Y-7.3914
G1 X9.2761
G1 X9.0308 Y3.2587
G3 X8.0001 Y4.2747 I-1.0397 J-0.0239
G1 X9.1475 Y7.6136
G1 X10.2908
G1 X10.4776 Y-5.4011
G3 X11.2175 Y-6.382 I1.0399 J0.0149
G1 X11.028 Y-6.8893
G1 F1.0 X11.3277 Y-7.0013
G1 F4.0 X11.0625 Y-7.7114
G1 X8.9634
G1 X8.7109 Y3.2514
G3 X7.4779 Y3.7397 I-0.7198 J-0.0166
G1 X8.9191 Y7.9336
G1 X10.6062
G1 X10.7975 Y-5.3965
G3 X11.668 Y-6.0903 I0.7199 J0.0103
G1 X11.3277 Y-7.0013
G0 Z90.0
G0 X2.4996 Y-6.6724
G1 F1.0 Z0.0
G1 F4.0 X2.4701 Y-6.7514
G1 X1.9746
G1 X1.9521 Y-5.8002
G3 X2.4996 Y-6.6724 I1.6282 J0.4141
G1 F1.0 X2.7994 Y-6.7844
G1 F4.0 X2.6922 Y-7.0714
G1 X1.662
G1 X1.3239 Y7.2639
G3 X1.3217 Y7.3165 I-1.3596 J-0.0321
G2 X2.0375 Y7.393 I1.1524 J-7.3977
G1 X2.2204 Y-5.4056
G3 X2.885 Y-6.555 I1.3599 J0.0194
G1 X2.7994 Y-6.7844
G1 F1.0 X3.0992 Y-6.8963
G1 F4.0 X2.9144 Y-7.3914
G1 X1.3495
G1 X1.004 Y7.2563
G3 X0.9461 Y7.5748 I-1.0397 J-0.0245
G2 X2.3528 Y7.7248 I1.5279 J-7.656
G1 X2.5404 Y-5.401
G3 X3.2901 Y-6.3849 I1.0399 J0.0149
G1 X3.0992 Y-6.8963
G1 F1.0 X3.399 Y-7.0082
G1 F4.0 X3.1365 Y-7.7114
G1 X1.0369
G1 X0.6841 Y7.2488
G3 X0.4263 Y7.784 I-0.7198 J-0.017
G2 X0.7375 Y7.858 I2.0006 J-7.7174
G3 X0.7387 Y7.8583 I-0.1526 J0.7036
G2 X2.4593 Y8.0457 I1.7354 J-7.9395
G2 X2.6683 Y8.0429 I-0.0846 J-14.1877
G1 X2.8604 Y-5.3965
G3 X3.7426 Y-6.0877 I0.7199 J0.0103
G1 X3.399 Y-7.0082
G1 F1.0 X3.6988 Y-7.1201
G1 F4.0 X7.6164 Y3.3747
G2 X8.391 Y3.244 I0.3747 J-0.1399
G1 X8.6507 Y-8.0314
G1 X11.2846
G1 X13.1946 Y-2.918
G2 X13.9618 Y-3.1348 I0.3747 J-0.14
G1 X13.9409 Y-3.2414
G2 X13.9407 Y-3.2425 I-0.3925 J0.0769
G3 X13.9222 Y-3.3404 I5.2172 J-1.0372
G1 X13.9044 Y-3.4424
G3 X13.8299 Y-3.9874 I11.8087 J-1.8926
G3 X13.7849 Y-4.5309 I13.355 J-1.3808
G1 X13.7848 Y-4.531
G3 X13.7731 Y-4.7942 I7.2846 J-0.4564
G2 X13.773 Y-4.797 I-0.3999 J0.0106
G3 X13.7701 Y-5.0565 I5.8554 J-0.1968
G3 X13.7776 Y-5.3072 I7.8362 J0.1103
G1 X13.786 Y-5.4315
G1 X13.7981 Y-5.559
G3 X13.8765 Y-6.0005 I2.896 J0.287
G3 X13.9052 Y-6.1041 I3.9387 J1.0351
G1 X13.9585 Y-6.272
G1 X14.0081 Y-6.4168
G3 X14.026 Y-6.4499 I1.1326 J0.589
G2 X14.0375 Y-6.4721 I-0.3493 J-0.1949
G3 X14.0581 Y-6.5111 I0.4963 J0.2378
G2 X14.0684 Y-6.53 I-0.3457 J-0.2012
G3 X14.3344 Y-6.9915 I4.7964 J2.4566
G2 X14.3353 Y-6.9929 I-0.3363 J-0.2166
G3 X14.6365 Y-7.3708 I1.948 J1.2434
G3 X15.0755 Y-7.6929 I1.4169 J1.4711
G1 X15.147 Y-7.7313
G2 X15.1504 Y-7.7331 I-0.1891 J-0.3525
G3 X15.2466 Y-7.7803 I0.5604 J1.0206
G2 X15.2543 Y-7.7837 I-0.1595 J-0.3668
G3 X15.613 Y-7.9241 I1.3894 J3.0217
G3 X16.309 Y-8.0812 I1.2151 J3.7627
G3 X17.0338 Y-8.1211 I0.6262 J4.7739
G2 X17.0363 I0.0082 J-0.3999
G3 X17.6707 Y-8.0703 I-0.0695 J4.859
G3 X18.2782 Y-7.9311 I-0.5795 J3.924
G3 X19.3883 Y-7.3621 I-1.2381 J3.7823
G2 X19.3989 Y-7.3545 I0.236 J-0.323
G3 X19.4522 Y-7.3154 I-0.5223 J0.7658
G2 X19.4591 Y-7.31 I0.2484 J-0.3136
G3 X19.9575 Y-6.8803 I-3.1313 J4.1354
G3 X20.4023 Y-6.3893 I-4.0687 J4.1332
G3 X21.236 Y-5.0723 I-5.4477 J4.3706
G3 X21.808 Y-3.4805 I-7.2529 J3.5051
G3 X21.9888 Y-2.5457 I-10.3454 J2.4865
G2 X21.989 Y-2.5447 I0.3957 J-0.0583
G3 X22.1192 Y-1.5768 I-31.902 J4.7857
G2 X22.4462 Y-1.2303 I0.3972 J-0.0473
G3 X22.6404 Y-1.1934 I-1.5004 J8.4131
G2 X22.6473 Y-1.1921 I0.0793 J-0.3921
G3 X23.2318 Y-1.0688 I-2.096 J11.3838
G1 X23.4148 Y-1.0227
G3 X23.9422 Y-0.8616 I-2.0323 J7.5955
G3 X24.1016 Y-0.8035 I-1.6588 J4.8011
G2 X24.1038 Y-0.8027 I0.1432 J-0.3735
G3 X24.5986 Y-0.6045 I-4.4799 J11.9039
G2 X25.1464 Y-1.0556 I0.1564 J-0.3681
G1 X23.6683 Y-8.0314
G1 X26.1527
G1 X27.9218 Y0.3616
G2 X28.0347 Y0.5662 I0.3914 J-0.0825
G2 X28.1902 Y0.7101 I3.1032 J-3.1981
G2 X28.3507 Y0.8524 I2.7083 J-2.8932
G2 X28.3525 Y0.8538 I0.2572 J-0.3064
G1 X28.4868 Y0.9653
G2 X28.4973 Y0.9737 I0.2554 J-0.3078
G1 X28.6353 Y1.0806
G2 X28.9267 Y1.2785 I1.7297 J-2.2329
G2 X29.2392 Y1.4292 I1.039 J-1.7559
G2 X29.2473 Y1.4322 I0.1424 J-0.3738
G2 X29.5866 Y1.5217 I0.6991 J-1.9604
G2 X29.9666 Y1.5523 I0.3369 J-1.8112
G2 X30.2014 Y1.5194 I-0.0152 J-0.9624
G2 X30.2124 Y1.5163 I-0.1039 J-0.3863
G2 X30.4682 Y1.3722 I-0.1919 J-0.6397
G2 X30.4808 Y1.3602 I-0.2681 J-0.2968
G2 X30.6323 Y1.1413 I-0.5016 J-0.509
G2 X30.6328 Y1.1401 I-0.3656 J-0.1623
G2 X30.6974 Y0.957 I-1.1702 J-0.5153
G2 X30.7198 Y0.8736 I-2.1132 J-0.6141
G2 X30.7448 Y0.7645 I-1.1484 J-0.3197
G1 X30.7616 Y0.6739
G2 X30.7625 Y0.6689 I-0.3933 J-0.0731
G1 X30.7784 Y0.5768
G2 X30.7791 Y0.5727 I-0.3942 J-0.0681
G3 X30.8106 Y0.4397 I0.934 J0.1513
G1 X30.8225 Y0.4062
G3 X30.8741 Y0.2913 I2.2687 J0.9505
G2 X30.8753 Y0.289 I-0.3605 J-0.1732
G3 X30.9465 Y0.1718 I0.5908 J0.2792
G3 X31.0087 Y0.1163 I0.1913 J0.1518
G3 X31.1558 Y0.0669 I0.2324 J0.4482
G2 X31.166 Y0.065 I-0.0676 J-0.3942
G3 X31.4489 Y0.0408 I0.2505 J1.263
G2 X31.4537 Y0.0409 I0.0101 J-0.3999
G3 X31.7107 Y0.0748 I-0.0145 J1.1009
G3 X31.9148 Y0.1621 I-0.1909 J0.7281
G3 X32.1465 Y0.3434 I-0.9886 J1.5026
G2 X32.8091 Y-0.0339 I0.2714 J-0.2938
G1 X31.8763 Y-4.4048
G3 X31.8518 Y-4.5306 I5.5914 J-1.1543
G2 X31.8497 Y-4.5415 I-0.3935 J0.0721
G3 X31.8148 Y-4.7272 I3.9481 J-0.837
G2 X31.8133 Y-4.7356 I-0.3948 J0.0645
G3 X31.781 Y-4.9268 I6.0967 J-1.1299
G1 X31.7635 Y-5.0458
G1 X31.7414 Y-5.2232
G1 X31.724 Y-5.4044
G3 X31.711 Y-5.6098 I3.9815 J-0.3547
G2 X31.7105 Y-5.6201 I-0.3997 J0.0149
G3 X31.7074 Y-5.7112 I1.5917 J-0.1005
G2 X31.707 Y-5.7273 I-0.4 J0.0024
G3 X31.7057 Y-5.8155 I1.367 J-0.0631
G2 X31.7058 Y-5.8275 I-0.3999 J-0.0073
G3 X31.7768 Y-6.621 I3.9493 J-0.0464
G3 X31.8561 Y-6.9367 I3.0784 J0.6051
G3 X31.9679 Y-7.1992 I1.4039 J0.4431
G3 X32.1156 Y-7.4175 I1.6208 J0.9368
G1 X32.1619 Y-7.4756
G1 X32.2929 Y-7.6304
G3 X32.3145 Y-7.6474 I0.829 J1.0354
G2 X32.3223 Y-7.6535 I-0.2435 J-0.3174
G3 X32.5216 Y-7.8072 I3.5292 J4.3697
G2 X32.5258 Y-7.8104 I-0.2371 J-0.3221
G3 X32.7064 Y-7.9289 I0.9741 J1.2873
G2 X32.7094 Y-7.9306 I-0.1966 J-0.3483
G3 X33.1439 Y-8.1046 I0.8264 J1.4344
G3 X33.6403 Y-8.1658 I0.5315 J2.267
G2 X33.6437 I-0.006 J-0.4
G3 X35.1429 Y-7.9091 I0.094 J3.9556
G2 X35.1451 Y-7.9082 I0.142 J-0.3739
G3 X36.4003 Y-7.1424 I-1.3543 J3.6309
G3 X36.9543 Y-6.5231 I-3.3054 J3.5149
G2 X36.9556 Y-6.5213 I0.32 J-0.2401
G3 X37.2118 Y-6.1701 I-9.1953 J6.9764
G1 X37.4666 Y-5.7995
G2 X38.1877 Y-5.9437 I0.3296 J-0.2266
G3 X38.2301 Y-6.1359 I9.7865 J2.0599
G2 X38.2309 Y-6.1394 I-0.3897 J-0.0901
G3 X38.2738 Y-6.2999 I1.8762 J0.4157
G1 X38.3017 Y-6.3887
G1 X38.3319 Y-6.4766
G2 X38.3334 Y-6.4809 I-0.3783 J-0.1299
G3 X38.3772 Y-6.597 I1.421 J0.4701
G2 X38.3806 Y-6.6054 I-0.3681 J-0.1566
G3 X38.5952 Y-7.0473 I3.1527 J1.2578
G3 X38.8714 Y-7.4315 I2.1724 J1.2705
G3 X39.6236 Y-7.9804 I1.6083 J1.4141
G3 X40.109 Y-8.1219 I0.8552 J2.0308
G3 X40.6395 Y-8.1657 I0.5246 J3.1146
G2 X40.6406 I0.0007 J-0.4
G3 X41.7571 Y-7.9771 I0.0035 J3.3783
G3 X42.7592 Y-7.4112 I-1.1438 J3.1955
G3 X43.0046 Y-7.1916 I-2.9006 J3.4867
G3 X43.1839 Y-7.0083 I-7.9591 J7.9714
G1 X43.2484 Y-6.9384
G1 X43.3623 Y-6.8104
G1 X43.5323 Y-6.6112
G1 X43.7023 Y-6.4068
G2 X44.3978 Y-6.5649 I0.3076 J-0.2557
G3 X44.4138 Y-6.6231 I1.3318 J0.3351
G2 X44.418 Y-6.6381 I-0.3832 J-0.1146
G3 X44.5717 Y-7.0942 I3.1776 J0.8169
G3 X44.8411 Y-7.5169 I1.6378 J0.7467
G3 X45.0346 Y-7.7178 I1.8692 J1.6063
G1 X45.1513 Y-7.8245
G1 X45.2432 Y-7.9055
G3 X45.244 Y-7.906 I0.2656 J0.4759
G2 X45.2598 Y-7.9153 I-0.1944 J-0.3496
G3 X45.5152 Y-8.047 I0.9809 J1.5883
G3 X45.5863 Y-8.0715 I0.2629 J0.6481
G2 X45.594 Y-8.0737 I-0.1097 J-0.3847
G3 X45.7238 Y-8.1055 I0.3385 J1.1021
G3 X45.8901 Y-8.1326 I1.1669 J6.6302
G3 X46.1475 Y-8.1585 I0.4443 J3.1302
G2 X46.1566 Y-8.1591 I-0.0237 J-0.3993
G3 X46.274 Y-8.1646 I0.1348 J1.6437
G1 X46.4178 Y-8.1657
G3 X46.9456 Y-8.1081 I-0.0106 J2.544
G3 X47.4177 Y-7.939 I-0.4744 J2.0675
G2 X47.4207 Y-7.9375 I0.1785 J-0.358
G3 X47.8471 Y-7.6574 I-0.8817 J1.8068
G2 X47.8491 Y-7.6557 I0.2603 J-0.3038
G3 X48.1863 Y-7.2772 I-1.1608 J1.3735
G3 X48.4046 Y-6.8006 I-1.4763 J0.9646
G2 X48.4048 Y-6.7998 I0.3844 J-0.1107
G3 X48.4226 Y-6.7352 I-2.1525 J0.6247
G2 X48.3262 Y-6.7436 I-0.2983 J2.8463
G2 X48.3121 Y-6.7444 I-0.0282 J0.399
G1 X48.1886 Y-6.7487
G2 X48.1785 Y-6.749 I-0.0141 J0.3998
G2 X47.8455 Y-6.7247 I-0.0201 J2.0259
G2 X47.4702 Y-6.6033 I0.1916 J1.2323
G2 X47.469 Y-6.6026 I0.1818 J0.3563
G2 X46.9875 Y-6.1325 I0.5245 J1.0188
G2 X46.9809 Y-6.12 I0.3512 J0.1915
G2 X46.8647 Y-5.7504 I1.0915 J0.5462
G1 X46.8603 Y-5.7218
G2 X46.8436 Y-5.5726 I1.441 J0.2368
G1 X46.8394 Y-5.5196
G2 X46.8392 Y-5.5161 I0.3987 J0.0316
G1 X46.8351 Y-5.459
G2 X46.8342 Y-5.4298 I0.399 J0.0281
G2 X46.8386 Y-5.3007 I2.0354 J-0.0056
G2 X46.8473 Y-5.1727 I2.0799 J-0.0768
G2 X46.8474 Y-5.1711 I0.3981 J-0.0394
G2 X46.8865 Y-4.9105 I2.8236 J-0.2903
G2 X46.8869 Y-4.9087 I0.3924 J-0.0776
G2 X46.9181 Y-4.7733 I2.5886 J-0.5246
G2 Y-4.7731 I0.3873 J-0.0999
G1 X46.9455 Y-4.6674
G1 X49.4564 Y7.1512
G1 X46.9065 Y6.806
G1 X45.8455 Y1.8084
G2 X45.8448 Y1.8051 I-0.3913 J0.0831
G1 X45.6323 Y0.8434
G1 X44.4234 Y-4.7762
G2 X44.4113 Y-4.8204 I-0.3911 J0.0841
G2 X44.3168 Y-5.084 I-7.453 J2.5231
G2 X44.1949 Y-5.369 I-2.5217 J0.9096
G2 X43.8863 Y-5.8558 I-2.2769 J1.102
G2 X43.4978 Y-6.2423 I-1.9039 J1.5256
G2 X43.0873 Y-6.5141 I-1.7314 J2.1691
G2 X42.6694 Y-6.6862 I-1.0158 J1.8724
G2 X42.6622 Y-6.6883 I-0.1123 J0.3839
G2 X42.237 Y-6.7489 I-0.4557 J1.6744
G2 X42.2334 Y-6.749 I-0.007 J0.3999
G2 X41.7945 Y-6.693 I-0.0141 J1.638
G2 X41.3624 Y-6.4886 I0.3435 J1.2856
G2 X41.3538 Y-6.4823 I0.2332 J0.325
G2 X41.0283 Y-6.1309 I0.8321 J1.0971
G2 X40.8368 Y-5.7382 I1.5051 J0.9773
G2 X40.714 Y-5.1935 I2.3617 J0.8186
G2 X40.7136 Y-5.1896 I0.3976 J0.0438
G2 X40.6879 Y-4.6823 I5.1137 J0.5128
G2 X40.6946 Y-4.3191 I7.3723 J0.0467
G2 Y-4.3177 I0.3996 J-0.0172
G1 X40.7023 Y-4.1515
G2 X40.7024 Y-4.151 I0.3996 J-0.0185
G2 X40.7143 Y-3.9721 I4.7622 J-0.2266
G2 X40.7293 Y-3.803 I5.9638 J-0.4445
G2 X40.7294 Y-3.8018 I0.3979 J-0.041
G1 X40.7464 Y-3.6421
G2 X40.7466 Y-3.6402 I0.3978 J-0.0423
G2 X40.896 Y-2.6545 I12.4273 J-1.3794
G2 Y-2.6541 I0.3928 J-0.0757
G2 X41.1259 Y-1.6828 I11.8873 J-2.3005
G2 X41.1263 Y-1.6816 I0.3851 J-0.1081
G2 X41.255 Y-1.2621 I10.1112 J-2.8725
G2 X41.7621 Y-0.0361 I8.2413 J-2.6909
G2 X42.1679 Y0.6606 I5.7327 J-2.8726
G2 X42.2874 Y0.8329 I2.749 J-1.7783
G2 X42.672 Y1.3084 I4.3754 J-3.1465
G2 X42.8955 Y1.5351 I2.5424 J-2.2828
G2 X42.8961 Y1.5356 I0.2715 J-0.2938
G2 X43.1514 Y1.7441 I1.8799 J-2.042
G2 X43.1534 Y1.7456 I0.2341 J-0.3243
G2 X43.6987 Y2.0254 I1.232 J-1.7292
G2 X44.3087 Y2.1233 I0.5766 J-1.6443
G2 X44.3124 Y2.1232 I-0.0077 J-0.3999
G1 X44.3621 Y2.1218
G2 X44.3913 Y2.1219 I0.0176 J-0.6006
G2 X44.437 Y2.1431 I0.3525 J-0.7002
G2 X44.4438 Y2.146 I0.1566 J-0.3681
G2 X44.6455 Y2.2191 I1.1239 J-2.7848
G2 X44.6523 Y2.2212 I0.1228 J-0.3807
G2 X44.6643 Y2.2262 I0.1599 J-0.3667
G3 X44.6708 Y2.2817 I-0.1858 J0.0497
G2 X44.6706 Y2.2942 I0.3998 J0.0119
G3 X44.6537 Y2.3953 I-0.3089 J0.0005
G3 X44.5712 Y2.5222 I-0.3353 J-0.1278
G3 X44.4227 Y2.653 I-1.3148 J-1.3435
G3 X44.2399 Y2.6958 I-0.7021 J-2.5817
G3 X43.9462 Y2.7325 I-0.5452 J-3.1699
G2 X43.9453 Y2.7326 I0.0313 J0.3988
G3 X43.5984 Y2.7454 I-0.3204 J-3.9769
G2 X43.5944 I-0.0026 J0.4
G3 X42.4998 Y2.6142 I-0.0155 J-4.5025
G3 X41.5303 Y2.2257 I0.9536 J-3.7834
G3 X41.0786 Y1.9258 I2.117 J-3.6795
G3 X40.6585 Y1.5678 I3.2151 J-4.1973
G3 X39.886 Y0.6874 I4.5565 J-4.777
G2 X39.8844 Y0.6851 I-0.3229 J0.2361
G3 X39.2342 Y-0.3488 I6.3739 J-4.7294
G2 X39.2341 Y-0.349 I-0.354 J0.1862
G3 X38.7104 Y-1.5359 I8.2616 J-4.354
G2 X38.708 Y-1.5426 I-0.3763 J0.1357
G3 X38.6613 Y-1.674 I2.8911 J-1.101
G2 X38.6582 Y-1.683 I-0.3798 J0.1254
G3 X38.5206 Y-2.1093 I6.9727 J-2.4861
G2 X38.5204 Y-2.1098 I-0.3842 J0.1113
G1 X38.4781 Y-2.2552
G1 X38.4192 Y-2.4721
G1 X38.3644 Y-2.6925
G3 X38.3016 Y-2.9753 I7.222 J-1.7524
G2 X38.3005 Y-2.9803 I-0.3921 J0.0791
G3 X38.2476 Y-3.2612 I5.421 J-1.1668
G2 X38.2471 Y-3.2639 I-0.3949 J0.0639
G3 X38.1886 Y-3.6436 I13.0839 J-2.2103
G2 X38.1873 Y-3.6527 I-0.3962 J0.0552
G3 X38.1455 Y-4.0041 I4.0453 J-0.6584
G1 X38.142 Y-4.0782
G2 X38.1161 Y-4.3835 I-2.2524 J0.0375
G2 X38.114 Y-4.3955 I-0.3953 J0.0609
G2 X38.0263 Y-4.6925 I-1.4681 J0.272
G2 X37.9074 Y-4.9398 I-2.1182 J0.8664
G2 X37.7201 Y-5.2448 I-3.5523 J1.9711
G2 X37.6133 Y-5.3966 I-2.3377 J1.5318
G1 X37.5167 Y-5.5261
G2 X37.0708 Y-6.0472 I-4.0096 J2.9797
G2 X37.0678 Y-6.0502 I-0.2853 J0.2803
G2 X36.8532 Y-6.2461 I-2.3454 J2.354
G2 X36.8522 Y-6.2469 I-0.2565 J0.3069
G2 X36.6086 Y-6.4256 I-1.6061 J1.9345
G2 X36.0896 Y-6.6674 I-1.0923 J1.6668
G2 X36.087 Y-6.6681 I-0.1151 J0.3831
G2 X35.5479 Y-6.7489 I-0.5636 J1.9228
G2 X35.2157 Y-6.7305 I-0.0706 J1.7388
G2 X34.8638 Y-6.6309 I0.1989 J1.3737
G2 X34.3773 Y-6.2255 I0.4258 J1.0057
G2 X34.3688 Y-6.2121 I0.3342 J0.2199
G2 X34.2391 Y-5.8737 I0.8851 J0.5335
G2 X34.2084 Y-5.5903 I1.6601 J0.3231
G2 X34.21 Y-5.4232 I1.5338 J0.0689
G2 X34.2194 Y-5.2737 I2.0538 J-0.0542
G2 X34.2525 Y-4.9741 I3.3167 J-0.2144
G2 X34.3066 Y-4.6753 I4.4918 J-0.6594
G1 X36.8191 Y7.1512
G1 X34.269 Y6.806
G1 X33.2349 Y1.9607
G2 X32.4767 Y1.885 I-0.3912 J0.0835
G3 X32.4515 Y1.9384 I-0.837 J-0.3629
G2 X32.444 Y1.9538 I0.356 J0.1825
G3 X32.42 Y2.0016 I-0.6841 J-0.3143
G1 X32.3793 Y2.0735
G3 X32.3422 Y2.133 I-1.6869 J-1.0113
G2 X32.3379 Y2.1398 I0.3355 J0.2178
G3 X32.3018 Y2.1936 I-0.7795 J-0.4838
G1 X32.2491 Y2.2645
G3 X32.0331 Y2.4663 I-0.7631 J-0.6006
G3 X31.7553 Y2.5871 I-0.5057 J-0.7829
G2 X31.755 Y2.5872 I0.0978 J0.3879
G3 X31.3679 Y2.6334 I-0.3717 J-1.4683
G2 X31.3628 I-0.0041 J0.4
G3 X30.9219 Y2.5903 I-0.0055 J-2.2207
G3 X30.5041 Y2.4618 I0.4522 J-2.2127
G3 X30.0932 Y2.2391 I1.1685 J-2.6474
G2 X30.081 Y2.2315 I-0.2183 J0.3352
G3 X30.0467 Y2.2093 I0.3108 J-0.5167
G2 X30.038 Y2.2034 I-0.2289 J0.328
G3 X29.6693 Y1.9435 I4.033 J-6.1145
G2 X29.6641 Y1.9397 I-0.2404 J0.3197
G3 X29.4611 Y1.7879 I5.5112 J-7.5845
G2 X29.4548 Y1.7832 I-0.2438 J0.3171
G3 X29.2641 Y1.6341 I2.5884 J-3.5074
G1 X29.0685 Y1.4722
G1 X28.8753 Y1.3072
G2 X28.2236 Y1.6916 I-0.2598 J0.3041
G1 X28.4164 Y2.6334
G1 X25.9281
G1 X25.3752 Y0.0235
G2 X25.1515 Y-0.2568 I-0.3913 J0.0829
G2 X25.0076 Y-0.3223 I-6.0277 J13.0566
G2 X24.8592 Y-0.3874 I-3.2876 J7.2908
G2 X24.8564 Y-0.3886 I-0.157 J0.3679
G1 X24.7136 Y-0.4482
G2 X24.7067 Y-0.451 I-0.1542 J0.3691
G1 X24.5569 Y-0.5103
G2 X24.5502 Y-0.5129 I-0.1472 J0.3719
G2 X24.3173 Y-0.5982 I-5.5456 J14.7765
G2 X24.3108 Y-0.6005 I-0.1346 J0.3767
G1 X24.1963 Y-0.6392
G2 X24.1894 Y-0.6415 I-0.1281 J0.3789
G1 X24.0743 Y-0.6781
G2 X23.4958 Y-0.8211 I-1.3721 J4.3075
G2 X22.9804 Y-0.8709 I-0.5553 J3.0561
G2 X22.9693 I-0.0051 J0.4
G1 X22.809 Y-0.8685
G2 X22.7302 Y-0.8655 I0.0118 J1.3695
G2 X22.6353 Y-0.8578 I0.0346 J1.0075
G2 X22.6321 Y-0.8574 I0.0514 J0.3967
G1 X22.5402 Y-0.8447
G2 X22.1947 Y-0.4484 I0.0545 J0.3963
G1 Y-0.4273
G3 X22.1811 Y0.0428 I-9.905 J-0.0518
G3 X22.1651 Y0.2623 I-12.1424 J-0.7749
G2 X22.1649 Y0.2652 I0.3987 J0.0327
G3 X22.1424 Y0.461 I-2.463 J-0.1838
G1 X22.1098 Y0.667
G1 X22.076 Y0.8536
G1 X22.0086 Y1.1047
G1 X21.9511 Y1.301
G3 X21.7466 Y1.8114 I-2.7619 J-0.8105
G1 X21.7465 Y1.8115
G3 X21.5268 Y2.1431 I-1.6302 J-0.8416
G2 X21.5248 Y2.1455 I0.3075 J0.2558
G3 X21.2475 Y2.4122 I-1.2514 J-1.0241
G3 X20.9006 Y2.6122 I-1.17 J-1.628
G1 X20.7957 Y2.6588
G1 X20.6358 Y2.7245
G1 X20.5257 Y2.7673
G3 X20.5028 Y2.7555 I0.0248 J-0.0759
G3 X20.4272 Y2.6538 I0.1612 J-0.1989
G2 X20.425 Y2.6486 I-0.3701 J0.1518
G3 X20.3814 Y2.434 I0.4999 J-0.2133
G2 Y2.4317 I-0.4 J-0.0009
G3 X20.4035 Y2.2758 I0.5474 J-0.0019
G2 X20.4061 Y2.2666 I-0.3838 J-0.1126
G3 X20.4464 Y2.1764 I0.3017 J0.0807
G3 X20.5208 Y2.0991 I0.5251 J0.4308
G2 X20.5441 Y2.0832 I-0.4339 J-0.663
G2 X20.6059 Y2.038 I-0.4281 J-0.6495
G2 X20.6119 Y2.033 I-0.2519 J-0.3107
G2 X20.7036 Y1.9474 I-0.798 J-0.9458
G2 X20.7087 Y1.942 I-0.2876 J-0.278
G2 X20.8046 Y1.8184 I-0.6361 J-0.5926
G2 X20.8049 Y1.8179 I-0.3368 J-0.2158
G2 X20.9616 Y1.4787 I-1.166 J-0.7446
G2 X21.0561 Y1.0871 I-2.7835 J-0.8786
G2 X21.0572 Y1.0805 I-0.3944 J-0.0667
G1 X21.0737 Y0.9717
G2 X21.0754 Y0.9588 I-0.3955 J-0.0601
G2 X21.112 Y0.6233 I-17.7106 J-2.1012
G2 X20.9209 Y0.2414 I-0.398 J-0.0396
G1 X20.8253 Y0.1836
G3 X20.7188 Y0.1119 I0.6846 J-1.131
G3 X20.6471 Y0.049 I0.3785 J-0.5037
G3 X20.5199 Y-0.1812 I0.4708 J-0.4106
G2 X20.5177 Y-0.1883 I-0.383 J0.1155
G3 X20.4785 Y-0.3662 I0.9158 J-0.2949
G2 X20.4775 Y-0.3738 I-0.397 J0.0486
G3 X20.4647 Y-0.5705 I1.2814 J-0.1818
G2 X20.4646 Y-0.5849 I-0.4 J-0.0046
G3 X20.5115 Y-0.9688 I1.3284 J-0.0327
G2 X20.5131 Y-0.9748 I-0.3858 J-0.1057
G3 X20.554 Y-1.084 I0.5314 J0.1368
G2 X20.5583 Y-1.0928 I-0.3575 J-0.1793
G3 X20.6006 Y-1.1575 I0.2526 J0.1191
G3 X20.6703 Y-1.214 I0.3009 J0.3
G1 X20.6702 Y-1.2139
G1 X20.6703 Y-1.214
G3 X20.8015 Y-1.2913 I0.9712 J1.498
G2 X21.0091 Y-1.7025 I-0.1882 J-0.353
G2 X20.9834 Y-1.8662 I-8.3638 J1.231
G2 X20.9607 Y-2.0083 I-4.8596 J0.7015
G2 X20.9401 Y-2.135 I-3.8409 J0.5611
G2 X20.7731 Y-3.0092 I-14.9079 J2.3946
G2 X20.7724 Y-3.0124 I-0.3905 J0.0866
G2 X20.4251 Y-4.1905 I-9.9545 J2.2942
G2 X20.323 Y-4.4579 I-5.9502 J2.1193
G2 X19.9654 Y-5.229 I-7.5349 J3.0257
G2 X19.7082 Y-5.6614 I-4.1343 J2.1665
G2 X19.7055 Y-5.6654 I-0.3323 J0.2227
G1 X19.6401 Y-5.7604
G2 X19.6337 Y-5.7694 I-0.3295 J0.2267
G1 X19.5827 Y-5.8393
G2 X19.575 Y-5.8496 I-0.3231 J0.2358
G1 X19.4952 Y-5.9518
G2 X19.4846 Y-5.9647 I-0.3153 J0.2461
G1 X19.4006 Y-6.0636
G2 X19.3942 Y-6.071 I-0.3048 J0.259
G2 X19.0909 Y-6.3659 I-2.2389 J1.9991
G2 X19.0868 Y-6.3693 I-0.258 J0.3057
G2 X18.7101 Y-6.6172 I-1.3575 J1.6531
G2 X18.7051 Y-6.6197 I-0.1834 J0.3555
G2 X17.9112 Y-6.814 I-0.8266 J1.6584
G2 X17.9107 I-0.0071 J0.3999
G2 X17.4664 Y-6.7584 I-0.0263 J1.5922
G2 X17.4656 Y-6.7582 I0.105 J0.386
G2 X17.076 Y-6.5757 I0.3357 J1.224
G2 X17.0754 Y-6.5753 I0.2286 J0.3283
G2 X16.7678 Y-6.2567 I0.6609 J0.9458
G2 X16.7636 Y-6.2499 I0.3358 J0.2174
G2 X16.6475 Y-6.019 I1.2383 J0.7672
G2 X16.6468 Y-6.0174 I0.3719 J0.1473
G2 X16.5743 Y-5.7842 I1.5985 J0.6249
G2 X16.516 Y-5.4875 I4.0041 J0.9415
G2 X16.5148 Y-5.4794 I0.3951 J0.0627
G2 X16.4815 Y-5.1905 I6.5104 J0.8965
G2 X16.4809 Y-5.184 I0.3983 J0.037
G1 X16.467 Y-5.0013
G2 X16.4665 Y-4.9943 I0.3988 J0.0305
G2 X16.4518 Y-4.4197 I8.6505 J0.5092
G2 X16.4605 Y-4.1392 I4.7254 J-0.0064
G2 X16.4796 Y-3.8629 I5.8116 J-0.2638
G2 X16.4799 Y-3.8604 I0.3983 J-0.0371
G1 X16.495 Y-3.7078
G2 X16.4957 Y-3.7018 I0.398 J-0.0396
G2 X16.5613 Y-3.228 I10.0285 J-1.1486
G2 X16.6262 Y-2.8654 I9.2082 J-1.4605
G1 X16.6944 Y-2.5187
G2 X16.6975 Y-2.5041 I0.3925 J-0.0771
G2 X16.7454 Y-2.3111 I8.0353 J-1.8926
G2 X16.7874 Y-2.1438 I4.6764 J-1.0842
G2 X16.8253 Y-1.9953 I3.6878 J-0.8623
G2 X16.9632 Y-1.485 I12.5011 J-3.1043
G2 X17.0021 Y-1.3514 I3.3963 J-0.9172
G2 X17.123 Y-0.9678 I10.8264 J-3.2002
G2 X17.6756 Y0.3515 I9.0997 J-3.0358
G2 X17.9891 Y0.9108 I6.5684 J-3.3152
G2 X18.3617 Y1.4462 I4.9099 J-3.019
G2 X18.3645 Y1.4497 I0.3149 J-0.2467
G2 X18.4406 Y1.544 I12.0051 J-9.6234
G2 X18.4481 Y1.5529 I0.3101 J-0.2526
G1 X18.5253 Y1.6422
G2 X18.5288 Y1.6461 I0.3026 J-0.2616
G2 X18.6135 Y1.7366 I1.7566 J-1.5588
G2 X18.7177 Y1.8365 I1.0189 J-0.9596
G2 X18.718 Y1.8368 I0.2614 J-0.3028
G1 X18.7925 Y1.9009
G2 X18.8016 Y1.9085 I0.2611 J-0.303
G1 X18.849 Y1.9469
G2 X18.8662 Y1.9629 I0.2801 J-0.2855
G3 X18.9757 Y2.0785 I-0.5468 J0.6273
G3 X19.027 Y2.1919 I-0.3277 J0.2167
G2 X19.0295 Y2.2006 I0.3859 J-0.1052
G3 X19.0538 Y2.3702 I-0.5633 J0.1673
G2 Y2.3728 I0.4 J0.0016
G3 X18.9987 Y2.6228 I-0.5873 J0.0015
G2 X18.9967 Y2.627 I0.3624 J0.1692
G3 X18.8834 Y2.7664 I-0.3218 J-0.1457
G3 X18.7706 Y2.8045 I-0.1197 J-0.1684
G2 X18.7649 Y2.8042 I-0.0198 J0.3995
G1 X18.7648
G1 X18.746 Y2.8022
G2 X18.7407 Y2.8017 I-0.0425 J0.3977
G3 X18.6733 Y2.7856 I0.6973 J-3.0627
G2 X18.6563 Y2.7817 I-0.0974 J0.388
G3 X18.5673 Y2.7607 I0.3203 J-1.5609
G2 X18.5459 Y2.7557 I-0.1027 J0.3866
G3 X18.4738 Y2.7383 I0.2325 J-1.1196
G2 X18.4577 Y2.7342 I-0.1065 J0.3856
G3 X18.1442 Y2.6508 I1.1432 J-4.9307
G2 X18.1346 Y2.648 I-0.1151 J0.3831
G3 X17.9929 Y2.6043 I0.6021 J-2.2026
G1 X17.833 Y2.5485
G3 X17.0004 Y2.1142 I1.3861 J-3.6719
G3 X16.6006 Y1.8083 I3.0768 J-4.4357
G2 X16.5997 Y1.8076 I-0.2576 J0.306
G3 X16.2121 Y1.4714 I9.369 J-11.194
G3 X15.8361 Y1.0583 I7.43 J-7.1409
G1 X15.7427 Y0.9449
G3 X15.4906 Y0.6033 I3.9062 J-3.1471
G2 X15.4892 Y0.6013 I-0.3316 J0.2237
G3 X15.3267 Y0.3516 I5.4811 J-3.7456
G1 X15.1611 Y0.0825
G2 X14.4457 Y0.4321 I-0.3407 J0.2096
G1 X17.3669 Y8.2536
G1 X16.617
G1 X11.8958 Y-5.5159
G2 X11.1175 Y-5.3919 I-0.3784 J0.1297
G1 X10.9217 Y8.2536
G1 X8.6907
G1 X3.9586 Y-5.5162
G2 X3.1803 Y-5.3919 I-0.3783 J0.13
G1 X2.9839 Y8.3502
G3 X2.7581 Y8.3609 I-1.1055 J-20.9329
G3 X2.4599 Y8.3657 I-0.3835 J-14.5029
G3 X0.6704 Y8.1709 I0.0141 J-8.4469
G2 X0.6697 Y8.1708 I-0.0854 J0.3908
G3 X-1.0657 Y7.5877 I1.7572 J-8.1042
G3 X-1.9297 Y7.1245 I4.5025 J-9.4362
G1 X-2.146 Y6.9944
G1 X-2.3058 Y6.8959
G1 X-2.5467 Y6.7448
G1 X-2.7742 Y6.6006
G3 X-2.8455 Y6.5454 I2.8558 J-3.7609
G2 X-2.854 Y6.5388 I-0.2479 J0.3139
G3 X-2.9224 Y6.4858 I1.4741 J-1.9726
G2 X-2.9332 Y6.4774 I-0.2506 J0.3118
G3 X-2.99 Y6.4331 I1.0804 J-1.4428
G2 X-3.0037 Y6.4224 I-0.2524 J0.3103
G3 X-3.1056 Y6.3418 I1.2878 J-1.7319
G2 X-3.1202 Y6.3301 I-0.2576 J0.306
G3 X-3.1934 Y6.2709 I1.0717 J-1.4008
G2 X-3.2061 Y6.2605 I-0.2597 J0.3043
G3 X-3.3215 Y6.1644 I1.5972 J-2.0351
G2 X-3.3235 Y6.1626 I-0.2648 J0.2998
G1 X-3.4521 Y6.0506
G3 X-4.0356 Y5.4564 I4.3496 J-4.8541
G2 X-4.0408 Y5.4504 I-0.3027 J0.2614
G3 X-4.1657 Y5.303 I2.4616 J-2.2119
G2 X-4.1701 Y5.2975 I-0.3126 J0.2495
G3 X-4.5339 Y4.8094 I4.6137 J-3.8179
G2 X-4.5357 Y4.8067 I-0.3325 J0.2224
G3 X-4.9013 Y4.1485 I3.4355 J-2.339
G3 X-5.1168 Y3.4861 I3.2523 J-1.424
G3 X-5.1884 Y2.8055 I3.5291 J-0.7155
G2 Y2.8047 I-0.4 J0.0039
G3 X-5.173 Y2.4536 I3.1547 J-0.0373
G2 X-5.1727 Y2.4507 I-0.398 J-0.0398
G3 X-5.1273 Y2.145 I2.7923 J0.2586
G1 X-5.111 Y2.0685
G2 X-5.1103 Y2.0654 I-0.3912 J-0.0834
G3 X-5.0629 Y1.9119 I0.8066 J0.1653
G2 X-5.0598 Y1.9043 I-0.3688 J-0.1549
G3 X-5.0584 Y1.9013 I0.043 J0.017
G1 X-5.0409 Y1.8678
G2 X-5.0174 Y1.8218 I-1.7637 J-0.9304
G2 X-5.0266 Y1.4495 I-0.3585 J-0.1774
G2 X-4.6957 Y1.3954 I0.1069 J-0.3855
G3 X-4.6557 Y1.3699 I0.5267 J0.7789
G2 X-4.6354 Y1.3568 I-0.2071 J-0.3422
G3 X-4.6121 Y1.342 I0.1986 J0.2875
G2 X-4.5945 Y1.3311 I-0.2007 J-0.346
G3 X-4.2877 Y1.1619 I1.3061 J2.0053
G3 X-4.0599 Y1.0837 I0.6258 J1.4525
G3 X-3.7972 Y1.0309 I0.6939 J2.771
G3 X-3.7284 Y1.0215 I0.535 J3.6473
G2 X-3.8198 Y1.5312 I2.7959 J0.7645
G2 X-3.8502 Y2.1364 I5.8104 J0.5949
G2 X-3.7441 Y3.4129 I7.0441 J0.0574
G2 X-3.4213 Y4.5595 I5.6546 J-0.9734
G2 X-3.4208 Y4.5608 I0.3717 J-0.1478
G2 X-2.8773 Y5.568 I4.7082 J-1.8905
G2 X-2.8769 Y5.5685 I0.3283 J-0.2285
G2 X-2.1424 Y6.4143 I4.3508 J-3.0366
G2 X-1.2363 Y7.0964 I3.6048 J-3.8455
G2 X-1.2319 Y7.099 I0.2048 J-0.3436
G2 X-0.7115 Y7.3699 I3.2684 J-5.6432
G2 X-0.4475 Y7.4893 I3.0305 J-6.3511
G1 X-0.1948 Y7.5988
G2 X0.3642 Y7.2412 I0.1591 J-0.367
G1 X0.7244 Y-8.0314
G1 X3.3586
G1 X3.6988 Y-7.1201
G0 Z90.0
G0 X-7.9916 Y-1.202
G1 F1.0 Z0.0
G3 F4.0 X-8.4087 Y-0.7798 I-0.9177 J-0.4894
G2 X-8.4182 Y-0.6478 I0.6784 J0.115
G3 X-8.4179 Y-0.6102 I-1.0397 J0.0257
G2 X-8.4115 Y-0.5107 I0.6551 J0.0075
G3 X-8.4088 Y-0.4907 I-1.0297 J0.1461
G2 X-8.3958 Y-0.4317 I0.3156 J-0.0386
G3 X-8.3952 Y-0.4298 I-0.9899 J0.319
G2 X-8.3667 Y-0.4116 I0.3689 J-0.5457
G1 X-8.3666 Y-0.4115
G1 X-8.2709 Y-0.3537
G3 X-7.9754 Y-0.086 I-0.5376 J0.8903
G3 X-7.6875 Y-0.5996 I1.0141 J0.2309
G3 X-7.9916 Y-1.202 I0.7261 J-0.7445
G0 Z90.0
G0 X-14.3261 Y-3.8931
G1 F1.0 Z0.0
G3 F4.0 X-14.3403 Y-4.1185 I7.094 J-0.5576
G3 X-14.3507 Y-4.4597 I6.0515 J-0.3559
G3 X-14.3337 Y-5.1172 I9.7952 J-0.0757
G3 X-14.3318 Y-5.1454 I1.677 J0.0998
G1 X-14.3178 Y-5.3281
G3 X-14.3152 Y-5.3593 I1.6751 J0.128
G3 X-14.2791 Y-5.6762 I8.6249 J0.8209
G3 X-14.2523 Y-5.8492 I2.5884 J0.3123
G3 X-14.2268 Y-5.978 I2.1871 J0.3663
G1 X-14.2072 Y-6.066
G2 X-14.2465 Y-5.9749 I1.2836 J0.6086
G1 X-14.2651 Y-5.9253
G1 X-14.2856 Y-5.8655
G3 X-14.2866 Y-5.8626 I-1.5889 J-0.5457
G2 X-14.2963 Y-5.8302 I0.3834 J0.1325
G3 X-14.3005 Y-5.8142 I-1.628 J-0.4147
G2 X-14.3364 Y-5.6735 I7.8416 J2.0799
G3 X-14.5604 Y-5.1576 I-1.6313 J-0.4016
G3 X-14.4021 Y-4.6207 I-2.3896 J0.9962
G3 X-14.396 Y-4.5843 I-1.6533 J0.2981
G3 X-14.3703 Y-4.3862 I-3.5792 J0.5644
G3 X-14.3651 Y-4.3224 I-1.6714 J0.1698
G1 X-14.3583 Y-4.2155
G3 X-14.3576 Y-4.203 I-1.6767 J0.106
G1 X-14.3539 Y-4.1376
G2 X-14.3481 Y-4.0738 I1.216 J-0.0787
G1 X-14.3283 Y-3.9119
G3 X-14.3261 Y-3.8931 I-1.6676 J0.2036
G1 F1.0 X-14.6442 Y-3.8579
G3 F4.0 X-14.6425 Y-3.8412 I-1.3517 J0.1496
G2 X-14.6421 Y-3.8382 I0.051 J-0.005
G3 X-14.6334 Y-3.7736 I-1.3432 J0.2129
G2 X-14.6301 Y-3.7481 I0.6004 J-0.0659
G3 X-14.6272 Y-3.7283 I-1.3443 J0.2058
G2 X-14.6055 Y-3.5752 I21.7561 J-3.0049
G2 X-14.5659 Y-3.344 I5.692 J-0.8557
G3 X-14.5627 Y-3.327 I-1.3355 J0.2568
G2 X-14.5173 Y-3.1044 I4.5932 J-0.8228
G3 X-14.5169 Y-3.1028 I-1.3254 J0.3047
G1 X-14.4695 Y-2.8954
G1 X-14.4209 Y-2.7017
G1 X-14.3849 Y-2.5693
G2 X-14.333 Y-2.3917 I4.997 J-1.3658
G3 X-14.3235 Y-2.3599 I-1.2982 J0.4052
G2 X-14.2721 Y-2.1944 I3.6811 J-1.051
G3 X-14.2608 Y-2.159 I-1.2895 J0.4322
G2 X-14.2291 Y-2.0584 I5.5354 J-1.6886
G1 X-14.1204 Y-1.7617
G1 X-14.0019 Y-1.4487
G2 X-13.7657 Y-0.8902 I9.3483 J-3.6231
G3 X-13.7652 Y-0.889 I-1.2361 J0.5672
G2 X-13.257 Y-0.0102 I4.8662 J-2.2278
G2 X-12.9926 Y0.3275 I5.1657 J-3.7704
G3 X-12.9916 Y0.3288 I-1.0423 J0.8736
G2 X-12.7906 Y0.5635 I9.9525 J-8.3211
G3 X-13.3105 Y-0.7118 I9.3675 J-4.5626
G3 X-13.4388 Y-1.119 I12.077 J-4.0308
G3 X-13.4835 Y-1.2722 I4.3021 J-1.3377
G3 X-13.6258 Y-1.7988 I13.6027 J-3.9588
G3 X-13.6661 Y-1.9564 I4.5906 J-1.2574
G3 X-13.7092 Y-2.1284 I5.5795 J-1.4894
G3 X-13.7594 Y-2.3312 I8.9368 J-2.3192
G3 X-13.7701 Y-2.3805 I1.3238 J-0.3117
G1 X-13.838 Y-2.726
G3 X-13.909 Y-3.1224 I10.1228 J-2.0173
G3 X-13.9807 Y-3.6398 I10.8134 J-1.7615
G3 X-13.9828 Y-3.6598 I1.3512 J-0.1544
G1 X-13.998 Y-3.8124
G3 X-13.9988 Y-3.8207 I1.3533 J-0.1344
G3 X-14.0207 Y-4.1354 I6.7666 J-0.6301
G3 X-14.0307 Y-4.4613 I5.7319 J-0.339
G3 X-14.0143 Y-5.0982 I9.4752 J-0.0741
G3 X-14.0127 Y-5.121 I1.3576 J0.0808
G1 X-13.9988 Y-5.3037
G3 X-13.9966 Y-5.329 I1.356 J0.1036
G3 X-13.9616 Y-5.636 I8.3063 J0.7906
G3 X-13.9373 Y-5.793 I2.271 J0.2722
G3 X-13.9147 Y-5.9074 I1.8721 J0.3101
G1 X-13.8863 Y-6.0346
G3 X-13.5789 Y-6.7957 I2.4347 J0.5408
G3 X-13.5601 Y-6.8255 I1.16 J0.7099
G3 X-13.3842 Y-7.0597 I1.7784 J1.1527
G2 X-13.537 Y-7.0139 I0.6884 J2.5782
G3 X-13.5473 Y-7.0106 I-0.4287 J-1.2907
G2 X-13.8999 Y-6.856 I0.5918 J1.8303
G3 X-13.9082 Y-6.8514 I-0.6678 J-1.1848
G2 X-14.1721 Y-6.661 I0.6662 J1.2014
G2 X-14.3779 Y-6.4138 I0.934 J0.9867
G3 X-14.3804 Y-6.4098 I-1.1409 J-0.7402
G2 X-14.5454 Y-6.0891 I1.4568 J0.9524
G1 X-14.5663 Y-6.0333
G1 X-14.5883 Y-5.9694
G3 X-14.5891 Y-5.9671 I-1.2862 J-0.4418
G2 X-14.6064 Y-5.9092 I0.6858 J0.237
G3 X-14.6098 Y-5.8963 I-1.3179 J-0.3357
G2 X-14.6472 Y-5.75 I8.1509 J2.162
G3 X-14.9286 Y-5.1976 I-1.3206 J-0.3251
G1 X-14.9112 Y-5.161
G3 X-14.8906 Y-5.1155 I-1.228 J0.5844
G1 X-14.8709 Y-5.0698
G3 X-14.7171 Y-4.5639 I-2.0791 J0.9085
G3 X-14.7121 Y-4.5345 I-1.3384 J0.2413
G3 X-14.6887 Y-4.3538 I-3.2631 J0.5146
G3 X-14.6844 Y-4.3022 I-1.353 J0.1375
G1 X-14.6777 Y-4.1953
G3 X-14.6771 Y-4.1851 I-1.3573 J0.0858
G1 X-14.6733 Y-4.1184
G2 X-14.6658 Y-4.0357 I1.5355 J-0.0979
G1 X-14.646 Y-3.8731
G3 X-14.6442 Y-3.8579 I-1.35 J0.1648
G1 F1.0 X-14.9623 Y-3.8227
G3 F4.0 X-14.9609 Y-3.8099 I-1.0337 J0.1144
G2 X-14.9581 Y-3.7881 I0.3694 J-0.0363
G3 X-14.9515 Y-3.7387 I-1.0272 J0.1628
G2 X-14.9464 Y-3.6996 I0.9184 J-0.1008
G3 X-14.9442 Y-3.6845 I-1.028 J0.1574
G2 X-14.922 Y-3.5284 I22.0731 J-3.0487
G2 X-14.8801 Y-3.2836 I6.0086 J-0.9024
G3 X-14.8777 Y-3.2706 I-1.0213 J0.1964
G2 X-14.8291 Y-3.0327 I4.9082 J-0.8792
G3 X-14.8288 Y-3.0315 I-1.0136 J0.233
G1 X-14.7807 Y-2.8208
G1 X-14.7305 Y-2.6208
G1 X-14.6937 Y-2.4852
G2 X-14.6384 Y-2.2964 I5.3057 J-1.4499
G3 X-14.6312 Y-2.2721 I-0.9928 J0.3099
G2 X-14.5755 Y-2.0927 I3.9888 J-1.1389
G3 X-14.5669 Y-2.0656 I-0.9861 J0.3305
G2 X-14.5316 Y-1.9538 I5.8415 J-1.782
G1 X-14.4203 Y-1.65
G1 X-14.3007 Y-1.3343
G2 X-14.0566 Y-0.7567 I9.6471 J-3.7376
G3 X-14.0562 Y-0.7558 I-0.9452 J0.4338
G2 X-13.5165 Y0.177 I5.1571 J-2.361
G2 X-13.2379 Y0.5331 I5.4252 J-3.9576
G3 X-13.2371 Y0.5341 I-0.797 J0.6681
G2 X-12.9163 Y0.9037 I10.198 J-8.5263
G3 X-12.9019 Y0.92 I-0.7728 J0.696
G2 X-12.855 Y0.9734 I2.8086 J-2.425
G2 X-12.5123 Y1.2696 I9.2377 J-10.3383
G3 X-12.5099 Y1.2716 I-0.6673 J0.7977
G2 X-12.159 Y1.5401 I3.0629 J-3.6395
G2 X-11.6331 Y1.8332 I1.8569 J-2.7136
G3 X-11.6591 Y1.8007 I8.4851 J-6.8178
G3 X-11.6702 Y1.7865 I0.8132 J-0.6483
G3 X-12.4185 Y0.5926 I5.8334 J-4.4875
G3 X-13.0069 Y-0.813 I8.9955 J-4.5917
G3 X-13.1327 Y-1.2121 I11.7734 J-3.9296
G3 X-13.1755 Y-1.359 I3.9959 J-1.2446
G3 X-13.3163 Y-1.8799 I13.2947 J-3.872
G3 X-13.3558 Y-2.0346 I4.281 J-1.1763
G3 X-13.3985 Y-2.2051 I5.2692 J-1.4112
G3 X-13.4479 Y-2.4046 I8.6261 J-2.2426
G3 X-13.4561 Y-2.4423 I1.0123 J-0.2384
G1 X-13.5241 Y-2.7881
G3 X-13.5931 Y-3.1732 I9.8089 J-1.9551
G3 X-13.6627 Y-3.6761 I10.4975 J-1.7106
G3 X-13.6644 Y-3.6914 I1.0333 J-0.1181
G1 X-13.6795 Y-3.844
G3 X-13.6801 Y-3.8504 I1.0349 J-0.1028
G3 X-13.7011 Y-4.1522 I6.448 J-0.6004
G3 X-13.7107 Y-4.4629 I5.4124 J-0.3221
G3 X-13.6948 Y-5.0792 I9.1552 J-0.0725
G3 X-13.6936 Y-5.0966 I1.0382 J0.0618
G1 X-13.6797 Y-5.2793
G3 X-13.678 Y-5.2986 I1.037 J0.0792
G3 X-13.6441 Y-5.596 I7.9877 J0.7602
G3 X-13.6222 Y-5.7369 I1.9535 J0.2321
G3 X-13.6026 Y-5.8368 I1.557 J0.254
G1 X-13.5739 Y-5.9651
G3 X-13.306 Y-6.6286 I2.1223 J0.4713
G3 X-13.2916 Y-6.6514 I0.8871 J0.5429
G3 X-12.8155 Y-7.1454 I1.5099 J0.9787
G3 X-12.8135 Y-7.1469 I0.5976 J0.8512
G3 X-12.2255 Y-7.4225 I1.0902 J1.561
G3 X-12.224 Y-7.4229 I0.2743 J1.0032
G3 X-12.0643 Y-7.4601 I0.5862 J2.1563
G2 X-12.4313 Y-7.4812 I-0.4459 J4.5444
G3 X-12.4347 Y-7.4813 I0.018 J-1.0398
G2 X-13.065 Y-7.4471 I-0.087 J4.2291
G3 X-13.0688 Y-7.4466 I-0.1336 J-1.0314
G2 X-13.6378 Y-7.3176 I0.373 J2.9651
G3 X-13.6457 Y-7.315 I-0.3278 J-0.987
G2 X-14.0571 Y-7.1348 I0.6903 J2.1347
G3 X-14.0633 Y-7.1313 I-0.5106 J-0.906
G2 X-14.3905 Y-6.8949 I0.8214 J1.4812
G2 X-14.6463 Y-6.588 I1.1524 J1.2206
G3 X-14.6483 Y-6.5849 I-0.8725 J-0.5661
G2 X-14.8444 Y-6.2032 I1.7247 J1.1275
G1 X-14.8676 Y-6.1413
G1 X-14.8909 Y-6.0734
G3 X-14.8915 Y-6.0716 I-0.9836 J-0.3378
G2 X-14.9165 Y-5.9882 I0.9883 J0.3414
G3 X-14.9191 Y-5.9783 I-1.0078 J-0.2567
G2 X-14.9579 Y-5.8265 I8.4602 J2.244
G3 X-15.3203 Y-5.2612 I-1.0099 J-0.2486
G3 X-15.3012 Y-5.2255 I-5.3063 J2.8771
G3 X-15.2297 Y-5.0856 I-1.4804 J0.8441
G1 X-15.2002 Y-5.0235
G3 X-15.1844 Y-4.9888 I-0.9391 J0.4469
G1 X-15.1644 Y-4.9423
G3 X-15.032 Y-4.5072 I-1.7856 J0.781
G3 X-15.0282 Y-4.4846 I-1.0235 J0.1845
G3 X-15.007 Y-4.3215 I-2.947 J0.4647
G3 X-15.0038 Y-4.282 I-1.0347 J0.1051
G1 X-14.997 Y-4.1751
G3 X-14.9966 Y-4.1673 I-1.0379 J0.0656
G1 X-14.9928 Y-4.0994
G2 X-14.9835 Y-3.9974 I1.8549 J-0.1169
G1 X-14.9636 Y-3.8343
G3 X-14.9623 Y-3.8227 I-1.0323 J0.126
G1 F1.0 X-15.2803 Y-3.7875
G3 F4.0 X-15.2794 Y-3.7786 I-0.7156 J0.0792
G2 X-15.2742 Y-3.738 I0.6879 J-0.0675
G3 X-15.2696 Y-3.7038 I-0.7111 J0.1127
G2 X-15.2627 Y-3.6512 I1.2365 J-0.1357
G3 X-15.2612 Y-3.6408 I-0.7117 J0.109
G2 X-15.2386 Y-3.4816 I22.3901 J-3.0925
G2 X-15.1944 Y-3.2232 I6.3251 J-0.9492
G3 X-15.1927 Y-3.2142 I-0.707 J0.1359
G2 X-15.141 Y-2.9611 I5.2232 J-0.9356
G3 X-15.1408 Y-2.9602 I-0.7017 J0.1613
G1 X-15.0919 Y-2.7462
G1 X-15.0401 Y-2.54
G1 X-15.0024 Y-2.4011
G2 X-14.9439 Y-2.2011 I5.6145 J-1.534
G3 X-14.9389 Y-2.1842 I-0.6873 J0.2145
G2 X-14.8789 Y-1.991 I4.2965 J-1.2267
G3 X-14.873 Y-1.9723 I-0.6827 J0.2288
G2 X-14.834 Y-1.8491 I6.1476 J-1.8753
G1 X-14.7202 Y-1.5383
G1 X-14.5996 Y-1.2198
G2 X-14.3474 Y-0.6232 I9.946 J-3.852
G3 X-14.3471 Y-0.6226 I-0.6544 J0.3003
G2 X-13.776 Y0.3642 I5.4481 J-2.4942
G2 X-13.4831 Y0.7387 I5.6847 J-4.1449
G3 X-13.4826 Y0.7393 I-0.5518 J0.4625
G2 X-13.1541 Y1.1179 I10.4435 J-8.7316
G3 X-13.1441 Y1.1292 I-0.535 J0.4818
G2 X-13.0811 Y1.2004 I3.0508 J-2.6341
G2 X-12.7176 Y1.5151 I9.4639 J-10.5653
G3 X-12.716 Y1.5165 I-0.4619 J0.5523
G2 X-12.3406 Y1.8036 I3.269 J-3.8843
G2 X-11.5803 Y2.2007 I2.0385 J-2.9771
G1 X-11.4248 Y2.2549
G2 X-11.3035 Y2.2923 I0.6391 J-1.8564
G3 X-11.2862 Y2.2973 I-0.1899 J0.6945
G2 X-10.9925 Y2.3754 I1.3673 J-4.5498
G3 X-10.9634 Y2.3828 I-0.1627 J0.7014
G2 X-10.9115 Y2.3953 I0.2196 J-0.7947
G3 X-10.873 Y2.4044 I-0.1464 J0.705
G2 X-10.8055 Y2.4204 I0.3276 J-1.2323
G2 X-10.7888 Y2.3268 I-0.2499 J-0.0929
G3 Y2.322 I0.72 J-0.002
G2 X-10.7999 Y2.2446 I-0.2681 J-0.001
G3 X-10.8043 Y2.2291 I0.6902 J-0.205
G2 X-10.8094 Y2.2158 I-0.0702 J0.0191
G2 X-10.8665 Y2.1574 I-0.3929 J0.327
G3 X-10.8871 Y2.1387 I0.473 J-0.5428
G1 X-10.9222 Y2.1103
G3 X-10.9387 Y2.0965 I0.4532 J-0.5595
G1 X-11.0132 Y2.0324
G3 X-11.0137 Y2.032 I0.4697 J-0.5457
G3 X-11.1397 Y1.9116 I1.1171 J-1.2952
G3 X-11.2333 Y1.8113 I1.8995 J-1.8674
G3 X-11.2396 Y1.8042 I0.5387 J-0.4777
G1 X-11.3168 Y1.7148
G3 X-11.3293 Y1.6998 I0.545 J-0.4705
G3 X-11.4089 Y1.6012 I8.1813 J-6.6844
G3 X-11.4166 Y1.5914 I0.563 J-0.4488
G3 X-12.1329 Y0.4483 I5.5798 J-4.2924
G3 X-12.7033 Y-0.9141 I8.7099 J-4.4473
G3 X-12.8265 Y-1.3052 I11.4698 J-3.8285
G3 X-12.8674 Y-1.4456 I3.6898 J-1.1515
G3 X-13.0067 Y-1.9611 I12.9866 J-3.7853
G3 X-13.0455 Y-2.1128 I3.9715 J-1.0951
G3 X-13.0878 Y-2.2817 I4.9588 J-1.333
G3 X-13.1365 Y-2.4779 I8.3154 J-2.1659
G3 X-13.1421 Y-2.504 I0.7008 J-0.165
G1 X-13.2102 Y-2.8503
G3 X-13.2771 Y-3.2241 I9.495 J-1.893
G3 X-13.3448 Y-3.7124 I10.1816 J-1.6598
G3 X-13.3459 Y-3.723 I0.7153 J-0.0818
G1 X-13.3611 Y-3.8756
G3 X-13.3615 Y-3.8801 I0.7165 J-0.0712
G3 X-13.3816 Y-4.1691 I6.1293 J-0.5707
G3 X-13.3907 Y-4.4645 I5.0928 J-0.3052
G3 X-13.3754 Y-5.0602 I8.8352 J-0.0709
G3 X-13.3746 Y-5.0723 I0.7187 J0.0428
G1 X-13.3606 Y-5.2549
G3 X-13.3595 Y-5.2683 I0.7179 J0.0548
G3 X-13.3266 Y-5.5561 I7.6692 J0.7299
G3 X-13.3071 Y-5.6808 I1.636 J0.1922
G3 X-13.2905 Y-5.766 I1.2419 J0.1979
G1 X-13.2616 Y-5.8956
G3 X-13.033 Y-6.4616 I1.8099 J0.4018
G3 X-13.0231 Y-6.4774 I0.6141 J0.3758
G3 X-12.6317 Y-6.8835 I1.2414 J0.8046
G3 X-12.6303 Y-6.8845 I0.4137 J0.5893
G3 X-12.1411 Y-7.1138 I0.907 J1.2986
G3 X-12.1401 Y-7.1141 I0.1899 J0.6945
G3 X-11.6069 Y-7.1809 I0.5023 J1.8475
G3 X-11.6059 I-0.0116 J0.7199
G3 X-10.6747 Y-6.953 I-0.0381 J2.1723
G3 X-10.6657 Y-6.9485 I-0.3212 J0.6444
G3 X-10.2327 Y-6.6635 I-1.1276 J2.1853
G3 X-10.2253 Y-6.6573 I-0.457 J0.5564
G3 X-9.8897 Y-6.331 I-2.1425 J2.5389
G3 X-9.8781 Y-6.3177 I-0.5371 J0.4795
G1 X-9.7941 Y-6.2188
G3 X-9.7751 Y-6.1955 I-0.5487 J0.4662
G1 X-9.6953 Y-6.0933
G3 X-9.6814 Y-6.0748 I-0.5676 J0.4429
G1 X-9.6304 Y-6.0049
G3 X-9.6188 Y-5.9886 I-0.5816 J0.4244
G1 X-9.5535 Y-5.8936
G3 X-9.5486 Y-5.8864 I-0.5932 J0.4081
G3 X-9.2741 Y-5.4249 I-4.1428 J2.7769
G3 X-8.9031 Y-4.6249 I-7.4673 J3.9492
G3 X-8.7963 Y-4.3455 I-6.1337 J2.503
G3 X-8.4384 Y-3.1313 I-9.9119 J3.5817
G3 X-8.4371 Y-3.1255 I-0.7016 J0.1617
G3 X-8.267 Y-2.2358 I-14.9839 J3.3246
G3 X-8.2459 Y-2.106 I-4.1269 J0.7399
G3 X-8.223 Y-1.9626 I-5.1366 J0.8914
G3 X-8.1969 Y-1.7962 I-8.5774 J1.4316
G3 X-8.5706 Y-1.0561 I-0.7123 J0.1047
G2 X-8.678 Y-0.9927 I0.6827 J1.2809
G3 X-8.6782 Y-0.9926 I-0.392 J-0.604
G2 X-8.681 Y-0.9907 I0.0566 J0.0872
G3 X-8.6826 Y-0.9877 I-0.6451 J-0.3198
G2 X-8.6996 Y-0.9421 I0.2049 J0.1028
G3 X-8.7025 Y-0.9313 I-0.6972 J-0.1796
G2 X-8.7381 Y-0.6399 I0.9722 J0.2665
G3 X-8.7379 Y-0.6139 I-0.7198 J0.0178
G2 X-8.7283 Y-0.4658 I0.9751 J0.0112
G3 X-8.7265 Y-0.4519 I-0.7129 J0.1011
G2 X-8.7004 Y-0.3336 I0.6333 J-0.0774
G3 X-8.6964 Y-0.3208 I-0.6853 J0.2209
G2 X-8.6402 Y-0.2154 I0.2927 J-0.0884
G2 X-8.612 Y-0.1914 I0.2117 J-0.2203
G2 X-8.5321 Y-0.1376 I0.5857 J-0.784
G1 X-8.532
G1 X-8.4363 Y-0.0798
G3 X-8.0921 Y0.6085 I-0.3722 J0.6163
G3 X-8.1292 Y0.9487 I-19.8058 J-1.9878
G3 X-8.1324 Y0.9727 I-0.7151 J-0.0842
G1 X-8.149 Y1.0814
G3 X-8.1509 Y1.0933 I-0.7118 J-0.1082
G3 X-8.2553 Y1.5266 I-3.1929 J-0.5403
G3 X-8.4479 Y1.943 I-1.6279 J-0.5003
G3 X-8.4485 Y1.9439 I-0.6068 J-0.3875
G3 X-8.5797 Y2.113 I-1.0014 J-0.6417
G3 X-8.589 Y2.1227 I-0.5268 J-0.4908
G3 X-8.7044 Y2.2306 I-1.1192 J-1.0826
G3 X-8.7154 Y2.2396 I-0.4641 J-0.5504
G3 X-8.7309 Y2.252 I-0.6911 J-0.8533
G2 X-8.4321 Y2.0744 I-0.8651 J-1.7956
G3 X-8.4231 Y2.068 I0.4204 J0.5845
G2 X-8.3836 Y2.0365 I-0.2214 J-0.318
G3 X-8.3768 Y2.0303 I0.4847 J0.5324
G2 X-8.1228 Y1.7312 I-0.9255 J-1.043
G2 X-7.926 Y1.3319 I-1.8639 J-1.1667
G2 X-7.7865 Y0.8239 I-3.239 J-1.1626
G3 X-7.7864 Y0.8231 I0.7069 J0.137
G2 X-7.699 Y0.2484 I-6.8504 J-1.335
G3 X-7.6959 Y0.2238 I0.7157 J0.0784
G2 X-7.678 Y0.0756 I-3.1247 J-0.4521
G3 X-7.0862 Y-0.5642 I0.7167 J0.0693
G2 X-7.2546 Y-0.6757 I-3.2996 J4.8007
G3 X-7.2753 Y-0.6894 I0.387 J-0.6071
G2 X-7.3419 Y-0.733 I-1.0015 J1.4576
G3 X-7.6778 Y-1.2725 I0.3806 J-0.6112
G2 X-7.7541 Y-1.9611 I-32.3722 J3.2402
G1 X-7.7827 Y-2.1895
G1 X-7.8247 Y-2.491
G1 X-7.8513 Y-2.6617
G2 X-7.9319 Y-3.1003 I-9.6681 J1.5501
G3 X-7.935 Y-3.1165 I0.705 J-0.1462
G2 X-7.953 Y-3.2006 I-1.4429 J0.265
G3 X-7.9572 Y-3.2185 I0.6993 J-0.1713
G2 X-8.4873 Y-4.8127 I-7.7371 J1.6876
G3 X-8.4879 Y-4.8141 I0.6553 J-0.2984
G2 X-9.2698 Y-6.1261 I-6.213 J2.8138
G3 X-9.2707 Y-6.1272 I0.5733 J-0.4355
G2 X-9.5948 Y-6.5126 I-3.8961 J2.9476
G1 Y-6.5125
G1 Y-6.5126
G2 X-9.9562 Y-6.8658 I-4.0152 J3.747
G2 X-10.2163 Y-7.0766 I-3.6721 J4.2654
G2 X-11.2458 Y-7.6196 I-2.1842 J2.8933
G2 X-11.8121 Y-7.7517 I-1.067 J3.2931
G2 X-12.4257 Y-7.8011 I-0.6982 J4.8361
G3 X-12.4281 Y-7.8012 I0.0124 J-0.7199
G2 X-13.1062 Y-7.7645 I-0.0935 J4.5491
G3 X-13.1088 Y-7.7641 I-0.0925 J-0.714
G2 X-13.7387 Y-7.6213 I0.413 J3.2826
G3 X-13.7442 Y-7.6195 I-0.227 J-0.6833
G2 X-14.2142 Y-7.4136 I0.7887 J2.4392
G3 X-14.2185 Y-7.4111 I-0.3535 J-0.6272
G2 X-14.6088 Y-7.1289 I0.9766 J1.7611
G2 X-14.9147 Y-6.7621 I1.3707 J1.4546
G3 X-14.9161 Y-6.76 I-0.604 J-0.3919
G2 X-15.1435 Y-6.317 I1.9925 J1.3026
G1 X-15.1688 Y-6.2493
G1 X-15.1936 Y-6.1773
G3 X-15.194 Y-6.1761 I-0.681 J-0.2339
G2 X-15.2266 Y-6.0672 I1.2907 J0.4459
G3 X-15.2284 Y-6.0603 I-0.6977 J-0.1777
G2 X-15.2686 Y-5.903 I8.7695 J2.326
G3 X-15.7617 Y-5.3852 I-0.6991 J-0.1721
G3 X-15.5813 Y-5.0708 I-4.8649 J3.0011
G3 X-15.52 Y-4.9508 I-1.2003 J0.6894
G1 X-15.4891 Y-4.886
G3 X-15.4782 Y-4.862 I-0.6501 J0.3094
G1 X-15.4579 Y-4.8148
G3 X-15.3469 Y-4.4504 I-1.4921 J0.6534
G3 X-15.3443 Y-4.4348 I-0.7086 J0.1277
G3 X-15.3254 Y-4.2891 I-2.6309 J0.4149
G3 X-15.3231 Y-4.2618 I-0.7163 J0.0728
G1 X-15.3164 Y-4.1549
G3 X-15.3161 Y-4.1495 I-0.7186 J0.0454
G1 X-15.3122 Y-4.0805
G2 X-15.3012 Y-3.9592 I2.1743 J-0.1358
G1 X-15.2813 Y-3.7956
G3 X-15.2803 Y-3.7875 I-0.7147 J0.0873
G0 Z90.0
G0 X-20.809 Y-5.5435
G1 F1.0 Z0.0
G3 F4.0 X-20.8068 Y-5.6339 I2.8154 J0.0221
G3 X-20.7536 Y-6.1167 I2.9716 J0.0833
G3 X-20.5587 Y-6.698 I2.2714 J0.4379
G2 X-20.5746 Y-6.6855 I2.617 J3.3389
G2 X-20.6003 Y-6.6561 I2.121 J1.8757
G3 X-20.618 Y-6.6358 I-1.2737 J-1.0955
G2 X-20.6337 Y-6.6022 I0.1539 J0.0923
G3 X-20.634 Y-6.6013 I-1.5875 J-0.5497
G2 X-20.6748 Y-6.4639 I1.4947 J0.5185
G3 X-20.6859 Y-6.4217 I-1.6305 J-0.4047
G3 X-20.7019 Y-6.3536 I-1.6429 J-0.3511
G2 X-20.7135 Y-6.3037 I1.0417 J0.2684
G3 X-20.9222 Y-5.7734 I-1.645 J-0.3412
G3 X-20.8402 Y-5.611 I-6.4269 J3.3472
G3 X-20.809 Y-5.5435 I-1.509 J0.7384
G1 F1.0 X-20.489 Y-5.541
G3 F4.0 X-20.487 Y-5.623 I2.4954 J0.0196
G3 X-20.4394 Y-6.0559 I2.6518 J0.0724
G3 X-20.1893 Y-6.7077 I1.9572 J0.3771
G3 X-20.1606 Y-6.7533 I1.1648 J0.7021
G3 X-19.7647 Y-7.1978 I1.7144 J1.1283
G2 X-20.0697 Y-7.2061 I-0.2343 J2.9946
G3 X-20.0821 Y-7.2059 I-0.032 J-1.3596
G2 X-20.368 Y-7.1711 I0.0194 J1.3516
G2 X-20.5476 Y-7.0986 I0.1689 J0.6775
G3 X-20.5578 Y-7.0928 I-0.6787 J-1.1786
G2 X-20.6306 Y-7.045 I0.3192 J0.5657
G3 X-20.6455 Y-7.0339 I-0.8209 J-1.0843
G2 X-20.7953 Y-6.9189 I2.7038 J3.6748
G2 X-20.8429 Y-6.8648 I2.3416 J2.109
G3 X-20.8583 Y-6.8472 I-1.0311 J-0.8868
G2 X-20.882 Y-6.8171 I0.2382 J0.2121
G2 X-20.9361 Y-6.7069 I0.4179 J0.2736
G3 X-20.9364 Y-6.7062 I-1.2851 J-0.445
G2 X-20.9854 Y-6.541 I1.797 J0.6233
G3 X-20.9943 Y-6.5068 I-1.32 J-0.3276
G2 X-20.9988 Y-6.4886 I0.3085 J0.0851
G3 X-21.0118 Y-6.4335 I-1.33 J-0.2843
G2 X-21.0269 Y-6.3686 I1.3516 J0.3483
G3 X-21.297 Y-5.7946 I-1.3317 J-0.2762
G3 X-21.1276 Y-5.4704 I-6.052 J3.3684
G3 X-21.0054 Y-5.0818 I-1.2216 J0.5977
G2 X-20.9791 Y-4.9164 I27.6484 J-4.3044
G2 X-20.9511 Y-4.7579 I11.154 J-1.8908
G2 X-20.9209 Y-4.6062 I5.6231 J-1.0388
G1 X-18.669 Y5.9452
G1 X-18.1391 Y6.017
G1 X-20.368 Y-4.4743
G3 X-20.4326 Y-4.8302 I5.3755 J-1.159
G3 X-20.4734 Y-5.1956 I4.2332 J-0.6578
G3 X-20.485 Y-5.3803 I3.0004 J-0.2817
G3 X-20.489 Y-5.541 I2.4915 J-0.1411
G1 F1.0 X-20.169 Y-5.5385
G3 F4.0 X-20.1671 Y-5.6121 I2.1755 J0.0171
G3 X-20.1252 Y-5.9952 I2.332 J0.0615
G3 X-19.9152 Y-6.5425 I1.643 J0.3164
G3 X-19.8932 Y-6.5774 I0.8907 J0.5369
G3 X-19.1241 Y-7.2192 I1.4471 J0.9524
G3 X-18.8386 Y-7.3178 I0.8024 J1.8611
G2 X-20.0772 Y-7.526 I-1.1604 J3.1146
G3 X-20.0867 Y-7.5258 I-0.0245 J-1.0397
G2 X-20.4427 Y-7.4822 I0.024 J1.6715
G2 X-20.7072 Y-7.376 I0.2436 J0.9887
G3 X-20.7151 Y-7.3715 I-0.519 J-0.9013
G2 X-20.8238 Y-7.3001 I0.4765 J0.8444
G3 X-20.8352 Y-7.2916 I-0.6277 J-0.8292
G2 X-21.0111 Y-7.1559 I2.8935 J3.9326
G3 X-21.0154 Y-7.1525 I-0.6538 J-0.8088
G2 X-21.0855 Y-7.0734 I2.5618 J2.3426
G3 X-21.0972 Y-7.06 I-0.7885 J-0.6782
G2 X-21.1474 Y-6.9958 I0.4771 J0.4249
G2 X-21.2385 Y-6.8116 I0.6833 J0.4523
G3 X-21.2387 Y-6.811 I-0.9828 J-0.3403
G2 X-21.296 Y-6.6181 I2.0993 J0.7282
G3 X-21.3028 Y-6.5919 I-1.0094 J-0.2505
G2 X-21.3117 Y-6.5555 I0.6169 J0.1702
G3 X-21.3217 Y-6.5133 I-1.017 J-0.2174
G2 X-21.3402 Y-6.4336 I1.6614 J0.4281
G3 X-21.6969 Y-5.8424 I-1.0183 J-0.2112
G3 X-21.6224 Y-5.7198 I-3.0007 J1.9079
G3 X-21.6199 Y-5.7155 I-0.8994 J0.5221
G3 X-21.415 Y-5.3297 I-5.7292 J3.2893
G3 X-21.3216 Y-5.0326 I-0.9342 J0.4571
G2 X-21.2948 Y-4.8641 I27.9646 J-4.3536
G2 X-21.2658 Y-4.6998 I11.4697 J-1.9431
G2 X-21.2339 Y-4.5394 I5.9378 J-1.0968
G1 X-18.935 Y6.2322
G1 X-17.7316 Y6.395
G1 X-20.0551 Y-4.5413
G3 X-20.1162 Y-4.8782 I5.0626 J-1.0921
G3 X-20.1544 Y-5.2215 I3.9168 J-0.6099
G3 X-20.1653 Y-5.3945 I2.6815 J-0.2558
G3 X-20.169 Y-5.5385 I2.1718 J-0.1269
G1 F1.0 X-19.849 Y-5.536
G3 F4.0 X-19.8473 Y-5.6012 I1.8555 J0.0146
G3 X-19.811 Y-5.9344 I2.0122 J0.0506
G3 X-19.6411 Y-6.3773 I1.3288 J0.2556
G3 X-19.6259 Y-6.4015 I0.6166 J0.3717
G3 X-18.9981 Y-6.925 I1.1798 J0.7765
G3 X-18.5677 Y-7.047 I0.6764 J1.5669
G3 X-18.1777 Y-7.0687 I0.308 J2.0159
G3 X-17.6616 Y-7.0026 I-0.0409 J2.3647
G2 X-18.7153 Y-7.6133 I-2.2974 J2.7493
G3 X-18.7184 Y-7.6145 I0.2499 J-0.6752
G2 X-20.0847 Y-7.8459 I-1.2806 J3.4113
G3 X-20.0913 Y-7.8458 I-0.0169 J-0.7198
G2 X-20.5174 Y-7.7934 I0.0286 J1.9915
G2 X-20.8669 Y-7.6533 I0.3183 J1.2999
G3 X-20.8724 Y-7.6502 I-0.3593 J-0.6239
G2 X-21.0169 Y-7.5553 I0.6338 J1.1231
G3 X-21.0248 Y-7.5494 I-0.4346 J-0.5741
G2 X-21.2123 Y-7.4048 I3.0831 J4.1903
G3 X-21.2266 Y-7.3935 I-0.4526 J-0.5599
G2 X-21.233 Y-7.3885 I0.6106 J0.7958
G2 X-21.3281 Y-7.2821 I2.7794 J2.5787
G3 X-21.3362 Y-7.2728 I-0.5459 J-0.4695
G2 X-21.413 Y-7.1744 I0.7161 J0.6377
G2 X-21.5409 Y-6.9163 I0.9488 J0.6309
G3 X-21.541 Y-6.9159 I-0.6804 J-0.2356
G2 X-21.6065 Y-6.6951 I2.4016 J0.8331
G3 X-21.6113 Y-6.6771 I-0.6988 J-0.1734
G2 X-21.6247 Y-6.6223 I0.9254 J0.2554
G3 X-21.6315 Y-6.5932 I-0.7041 J-0.1505
G2 X-21.6535 Y-6.4986 I1.9713 J0.508
G3 X-22.1665 Y-5.9509 I-0.705 J-0.1462
G3 X-22.158 Y-5.9399 I-2.9164 J2.2759
G3 X-21.8991 Y-5.5592 I-2.5396 J2.0053
G3 X-21.8974 Y-5.5562 I-0.6227 J0.3615
G3 X-21.7025 Y-5.1891 I-5.4517 J3.13
G3 X-21.6378 Y-4.9834 I-0.6467 J0.3164
G2 X-21.6105 Y-4.8118 I28.2808 J-4.4028
G2 X-21.5805 Y-4.6418 I11.7854 J-1.9953
G2 X-21.5469 Y-4.4727 I6.2525 J-1.1549
G1 X-19.2009 Y6.5191
G1 X-17.3242 Y6.7731
G1 X-19.7422 Y-4.6083
G3 X-19.7998 Y-4.9261 I4.7497 J-1.0251
G3 X-19.8355 Y-5.2475 I3.6004 J-0.5619
G3 X-19.8456 Y-5.4088 I2.3625 J-0.2298
G3 X-19.849 Y-5.536 I1.8521 J-0.1126
G0 Z90.0
G0 X-26.5734 Y-6.6909
G1 F1.0 Z0.0
G2 F4.0 X-26.6471 Y-6.5969 I2.6326 J2.141
G1 X-26.6588 Y-6.5803
G2 X-26.6684 Y-6.5569 I0.1257 J0.0655
G3 X-26.6719 Y-6.5459 I-1.6043 J-0.4986
G2 X-26.712 Y-6.387 I1.2768 J0.4065
G3 X-26.7131 Y-6.3809 I-1.6511 J-0.3104
G2 X-26.7349 Y-6.2501 I2.6618 J0.5106
G3 X-26.5734 Y-6.6909 I2.2418 J0.5715
G0 Z90.0
G0 X-26.8159 Y-5.3655
G1 F1.0 Z0.0
G3 F4.0 X-26.8404 Y-5.2817 I-1.6246 J-0.4277
G3 X-26.8083 Y-5.2261 I-1.4397 J0.8658
G3 X-26.8159 Y-5.3655 I3.3289 J-0.2513
G1 F1.0 X-26.4961 Y-5.3762
G3 F4.0 X-26.4963 Y-5.3803 I3.0166 J-0.1012
G3 X-26.4982 Y-5.6232 I2.4907 J-0.1409
G3 X-26.4506 Y-6.0559 I2.6528 J0.0727
G3 X-26.2005 Y-6.7076 I1.9574 J0.3772
G3 X-26.1718 Y-6.7532 I1.1648 J0.702
G3 X-25.7768 Y-7.1971 I1.7144 J1.128
G2 X-26.0836 Y-7.206 I-0.2417 J3.0155
G3 X-26.0926 Y-7.2059 I-0.0293 J-1.3597
G2 X-26.3779 Y-7.1714 I0.0203 J1.3638
G2 X-26.5538 Y-7.1014 I0.1796 J0.7078
G2 X-26.6378 Y-7.0474 I0.848 J1.411
G3 X-26.6466 Y-7.0414 I-0.77 J-1.1211
G3 X-26.6582 Y-7.0328 I-0.8162 J-1.0879
G2 X-26.7879 Y-6.9338 I2.5031 J3.4115
G2 X-26.9058 Y-6.7854 I2.8471 J2.3839
G1 X-26.9289 Y-6.7526
G3 X-26.9311 Y-6.7493 I-1.113 J-0.7816
G3 X-26.9373 Y-6.738 I-1.1968 J-0.6459
G2 X-26.974 Y-6.6519 I0.4043 J0.2232
G3 X-26.9768 Y-6.6429 I-1.2987 J-0.4036
G2 X-27.0265 Y-6.4461 I1.5817 J0.5036
G3 X-27.0274 Y-6.4412 I-1.3366 J-0.2513
G2 X-27.0816 Y-5.8497 I2.976 J0.5709
G3 X-27.0806 Y-5.7931 I-1.5783 J0.0564
G3 X-27.1982 Y-5.24 I-1.36 J-0.0001
G3 X-26.9445 Y-4.6725 I-1.0819 J0.8241
G1 X-26.9385 Y-4.6413
G3 X-26.9365 Y-4.6305 I-1.3356 J0.2566
G1 X-26.9313 Y-4.6025
G2 X-26.9312 Y-4.6016 I0.17 J-0.0327
G1 X-24.6802 Y5.9452
G1 X-24.1503 Y6.017
G1 X-26.3793 Y-4.4745
G3 X-26.4438 Y-4.8296 I5.4348 J-1.1705
G3 X-26.4847 Y-5.1961 I4.2134 J-0.656
G3 X-26.4961 Y-5.3762 I3.0052 J-0.2813
G1 F1.0 X-26.1763 Y-5.3869
G3 F4.0 X-26.1766 Y-5.3945 I2.6968 J-0.0905
G3 X-26.1783 Y-5.6122 I2.171 J-0.1267
G3 X-26.1364 Y-5.9952 I2.333 J0.0618
G3 X-25.9265 Y-6.5424 I1.6433 J0.3165
G3 X-25.9045 Y-6.5773 I0.8908 J0.5368
G3 X-25.1352 Y-7.2193 I1.447 J0.9521
G3 X-24.8508 Y-7.3175 I0.8025 J1.8617
G2 X-24.9779 Y-7.3608 I-1.1483 J3.1634
G3 X-24.984 Y-7.3628 I0.3156 J-0.991
G2 X-26.0905 Y-7.526 I-1.0345 J3.1812
G3 X-26.0974 Y-7.5258 I-0.0224 J-1.0398
G2 X-26.453 Y-7.4824 I0.025 J1.6838
G2 X-26.7144 Y-7.3783 I0.2547 J1.0189
G2 X-26.819 Y-7.3112 I1.0085 J1.6878
G3 X-26.8323 Y-7.3022 I-0.5888 J-0.8573
G3 X-26.8475 Y-7.2908 I-0.6305 J-0.8271
G2 X-27.0122 Y-7.1641 I2.6924 J3.6695
G2 X-27.1646 Y-6.9736 I3.0715 J2.6142
G1 X-27.1907 Y-6.9365
G3 X-27.1967 Y-6.928 I-0.8511 J-0.5977
G2 X-27.2093 Y-6.9077 I0.1448 J0.1039
G3 X-27.2175 Y-6.8926 I-0.9187 J-0.4875
G2 X-27.2796 Y-6.7469 I0.6844 J0.3778
G3 X-27.2817 Y-6.74 I-0.9931 J-0.3087
G2 X-27.341 Y-6.5052 I1.8866 J0.6006
G3 X-27.3417 Y-6.5014 I-1.0221 J-0.1922
G2 X-27.4016 Y-5.8425 I3.2903 J0.6312
G3 X-27.4006 Y-5.7931 I-1.2583 J0.0492
G3 X-27.5869 Y-5.1992 I-1.04 J-0.0001
G3 X-27.5067 Y-5.1112 I-6.1582 J5.6967
G3 X-27.2588 Y-4.6121 I-0.7734 J0.6953
G1 X-27.2528 Y-4.5809
G3 X-27.2512 Y-4.5726 I-1.0213 J0.1963
G1 X-27.2459 Y-4.5437
G2 X-27.2445 Y-4.5365 I0.4846 J-0.0915
G1 X-24.9462 Y6.2322
G1 X-23.7428 Y6.395
G1 X-26.0663 Y-4.5415
G3 X-26.1274 Y-4.8777 I5.1219 J-1.1036
G3 X-26.1657 Y-5.2219 I3.8971 J-0.6079
G3 X-26.1763 Y-5.3869 I2.6862 J-0.2555
G1 F1.0 X-25.8565 Y-5.3977
G3 F4.0 X-25.8568 Y-5.4088 I2.377 J-0.0797
G3 X-25.8585 Y-5.6013 I1.8513 J-0.1124
G3 X-25.8222 Y-5.9344 I2.0132 J0.0508
G3 X-25.6524 Y-6.3773 I1.3291 J0.2557
G3 X-25.6372 Y-6.4014 I0.6167 J0.3716
G3 X-25.0093 Y-6.9251 I1.1797 J0.7762
G3 X-24.5788 Y-7.047 I0.6765 J1.5675
G3 X-24.1895 Y-7.0688 I0.3082 J2.0223
G3 X-23.687 Y-7.006 I-0.0384 J2.3518
G2 X-23.8507 Y-7.1408 I-2.6682 J3.0761
G2 X-24.3319 Y-7.4409 I-1.8452 J2.4229
G3 X-24.3346 Y-7.4422 I0.3225 J-0.6437
G2 X-24.8808 Y-7.6657 I-1.6644 J3.2881
G3 X-24.885 Y-7.6671 I0.2185 J-0.6861
G2 X-26.0973 Y-7.8459 I-1.1334 J3.4855
G3 X-26.1021 Y-7.8458 I-0.0155 J-0.7198
G2 X-26.5279 Y-7.7936 I0.0298 J2.0038
G2 X-26.8752 Y-7.6549 I0.3296 J1.33
G2 X-27.0002 Y-7.5749 I1.1693 J1.9645
G3 X-27.0172 Y-7.5636 I-0.4076 J-0.5935
G2 X-27.0189 Y-7.5624 I0.0123 J0.0191
G3 X-27.0368 Y-7.5488 I-0.4439 J-0.5669
G2 X-27.2227 Y-7.4054 I2.8817 J3.9275
G3 X-27.2355 Y-7.3952 I-0.4534 J-0.5593
G2 X-27.4236 Y-7.1617 I3.2948 J2.8454
G1 X-27.4526 Y-7.1203
G3 X-27.4567 Y-7.1145 I-0.5892 J-0.4138
G2 X-27.492 Y-7.0577 I0.4049 J0.2903
G3 X-27.4976 Y-7.0473 I-0.636 J-0.3375
G2 X-27.5852 Y-6.8418 I0.9646 J0.5324
G3 X-27.5867 Y-6.8371 I-0.6876 J-0.2137
G2 X-27.6554 Y-6.5643 I2.1916 J0.6977
G3 X-27.6559 Y-6.5617 I-0.7076 J-0.133
G2 X-27.7215 Y-5.8347 I3.6046 J0.6915
G1 X-27.7214 Y-5.8323
G3 X-27.7206 Y-5.7931 I-0.9385 J0.0391
G3 X-28.0288 Y-5.2026 I-0.72 J-0.0001
G3 X-28.0279 Y-5.2017 I-2.9009 J2.6649
G3 X-27.9068 Y-5.0724 I-3.433 J3.3363
G3 X-27.7446 Y-4.8972 I-5.8383 J5.5699
G3 X-27.573 Y-4.5517 I-0.5354 J0.4814
G1 X-27.567 Y-4.5205
G3 X-27.5659 Y-4.5148 I-0.7071 J0.1359
G1 X-27.5605 Y-4.4852
G2 X-27.5577 Y-4.4709 I0.7992 J-0.1501
G1 X-25.2121 Y6.5191
G1 X-23.3354 Y6.7731
G1 X-25.7534 Y-4.6084
G3 X-25.811 Y-4.9258 I4.809 J-1.0366
G3 X-25.8467 Y-5.2478 I3.5807 J-0.5598
G3 X-25.8565 Y-5.3977 I2.3672 J-0.2296
G0 Z90.0
G0 X-30.2439 Y-1.374
G1 F1.0 Z0.0
G2 F4.0 X-30.4131 Y-1.5484 I-3.1648 J2.9024
G2 X-30.4516 Y-1.5853 I-6.6916 J6.9348
G3 X-30.399 Y-1.5098 I-6.0867 J4.2973
G3 X-30.0982 Y-1.0115 I-3.4929 J2.4488
G3 X-30.0956 Y-1.0064 I-0.6403 J0.3292
G3 X-29.8726 Y-0.4647 I-3.4222 J1.7253
G3 X-29.8718 Y-0.4622 I-0.6848 J0.2224
G3 X-29.7315 Y0.0738 I-4.8524 J1.5561
G3 X-29.7307 Y0.078 I-0.7054 J0.1441
G3 X-29.6231 Y1.2004 I-5.5378 J1.0971
G3 X-29.6233 Y1.2151 I-0.72 J-0.0032
G1 X-29.6262 Y1.3317
G3 X-29.6265 Y1.3406 I-0.7198 J-0.0179
G3 X-29.6406 Y1.5171 I-2.0904 J-0.0778
G3 X-29.7238 Y1.8862 I-1.8556 J-0.2246
G3 X-29.7256 Y1.8913 I-0.6827 J-0.2287
G3 X-29.8744 Y2.1988 I-1.3492 J-0.4632
G3 X-29.9691 Y2.3268 I-0.9908 J-0.6344
G2 X-29.955 Y2.3211 I-0.7007 J-1.75
G3 X-29.9486 Y2.3185 I0.273 J0.6662
G3 X-29.9288 Y2.3094 I0.3095 J0.6501
G2 X-29.6521 Y2.1244 I-0.3841 J-0.874
G2 X-29.4727 Y1.8718 I-0.7134 J-0.6965
G3 X-29.4695 Y1.8654 I0.6447 J0.3206
G2 X-29.3416 Y1.5093 I-1.3338 J-0.6799
G2 X-29.2942 Y1.043 I-2.1933 J-0.4584
G3 Y1.034 I0.72 J-0.0025
G2 X-29.4391 Y0.0069 I-3.4885 J-0.0316
G2 X-29.8715 Y-0.9064 I-3.2921 J0.9996
G2 X-30.2439 Y-1.374 I-3.5371 J2.4349
G0 Z90.0
G0 X-36.055 Y-2.8325
G1 F1.0 Z0.0
G3 F4.0 X-36.0711 Y-2.9337 I7.615 J-1.2669
G3 X-36.1086 Y-3.1841 I7.8222 J-1.2995
G3 X-37.7296 Y-2.9052 I-1.1782 J-1.9985
G1 X-37.6278 Y-2.4271
G3 X-36.055 Y-2.8325 I1.3289 J1.9017
G1 F1.0 X-36.0886 Y-2.5143
G3 F4.0 X-35.6515 Y-2.4176 I-0.2103 J1.9889
G1 X-35.6684 Y-2.5016
G3 X-35.6725 Y-2.5228 I1.9607 J-0.3945
G1 X-35.71 Y-2.7204
G3 X-35.7102 Y-2.7212 I1.9649 J-0.3733
G3 X-35.7551 Y-2.984 I7.2701 J-1.3782
G3 X-35.7935 Y-3.2419 I7.5062 J-1.2491
G1 X-35.8126 Y-3.3847
G3 X-35.8173 Y-3.4219 I1.9823 J-0.2656
G1 X-35.834 Y-3.5678
G3 X-35.8342 Y-3.5694 I1.9869 J-0.2284
G3 X-35.8549 Y-3.7864 I5.8066 J-0.6628
G3 X-38.1584 Y-3.3825 I-1.432 J-1.3962
G1 X-37.8252 Y-1.8178
G3 X-36.0886 Y-2.5143 I1.5263 J1.2925
G1 F1.0 X-36.1223 Y-2.196
G3 F4.0 X-35.1834 Y-1.7815 I-0.1766 J1.6707
G3 X-35.1968 Y-1.8396 I3.8326 J-0.9125
G3 X-35.2207 Y-1.9433 I4.1081 J-1.0009
G3 X-35.2472 Y-2.0605 I4.5694 J-1.0958
G3 X-35.2769 Y-2.1936 I5.4699 J-1.2893
G3 X-35.3119 Y-2.3529 I8.4865 J-1.9531
G3 X-35.315 Y-2.3675 I1.644 J-0.3461
G1 X-35.3546 Y-2.5647
G3 X-35.3581 Y-2.5826 I1.647 J-0.3314
G1 X-35.3957 Y-2.7802
G3 X-35.3958 Y-2.7808 I1.6505 J-0.3136
G3 X-35.4391 Y-3.0344 I6.9557 J-1.3186
G3 X-35.4763 Y-3.284 I7.1902 J-1.1987
G1 X-35.4955 Y-3.4272
G3 X-35.4994 Y-3.4585 I1.6651 J-0.2231
G1 X-35.5161 Y-3.6043
G3 X-35.5163 Y-3.6057 I1.669 J-0.1919
G3 X-35.5398 Y-3.8662 I5.4886 J-0.6265
G3 X-35.5554 Y-4.0885 I8.275 J-0.692
G1 X-35.5738 Y-4.3909
G3 X-35.5749 Y-4.4106 I1.6769 J-0.102
G3 X-35.583 Y-4.6967 I6.9261 J-0.3397
G3 X-35.5198 Y-5.6492 I6.019 J-0.0792
G3 X-35.4015 Y-6.2019 I4.026 J0.5729
G2 X-35.4436 Y-6.1047 I0.7635 J0.3887
G3 X-35.4446 Y-6.1019 I-1.5797 J-0.5717
G2 X-35.516 Y-5.862 I1.9649 J0.715
G2 X-35.5515 Y-5.6664 I2.085 J0.4795
G3 X-35.5546 Y-5.6444 I-1.6651 J-0.2229
G2 X-35.5835 Y-5.3936 I3.9897 J0.5876
G3 X-35.5897 Y-5.3333 I-1.6741 J-0.1403
G3 X-35.5973 Y-5.2441 I-1.6771 J-0.0988
G2 X-35.5987 Y-5.2271 I0.2851 J0.0321
G3 X-35.6044 Y-5.152 I-1.6777 J-0.0886
G2 X-35.6098 Y-5.0831 I1.7951 J0.1757
G3 X-38.664 Y-4.2204 I-1.6771 J-0.0995
G1 X-37.9468 Y-0.8524
G3 X-36.1223 Y-2.196 I1.6479 J0.327
G0 Z90.0
G0 X-37.795 Y0.518
G1 F1.0 Z0.0
G3 F4.0 X-37.863 Y0.7618 I-1.6476 J-0.3284
G3 X-37.6978 Y0.9761 I-1.2436 J1.1296
G1 X-37.795 Y0.518
G1 F1.0 X-37.482 Y0.4516
G1 F4.0 X-37.6293 Y-0.2431
G3 X-35.0708 Y-1.1096 I1.3304 J-0.2822
G1 X-34.9657 Y-0.8887
G2 X-34.8732 Y-0.7039 I6.4369 J-3.1054
G3 X-34.8678 Y-0.6934 I-1.2073 J0.6261
G2 X-34.7708 Y-0.5096 I5.7225 J-2.9049
G3 X-34.7676 Y-0.5037 I-1.1921 J0.6545
G2 X-34.1542 Y0.4045 I4.9819 J-2.7033
G2 X-34.0796 Y0.4922 I3.6168 J-3.0003
G3 X-34.2712 Y0.0446 I10.2224 J-4.641
G3 X-34.6945 Y-1.1694 I11.1108 J-4.5544
G3 X-34.6957 Y-1.1736 I1.3063 J-0.3783
G3 X-34.8623 Y-1.8154 I12.9072 J-3.6927
G3 X-34.8851 Y-1.9122 I3.5114 J-0.8786
G3 X-34.9087 Y-2.0145 I3.7964 J-0.9283
G3 X-34.9349 Y-2.1305 I4.2575 J-1.0246
G3 X-34.9643 Y-2.2624 I5.1576 J-1.2192
G3 X-34.9988 Y-2.4188 I8.174 J-1.8843
G3 X-35.0012 Y-2.4307 I1.3308 J-0.2801
G1 X-35.0409 Y-2.6279
G3 X-35.0437 Y-2.6423 I1.3333 J-0.2683
G1 X-35.0813 Y-2.8399
G3 X-35.0814 Y-2.8404 I1.3361 J-0.2538
G3 X-35.1231 Y-3.0848 I6.6413 J-1.259
G3 X-35.1591 Y-3.326 I6.8742 J-1.1484
G1 X-35.1783 Y-3.4697
G3 X-35.1815 Y-3.495 I1.348 J-0.1806
G1 X-35.1982 Y-3.6409
G3 X-35.1984 Y-3.642 I1.3511 J-0.1553
G3 X-35.2207 Y-3.8901 I5.1707 J-0.5902
G3 X-35.2359 Y-4.1073 I7.9559 J-0.6681
G1 X-35.2544 Y-4.4104
G3 X-35.2552 Y-4.4263 I1.3575 J-0.0826
G3 X-35.263 Y-4.7 I6.6065 J-0.324
G3 X-35.2031 Y-5.6034 I5.699 J-0.0758
G3 X-35.0634 Y-6.2141 I3.7093 J0.5271
G3 X-35.0584 Y-6.2294 I1.2958 J0.413
G3 X-34.9627 Y-6.4763 I2.5402 J0.8429
G3 X-34.5516 Y-7.1189 I2.2584 J0.9919
G2 X-35.0235 Y-6.9576 I0.5813 J2.4708
G2 X-35.251 Y-6.832 I0.9507 J1.9917
G3 X-35.253 Y-6.8308 I-0.7261 J-1.15
G2 X-35.4055 Y-6.7149 I0.5763 J0.9163
G3 X-35.412 Y-6.7089 I-0.9157 J-1.0056
G2 X-35.65 Y-6.4138 I0.7948 J0.8844
G3 X-35.6554 Y-6.4044 I-1.1813 J-0.6739
G2 X-35.7445 Y-6.2136 I1.0174 J0.5912
G3 X-35.7453 Y-6.2113 I-1.2788 J-0.4628
G2 X-35.8277 Y-5.9342 I2.2656 J0.8244
G2 X-35.8687 Y-5.7088 I2.3967 J0.5517
G3 X-35.8712 Y-5.6911 I-1.348 J-0.1804
G2 X-35.9024 Y-5.4204 I4.3063 J0.6343
G3 X-35.9079 Y-5.3676 I-1.3552 J-0.1136
G2 X-35.9089 Y-5.3561 I0.1722 J0.0212
G3 X-35.9153 Y-5.2799 I-1.3579 J-0.0761
G2 X-35.9183 Y-5.244 I0.6031 J0.0679
G3 X-35.9229 Y-5.1832 I-1.3581 J-0.0717
G2 X-35.9292 Y-5.1021 I2.1136 J0.2069
G3 X-38.6173 Y-4.9004 I-1.3576 J-0.0805
G1 X-39.0777 Y-7.0714
G1 X-39.5984
G1 X-38.1124 Y-0.0937
G3 X-38.2469 Y0.8376 I-1.3302 J0.2833
G3 X-37.7769 Y1.6059 I-0.8597 J1.0538
G1 X-36.5411 Y7.3609
G1 X-36.0163
G1 X-37.482 Y0.4516
G1 F1.0 X-37.1689 Y0.3852
G1 F4.0 X-37.3163 Y-0.3095
G3 X-35.3598 Y-0.9722 I1.0174 J-0.2158
G1 X-35.2543 Y-0.7504
G2 X-35.1573 Y-0.5566 I6.7255 J-3.2437
G3 X-35.1532 Y-0.5485 I-0.9232 J0.4788
G2 X-35.0513 Y-0.3556 I6.0079 J-3.0497
G3 X-35.0488 Y-0.3511 I-0.9116 J0.5005
G2 X-34.4007 Y0.6086 I5.2632 J-2.8559
G2 X-34.0401 Y0.9992 I3.8632 J-3.2044
G3 X-34.0372 Y1.0021 I-0.7258 J0.7449
G2 X-33.6618 Y1.3209 I2.3919 J-2.4354
G3 X-33.6535 Y1.3271 I-0.6144 J0.8391
G2 X-33.4651 Y1.4564 I1.6936 J-2.2652
G3 X-33.4294 Y1.4799 I-0.5535 J0.8805
G2 X-33.411 Y1.4915 I0.1556 J-0.2262
G3 X-33.3887 Y1.5047 I-0.5196 J0.9009
G2 X-33.0698 Y1.6907 I4.766 J-7.8077
G1 X-33.0431 Y1.7052
G3 X-33.4537 Y1.0339 I5.4685 J-3.8064
G3 X-33.9748 Y-0.0759 I9.5965 J-5.1828
G3 X-34.3871 Y-1.2584 I10.8144 J-4.4339
G3 X-34.388 Y-1.2616 I0.9989 J-0.2893
G3 X-34.5512 Y-1.8906 I12.5995 J-3.6047
G3 X-34.5734 Y-1.9848 I3.2004 J-0.8034
G3 X-34.5967 Y-2.0858 I3.4847 J-0.8558
G3 X-34.6226 Y-2.2005 I3.9455 J-0.9533
G3 X-34.6518 Y-2.3312 I4.8454 J-1.1492
G3 X-34.6857 Y-2.4847 I7.8614 J-1.8155
G3 X-34.6875 Y-2.4938 I1.0177 J-0.2142
G1 X-34.7272 Y-2.691
G3 X-34.7294 Y-2.702 I1.0196 J-0.2051
G1 X-34.7669 Y-2.8996
G3 X-34.767 Y-2.9 I1.0217 J-0.1941
G3 X-34.8071 Y-3.1352 I6.3269 J-1.1994
G3 X-34.8418 Y-3.3681 I6.5582 J-1.098
G1 X-34.8611 Y-3.5122
G3 X-34.8636 Y-3.5316 I1.0308 J-0.1381
G1 X-34.8803 Y-3.6774
G3 X-34.8804 Y-3.6783 I1.0332 J-0.1188
G3 X-34.9016 Y-3.914 I4.8528 J-0.5539
G3 X-34.9165 Y-4.126 I7.6367 J-0.6442
G1 X-34.935 Y-4.4298
