( Made using CamBam - http://www.cambam.co.uk )
( reddit 2012-03-22 6:32:32 PM )
( T0 : 0.5 )
G20 G90 G64 G40
G0 Z90.0
( T0 : 0.5 )
T0 M6
( Pocket1 )
G17
M3 S1000
G0 X43.2979 Y2.5407
G1 F8.0 Z0.0
G1 X43.2977 Y2.4491
G1 X43.2963 Y2.2766
G1 X43.2929 Y2.1255
G2 X43.2778 Y1.8746 I-3.7544 J0.101
G2 X43.2521 Y1.7022 I-1.6439 J0.1571
G2 X43.1745 Y1.4681 I-1.0991 J0.2346
G3 X43.1711 Y1.4604 I0.2272 J-0.1042
G2 X43.1639 Y1.4452 I-0.1837 J0.0769
G3 X43.1622 Y1.4418 I0.2217 J-0.1156
G1 X43.1338 Y1.3853
G1 X43.1127 Y1.3457
G1 X43.0959 Y1.3152
G2 X43.0438 Y1.2245 I-3.5228 J1.9642
G3 X43.0429 Y1.223 I0.2151 J-0.1274
G2 X42.4949 Y0.5419 I-2.5319 J1.4764
G2 X41.3572 Y-0.0717 I-1.7794 J1.9375
G2 X40.71 Y-0.153 I-0.6583 J2.6249
G2 X40.0559 Y-0.0838 I-0.0131 J2.9999
G3 X40.0557 Y-0.0837 I-0.0534 J-0.2442
G2 X39.1505 Y0.3012 I0.5626 J2.5797
G2 X38.1911 Y1.4167 I1.5356 J2.2912
G2 X37.972 Y2.1243 I2.3967 J1.1299
G2 X37.9628 Y2.8606 I2.4959 J0.3995
G1 X37.9721 Y2.9246
G2 X38.0833 Y3.3991 I3.0968 J-0.4758
G3 X38.0835 Y3.3997 I-0.2382 J0.0758
G2 X38.4584 Y4.1564 I2.6184 J-0.826
G2 X39.4122 Y4.9612 I2.025 J-1.4323
G2 X40.0107 Y5.1636 I1.142 J-2.3906
G2 X40.6451 Y5.2264 I0.6061 J-2.8886
G3 X40.6455 I0.0024 J0.25
G2 X41.0179 Y5.2056 I-0.031 J-3.9122
G2 X41.6409 Y5.0686 I-0.2943 J-2.8232
G2 X42.4491 Y4.5929 I-0.7734 J-2.2382
G1 X42.4721 Y4.5722
G2 X42.7853 Y4.2332 I-1.9347 J-2.1019
G1 X42.8223 Y4.1852
G2 X43.0509 Y3.8429 I-2.9392 J-2.2105
G3 X43.0519 Y3.8414 I0.2153 J0.127
G2 X43.1354 Y3.6928 I-2.6372 J-1.5813
G1 X43.1533 Y3.658
G2 X43.2434 Y3.418 I-1.0154 J-0.5183
G2 X43.2763 Y3.2211 I-1.449 J-0.3432
G2 X43.2947 Y2.8899 I-4.0106 J-0.3894
G3 Y2.889 I0.25 J0.0036
G1 X43.2963 Y2.8015
G1 X43.2967 Y2.7702
G1 X43.2979 Y2.5407
G0 Z90.0
G0 X42.5278 Y2.5435
G1 Z0.0
G3 X42.3169 Y3.3839 I-1.7546 J0.0064
G1 Y3.3838
G1 Y3.3839
G3 X41.9935 Y3.821 I-1.693 J-0.9144
G3 X41.993 Y3.8215 I-0.32 J-0.3158
G3 X41.58 Y4.1469 I-1.5229 J-1.5083
G3 X41.1374 Y4.3424 I-0.9483 J-1.5475
G3 X41.1371 Y4.3425 I-0.1253 J-0.4318
G3 X40.2883 Y4.3762 I-0.4927 J-1.7032
G3 X40.2878 Y4.3761 I0.0903 J-0.4404
G3 X39.2264 Y3.7334 I0.3744 J-1.8159
G3 X39.226 Y3.7329 I0.3482 J-0.2845
G3 X38.8124 Y2.5622 I1.4264 J-1.1624
G3 X38.87 Y2.0835 I1.9592 J-0.0074
G3 X39.2587 Y1.3211 I1.826 J0.4508
G3 X40.376 Y0.6915 I1.4016 J1.181
G3 X40.3783 Y0.6911 I0.0697 J0.4442
G3 X41.0398 Y0.717 I0.2634 J1.737
G3 X41.0414 Y0.7173 I-0.1019 J0.4379
G3 X41.6398 Y0.9794 I-0.4183 J1.7694
G3 X41.9896 Y1.2689 I-1.2427 J1.8579
G3 X41.9909 Y1.2702 I-0.3203 J0.3155
G3 X42.247 Y1.5939 I-1.4203 J1.3869
G3 X42.5081 Y2.2882 I-1.5214 J0.9684
G3 X42.5084 Y2.2899 I-0.4444 J0.0683
G3 X42.5278 Y2.5435 I-1.7353 J0.26
G1 X42.3282 Y2.5443
G3 X42.1413 Y3.289 I-1.555 J0.0057
G3 X41.8514 Y3.6808 I-1.5173 J-0.8196
G3 X41.8511 Y3.6811 I-0.1779 J-0.1756
G3 X41.4761 Y3.9764 I-1.3811 J-1.3678
G3 X41.0818 Y4.1507 I-0.8444 J-1.3771
G3 X41.0816 Y4.1508 I-0.0697 J-0.2401
G3 X40.3284 Y4.1807 I-0.4372 J-1.5114
G3 X40.3281 Y4.1806 I0.0502 J-0.2449
G3 X39.381 Y3.6071 I0.3341 J-1.6204
G3 X39.3808 Y3.6068 I0.1936 J-0.1582
G3 X39.012 Y2.5623 I1.2717 J-1.0363
G3 X39.0637 Y2.1314 I1.7596 J-0.0075
G3 X39.4113 Y1.4498 I1.6323 J0.4029
G3 X40.4069 Y0.8887 I1.249 J1.0523
G3 X40.4082 Y0.8885 I0.0388 J0.247
G3 X40.9946 Y0.9114 I0.2335 J1.5396
G3 X40.9954 Y0.9116 I-0.0566 J0.2435
G3 X41.5285 Y1.1451 I-0.3724 J1.5752
G3 X41.8474 Y1.4089 I-1.1314 J1.6922
G3 X41.8481 Y1.4097 I-0.1781 J0.1754
G3 X42.0785 Y1.7009 I-1.2775 J1.2474
G3 X42.3109 Y2.3185 I-1.3529 J0.8614
G3 X42.311 Y2.3195 I-0.2471 J0.038
G3 X42.3282 Y2.5443 I-1.5379 J0.2304
G0 Z90.0
G0 X42.7278 Y2.5428
G1 Z0.0
G2 X42.7062 Y2.2603 I-1.9546 J0.0071
G2 X42.7058 Y2.2578 I-0.6424 J0.0963
G2 X42.4158 Y1.4866 I-1.9802 J0.3045
G2 X42.134 Y1.1305 I-1.8451 J1.1705
G2 X42.1321 Y1.1285 I-0.4648 J0.4538
G2 X41.7513 Y0.8134 I-1.7349 J1.7088
G2 X41.0874 Y0.5227 I-1.1282 J1.6734
G2 X41.0851 Y0.5222 I-0.1494 J0.6322
G2 X40.3483 Y0.4934 I-0.4434 J1.906
G2 X40.3449 Y0.4939 I0.0974 J0.6423
G2 X39.1058 Y1.1922 I0.3153 J2.0082
G2 X38.6758 Y2.0354 I1.5902 J1.3421
G2 X38.6124 Y2.5621 I2.0958 J0.5194
G2 X39.071 Y3.8592 I2.04 J0.0084
G2 X39.0715 Y3.8599 I0.5036 J-0.4104
G2 X40.2474 Y4.572 I1.5906 J-1.2997
G2 X40.2481 Y4.5721 I0.1312 J-0.6362
G2 X41.1927 Y4.5347 I0.3963 J-1.9328
G2 X41.1932 Y4.5345 I-0.1805 J-0.624
G2 X41.684 Y4.3177 I-0.5615 J-1.9351
G2 X42.1351 Y3.9623 I-1.214 J-2.0045
G2 X42.1359 Y3.9614 I-0.4615 J-0.4571
G2 X42.4929 Y3.4789 I-1.5119 J-1.492
G2 X42.7278 Y2.5428 I-1.7198 J-0.929
G1 X42.8979 Y2.5437
G1 Y2.5401
G1 X42.8977 Y2.4511
G1 X42.8963 Y2.2827
G1 X42.8931 Y2.1354
G2 X42.8796 Y1.9123 I-3.3545 J0.0911
G2 X42.8605 Y1.7839 I-1.2457 J0.1193
G2 X42.8109 Y1.6349 I-0.7075 J0.1529
G3 X42.8054 Y1.6227 I0.5908 J-0.271
G3 X42.8047 Y1.6212 I0.5802 J-0.2931
G1 X42.7785 Y1.569
G1 X42.7611 Y1.5363
G1 X42.7461 Y1.5092
G2 X42.6996 Y1.4283 I-3.173 J1.7702
G3 X42.6974 Y1.4245 I0.5593 J-0.3312
G2 X42.2242 Y0.8365 I-2.1864 J1.2749
G2 X41.2597 Y0.3162 I-1.5088 J1.6429
G2 X40.7084 Y0.247 I-0.5609 J2.237
G3 X40.7082 I0.0027 J-0.65
G2 X40.1413 Y0.307 I-0.0114 J2.5999
G3 X40.141 Y0.3071 I-0.1389 J-0.635
G2 X39.373 Y0.6336 I0.4774 J2.1889
G2 X38.5529 Y1.5872 I1.3131 J1.9588
G1 Y1.5873
G2 X38.3669 Y2.1877 I2.0349 J0.9593
G2 X38.3589 Y2.8052 I2.101 J0.336
G1 X38.3677 Y2.8654
G2 X38.4645 Y3.2777 I2.7012 J-0.4166
G3 X38.465 Y3.2793 I-0.6194 J0.1971
G2 X38.7851 Y3.9256 I2.237 J-0.7057
G2 X39.5848 Y4.6004 I1.6983 J-1.2015
G2 X40.0927 Y4.7721 I0.9694 J-2.0298
G3 X40.0928 Y4.7722 I-0.1333 J0.6362
G2 X40.6412 Y4.8264 I0.5239 J-2.4971
G3 X40.6423 I0.0062 J0.65
G2 X40.9766 Y4.8078 I-0.0279 J-3.5122
G2 X41.511 Y4.6903 I-0.2529 J-2.4254
G2 X42.1815 Y4.2956 I-0.6434 J-1.8599
G1 X42.2026 Y4.2766
G2 X42.4696 Y3.9875 I-1.6652 J-1.8063
G1 X42.5041 Y3.9429
G2 X42.7064 Y3.6397 I-2.621 J-1.9682
G3 X42.7088 Y3.6356 I0.5599 J0.3302
G2 X42.7804 Y3.5084 I-2.2942 J-1.3756
G1 X42.7971 Y3.476
G2 X42.8548 Y3.323 I-0.6592 J-0.3363
G2 X42.8782 Y3.1821 I-1.0604 J-0.2482
G2 X42.8948 Y2.8841 I-3.6125 J-0.3504
G3 Y2.8816 I0.6499 J0.0094
G1 X42.8964 Y2.7953
G1 X42.8968 Y2.7666
G1 X42.8979 Y2.5437
G1 X43.0979 Y2.5447
G1 X43.0967 Y2.7684
G1 X43.0964 Y2.7984
G1 X43.0948 Y2.8853
G2 X43.0947 Y2.887 I0.4499 J0.0083
G3 X43.0772 Y3.2016 I-3.829 J-0.0554
G3 X43.0491 Y3.3705 I-1.2829 J-0.1268
G3 X42.9752 Y3.567 I-0.9112 J-0.2308
G1 X42.9579 Y3.6006
G3 X42.8803 Y3.7385 I-2.5433 J-1.3406
G2 X42.8787 Y3.7413 I0.3859 J0.2314
G3 X42.6632 Y4.064 I-2.9956 J-1.7666
G1 X42.6275 Y4.1104
G3 X42.3374 Y4.4244 I-2.0901 J-1.6401
G1 X42.3153 Y4.4443
G3 X41.576 Y4.8795 I-1.4477 J-1.6138
G3 X40.9973 Y5.0067 I-0.8523 J-2.4971
G3 X40.6439 Y5.0264 I-0.3828 J-3.6925
G2 X40.6432 I0.0036 J0.45
G3 X40.0518 Y4.9679 I-0.0264 J-2.7514
G1 X40.0517
G3 X39.4985 Y4.7808 I0.5025 J-2.3973
G3 X38.6218 Y4.041 I0.9849 J-2.0567
G3 X38.2742 Y3.3395 I2.0802 J-1.4674
G2 X38.2739 Y3.3384 I-0.4292 J0.1354
G3 X38.1699 Y2.895 I2.795 J-0.8896
G1 X38.1608 Y2.8329
G3 X38.1694 Y2.156 I2.3071 J-0.3092
G3 X38.372 Y1.502 I2.4183 J0.3905
G1 Y1.5019
G3 X39.2618 Y0.4674 I2.3141 J1.0905
G3 X40.0983 Y0.1117 I1.3565 J2.0285
G2 X40.0986 Y0.1116 I-0.0959 J-0.4397
G3 X40.7091 Y0.047 I0.5982 J2.7353
G2 X40.7092 I0.002 J-0.45
G3 X41.3084 Y0.1222 I-0.0104 J2.5062
G3 X42.3595 Y0.6892 I-0.593 J2.3572
G3 X42.8702 Y1.3238 I-1.8485 J2.0102
G2 X42.8717 Y1.3264 I0.3887 J-0.2267
G3 X42.921 Y1.4122 I-3.2986 J1.953
G1 X42.9369 Y1.441
G1 X42.9562 Y1.4772
G1 X42.9834 Y1.5315
G2 X42.9866 Y1.5377 I0.4022 J-0.2019
G2 X42.9927 Y1.5515 I0.4151 J-0.1738
G3 X43.0563 Y1.743 I-0.8397 J0.3852
G3 X43.0787 Y1.8935 I-1.4224 J0.2886
G3 X43.093 Y2.1304 I-3.5401 J0.3331
G1 X43.0963 Y2.2797
G1 X43.0977 Y2.4501
G1 X43.0979 Y2.5404
G1 Y2.5447
G0 Z90.0
G0 X40.7706 Y-3.0136
G1 Z0.0
G1 X40.7708 Y-3.0163
G2 X40.795 Y-3.4399 I-14.0419 J-1.0162
G3 X40.7952 Y-3.4435 I1.2489 J0.0526
G1 X40.7976 Y-3.4976
G1 X40.8066 Y-3.7173
G1 X40.8143 Y-3.9336
G1 X40.8211 Y-4.1469
G1 X40.8327 Y-4.5718
G1 X40.8421 Y-4.986
G3 X40.8429 Y-5.0087 I1.2497 J0.0285
G3 X40.8431 Y-5.0331 I1.25 J0.0007
G2 X40.868 Y-6.6317 I-177.9946 J-3.5712
G3 Y-6.6321 I1.2499 J0.0138
G2 X40.8863 Y-9.4373 I-288.6449 J-3.2793
G1 X40.887 Y-9.9646
G1 Y-10.4582
G1 X40.8864 Y-10.9211
G1 X40.8859 Y-11.1379
G1 X40.8853 Y-11.3474
G1 X40.8817 Y-12.1624
G1 X40.8795 Y-12.5184
G1 X40.8789 Y-12.601
G1 X40.8735 Y-13.26
G3 Y-13.2612 I1.25 J-0.0102
G2 X40.8676 Y-13.8304 I-87.7605 J0.6354
G3 X40.8675 Y-13.8323 I1.2499 J-0.0172
G1 X40.8645 Y-14.0838
G1 X40.8579 Y-14.5549
G1 X40.8512 Y-14.9678
G3 Y-14.9685 I1.2498 J-0.0204
G2 X40.8173 Y-16.3991 I-90.4866 J1.4245
G3 Y-16.4007 I1.2494 J-0.0394
G2 X40.805 Y-16.7491 I-34.6524 J1.0488
G1 X40.7935 Y-17.0154
G1 X40.7887 Y-17.1134
G3 X40.7886 Y-17.116 I1.2485 J-0.0616
G2 X40.7709 Y-17.4054 I-10.6392 J0.5027
G2 X40.7684 Y-17.4064 I-0.0822 J0.2178
G3 X40.7621 Y-17.4086 I0.4275 J-1.1746
G2 X40.5968 Y-17.4316 I-0.1347 J0.3642
G2 X40.581 Y-17.4295 I0.0222 J0.2373
G2 X40.58 Y-17.4067 I2.8544 J0.1272
G3 X40.5797 Y-17.3986 I-1.2492 J-0.0456
G1 X40.575 Y-17.2889
G1 X40.5673 Y-17.0725
G1 X40.5611 Y-16.8622
G1 X40.5514 Y-16.4459
G1 X40.5477 Y-16.252
G1 X40.5414 Y-15.8716
G2 X40.5171 Y-13.0078 I268.8218 J3.7157
G3 Y-13.0069 I-1.25 J-0.004
G1 X40.5157 Y-12.6476
G1 X40.5138 Y-12.0189
G1 X40.5128 Y-11.5477
G1 X40.5119 Y-10.8403
G1 X40.5116 Y-10.1328
G1 X40.5118 Y-9.1645
G1 X40.5132 Y-7.4701
G1 X40.5165 Y-6.2002
G1 X40.5186 Y-5.7241
G3 Y-5.7233 I-1.25 J0.0056
G2 X40.5353 Y-4.0711 I131.2482 J-0.501
G1 X40.5395 Y-3.8663
G1 X40.5416 Y-3.7767
G3 X40.5417 Y-3.7728 I-1.2497 J0.0293
G2 X40.5512 Y-3.4532 I16.8466 J-0.3418
G3 X40.5515 Y-3.4434 I-1.249 J0.0491
G2 X40.5749 Y-3.0027 I10.1763 J-0.3194
G2 X40.7706 Y-3.0136 I0.0766 J-0.3842
G1 X40.9699 Y-2.9973
G1 X40.9702 Y-3.0009
G2 X40.9948 Y-3.4315 I-14.2413 J-1.0315
G3 X40.995 Y-3.4345 I1.0491 J0.0442
G1 X40.9974 Y-3.489
G1 X41.0065 Y-3.7096
G1 X41.0142 Y-3.9268
G1 X41.021 Y-4.141
G1 X41.0326 Y-4.5668
G1 X41.0421 Y-4.9815
G3 X41.0428 Y-5.0038 I1.0497 J0.0239
G2 X41.0429 Y-5.0053 I-0.0322 J-0.0014
G3 X41.0431 Y-5.0291 I1.05 J-0.0027
G2 X41.068 Y-6.6295 I-178.1945 J-3.5752
G3 Y-6.6298 I1.0499 J0.0116
G2 X41.0863 Y-9.437 I-288.8449 J-3.2815
G1 X41.087 Y-9.9645
G1 Y-10.4583
G1 X41.0864 Y-10.9215
G1 X41.0859 Y-11.1384
G1 X41.0853 Y-11.3482
G1 X41.0817 Y-12.1635
G1 X41.0795 Y-12.5197
G1 X41.0789 Y-12.6025
G1 X41.0735 Y-13.2616
G3 Y-13.2626 I1.05 J-0.0086
G2 X41.0675 Y-13.8331 I-87.9605 J0.6368
G3 Y-13.8347 I1.0499 J-0.0144
G1 X41.0645 Y-14.0864
G1 X41.0579 Y-14.5579
G1 X41.0511 Y-14.971
G3 Y-14.9717 I1.0499 J-0.0171
G2 X41.0172 Y-16.4054 I-90.6866 J1.4276
G3 Y-16.4067 I1.0495 J-0.0331
G2 X41.0048 Y-16.7574 I-34.8523 J1.0548
G1 X40.9933 Y-17.0246
G1 X40.9884 Y-17.1232
G3 X40.9883 Y-17.1254 I1.0487 J-0.0517
G2 X40.9681 Y-17.4506 I-10.839 J0.5121
G3 X40.9679 Y-17.4529 I1.0469 J-0.081
G2 X40.9621 Y-17.523 I-4.2868 J0.3223
G2 X40.9568 Y-17.5274 I-0.1434 J0.1664
G2 X40.8368 Y-17.5943 I-0.2681 J0.3397
G3 X40.8315 Y-17.5962 I0.3591 J-0.9867
G2 X40.5797 Y-17.6308 I-0.2041 J0.5518
G2 X40.4785 Y-17.6095 I0.0393 J0.4366
G2 X40.4239 Y-17.5823 I0.0781 J0.2252
G2 X40.4083 Y-17.569 I0.1001 J0.1337
G3 X40.4061 Y-17.567 I-0.727 J-0.7576
G2 X40.3876 Y-17.5485 I0.4087 J0.4284
G1 X40.3847 Y-17.5024
G3 X40.3846 Y-17.5004 I-1.0479 J-0.066
G2 X40.3802 Y-17.414 I3.0508 J0.198
G3 X40.3799 Y-17.4072 I-1.0493 J-0.0383
G1 X40.3751 Y-17.2968
G1 X40.3674 Y-17.0789
G1 X40.3612 Y-16.8674
G1 X40.3515 Y-16.4501
G1 X40.3478 Y-16.2556
G1 X40.3415 Y-15.8746
G2 X40.3171 Y-13.0085 I269.0217 J3.7187
G3 Y-13.0077 I-1.05 J-0.0033
G1 X40.3157 Y-12.6483
G1 X40.3138 Y-12.0195
G1 X40.3128 Y-11.548
G1 X40.3119 Y-10.8405
G1 X40.3116 Y-10.1328
G1 X40.3118 Y-9.1644
G1 X40.3132 Y-7.4697
G1 X40.3165 Y-6.1995
G1 X40.3186 Y-5.7232
G3 Y-5.7226 I-1.05 J0.0047
G2 X40.3354 Y-4.0674 I131.4482 J-0.5018
G1 X40.3395 Y-3.8619
G1 X40.3416 Y-3.772
G3 X40.3417 Y-3.7687 I-1.0497 J0.0246
G2 X40.3513 Y-3.4454 I17.0466 J-0.3459
G3 X40.3516 Y-3.4371 I-1.0492 J0.0412
G2 X40.3765 Y-2.9751 I10.3762 J-0.3257
G1 X40.3812 Y-2.9216
G1 X40.3834 Y-2.8984
G3 X40.3841 Y-2.8906 I-1.0451 J0.1018
G2 X40.3865 Y-2.867 I1.1953 J-0.1075
G2 X40.4242 Y-2.8439 I0.1512 J-0.2044
G3 X40.4271 Y-2.8424 I-0.4688 J0.9396
G2 X40.4987 Y-2.8152 I0.1682 J-0.3344
G1 X40.4988
G2 X40.8608 Y-2.8333 I0.1528 J-0.5717
G3 X40.8618 Y-2.8337 I0.3713 J0.9822
G2 X40.9613 Y-2.8928 I-0.1171 J-0.3106
G1 X40.9616 Y-2.896
G1 X40.9699 Y-2.9973
G1 X41.1692 Y-2.981
G1 X41.1696 Y-2.9856
G2 X41.1947 Y-3.423 I-14.4407 J-1.0469
G3 X41.1948 Y-3.4255 I0.8492 J0.0358
G1 X41.1973 Y-3.4804
G1 X41.2063 Y-3.702
G1 X41.2141 Y-3.9201
G1 X41.2209 Y-4.1351
G1 X41.2326 Y-4.5618
G1 X41.242 Y-4.9769
G3 X41.2426 Y-4.995 I0.8498 J0.0194
G2 X41.2429 Y-5.0058 I-0.232 J-0.0102
G3 X41.243 Y-5.0251 I0.85 J-0.0022
G2 X41.268 Y-6.6273 I-178.3945 J-3.5792
G3 Y-6.6275 I0.8499 J0.0094
G2 X41.2863 Y-9.4367 I-289.0449 J-3.2838
G1 X41.287 Y-9.9643
G1 Y-10.4585
G1 X41.2864 Y-10.9219
G1 X41.2859 Y-11.1389
G1 X41.2853 Y-11.3489
G1 X41.2817 Y-12.1646
G1 X41.2795 Y-12.521
G1 X41.2789 Y-12.604
G1 X41.2735 Y-13.2633
G3 Y-13.2641 I0.85 J-0.0069
G2 X41.2675 Y-13.8359 I-88.1605 J0.6383
G3 Y-13.8372 I0.8499 J-0.0117
G1 X41.2644 Y-14.089
G1 X41.2579 Y-14.5609
G1 X41.2511 Y-14.9743
G3 Y-14.9748 I0.8499 J-0.0139
G2 X41.2171 Y-16.4117 I-90.8866 J1.4308
G3 Y-16.4128 I0.8496 J-0.0268
G2 X41.2046 Y-16.7657 I-35.0522 J1.0609
G1 X41.1931 Y-17.0338
G1 X41.1882 Y-17.1331
G3 X41.1881 Y-17.1349 I0.849 J-0.0419
G2 X41.1675 Y-17.4661 I-11.0388 J0.5216
G3 X41.1673 Y-17.4679 I0.8475 J-0.0656
G2 X41.1546 Y-17.608 I-4.4863 J0.3373
G2 X41.1461 Y-17.6191 I-0.1985 J0.1434
G3 X41.1449 Y-17.6206 I0.6595 J-0.5363
G2 X41.0816 Y-17.6837 I-0.3262 J0.264
G2 X40.9052 Y-17.7822 I-0.3928 J0.496
G3 X40.9009 Y-17.7838 I0.2907 J-0.7987
G2 X40.5626 Y-17.8301 I-0.2735 J0.7393
G2 X40.4138 Y-17.7987 I0.0564 J0.6359
G2 X40.3084 Y-17.7456 I0.1428 J0.4145
G2 X40.2698 Y-17.7133 I0.2155 J0.2971
G3 X40.2681 Y-17.7117 I-0.5885 J-0.6133
G2 X40.1922 Y-17.6282 I0.5468 J0.5731
G1 X40.1851 Y-17.515
G3 X40.185 Y-17.5134 I-0.8483 J-0.0535
G2 X40.1803 Y-17.4213 I3.2504 J0.211
G3 X40.1801 Y-17.4158 I-0.8494 J-0.031
G1 X40.1753 Y-17.3046
G1 X40.1675 Y-17.0854
G1 X40.1613 Y-16.8726
G1 X40.1515 Y-16.4543
G1 X40.1478 Y-16.2591
G1 X40.1415 Y-15.8776
G2 X40.1171 Y-13.0091 I269.2217 J3.7218
G3 Y-13.0085 I-0.85 J-0.0027
G1 X40.1157 Y-12.649
G1 X40.1138 Y-12.02
G1 X40.1128 Y-11.5484
G1 X40.1119 Y-10.8406
G1 X40.1116 Y-10.1328
G1 X40.1118 Y-9.1643
G1 X40.1133 Y-7.4694
G1 X40.1165 Y-6.1988
G1 X40.1186 Y-5.7224
G3 Y-5.7218 I-0.85 J0.0038
G2 X40.1354 Y-4.0637 I131.6481 J-0.5026
G1 X40.1396 Y-3.8576
G1 X40.1417 Y-3.7673
G3 X40.1418 Y-3.7647 I-0.8498 J0.0199
G2 X40.1515 Y-3.4375 I17.2465 J-0.3499
G3 X40.1517 Y-3.4308 I-0.8493 J0.0334
G2 X40.1771 Y-2.9588 I10.5761 J-0.332
G1 X40.182 Y-2.9031
G1 X40.1844 Y-2.879
G3 X40.1849 Y-2.8727 I-0.846 J0.0824
G2 X40.1977 Y-2.772 I1.3945 J-0.1254
G2 X40.239 Y-2.7292 I0.28 J-0.2284
G2 X40.3349 Y-2.6649 I0.2987 J-0.3422
G3 X40.3373 Y-2.6637 I-0.3795 J0.7606
G2 X40.447 Y-2.622 I0.258 J-0.5131
G1 X40.4471 Y-2.6219
G2 X40.9315 Y-2.6462 I0.2044 J-0.7649
G3 X40.9323 Y-2.6465 I0.3005 J0.7951
G2 X41.1 Y-2.7484 I-0.1876 J-0.4978
G2 X41.1543 Y-2.8125 I-0.226 J-0.2469
G2 X41.1559 Y-2.8272 I-1.5937 J-0.176
G1 X41.1608 Y-2.8782
G1 X41.1692 Y-2.981
G1 X41.3686 Y-2.9647
G1 X41.369 Y-2.9702
G2 X41.3945 Y-3.4146 I-14.6402 J-1.0623
G3 X41.3946 Y-3.4165 I0.6494 J0.0274
G1 X41.3971 Y-3.4718
G1 X41.4062 Y-3.6943
G1 X41.414 Y-3.9134
G1 X41.4209 Y-4.1292
G1 X41.4325 Y-4.5568
G1 X41.442 Y-4.9723
G3 X41.4424 Y-4.9862 I0.6498 J0.0148
G2 X41.4429 Y-5.0064 I-0.4319 J-0.0191
G3 X41.443 Y-5.0211 I0.65 J-0.0017
G2 X41.468 Y-6.6251 I-178.5945 J-3.5832
G3 Y-6.6253 I0.65 J0.0072
G2 X41.4863 Y-9.4364 I-289.2449 J-3.2861
G1 X41.487 Y-9.9642
G1 Y-10.4586
G1 X41.4864 Y-10.9222
G1 X41.4859 Y-11.1394
G1 X41.4853 Y-11.3496
G1 X41.4817 Y-12.1656
G1 X41.4795 Y-12.5223
G1 X41.4789 Y-12.6055
G1 X41.4735 Y-13.2649
G3 Y-13.2655 I0.65 J-0.0053
G2 X41.4675 Y-13.8386 I-88.3605 J0.6397
G3 Y-13.8396 I0.6499 J-0.0089
G1 X41.4644 Y-14.0917
G1 X41.4578 Y-14.5639
G1 X41.4511 Y-14.9776
G3 Y-14.978 I0.6499 J-0.0106
G2 X41.417 Y-16.418 I-91.0865 J1.4339
G3 Y-16.4188 I0.6497 J-0.0205
G2 X41.4044 Y-16.774 I-35.2521 J1.0669
G1 X41.3929 Y-17.0431
G1 X41.388 Y-17.143
G3 X41.3879 Y-17.1443 I0.6492 J-0.032
G2 X41.3669 Y-17.4815 I-11.2386 J0.531
G3 X41.3668 Y-17.4829 I0.6481 J-0.0502
G2 X41.3528 Y-17.6358 I-4.6857 J0.3523
G1 X41.348 Y-17.6751
G2 X41.3013 Y-17.7453 I-0.3919 J0.2105
G3 X41.3003 Y-17.7464 I0.5043 J-0.4101
G2 X41.2063 Y-17.84 I-0.4817 J0.3898
G2 X40.9736 Y-17.9702 I-0.5176 J0.6524
G3 X40.9703 Y-17.9714 I0.2223 J-0.6108
G2 X40.5456 Y-18.0294 I-0.3429 J0.9269
G2 X40.349 Y-17.9879 I0.0735 J0.8352
G2 X40.1931 Y-17.9091 I0.2075 J0.6037
G2 X40.1313 Y-17.8576 I0.3308 J0.4605
G3 X40.13 Y-17.8564 I-0.45 J-0.469
G2 X40.0226 Y-17.7358 I0.6849 J0.7178
G3 X40.0223 Y-17.7353 I-0.5191 J-0.3913
G3 X40.0201 Y-17.7323 I-0.5237 J-0.385
G2 X39.9971 Y-17.6992 I0.4852 J0.3609
G2 X39.9929 Y-17.6454 I1.7282 J0.1629
G1 X39.9855 Y-17.5275
G3 X39.9854 Y-17.5263 I-0.6487 J-0.0409
G2 X39.9804 Y-17.4286 I3.45 J0.2239
G3 X39.9803 Y-17.4244 I-0.6496 J-0.0237
G1 X39.9755 Y-17.3125
G1 X39.9676 Y-17.0919
G1 X39.9613 Y-16.8779
G1 X39.9516 Y-16.4586
G1 X39.9478 Y-16.2627
G1 X39.9415 Y-15.8807
G2 X39.9171 Y-13.0097 I269.4217 J3.7248
G3 Y-13.0092 I-0.65 J-0.0021
G1 X39.9157 Y-12.6497
G1 X39.9138 Y-12.0205
G1 X39.9128 Y-11.5487
G1 X39.9119 Y-10.8408
G1 X39.9116 Y-10.1328
G1 X39.9118 Y-9.1642
G1 X39.9133 Y-7.4691
G1 X39.9165 Y-6.1981
G1 X39.9186 Y-5.7215
G3 Y-5.721 I-0.65 J0.0029
G2 X39.9354 Y-4.0601 I131.8481 J-0.5033
G1 X39.9396 Y-3.8532
G1 X39.9417 Y-3.7627
G3 X39.9418 Y-3.7606 I-0.6498 J0.0152
G2 X39.9517 Y-3.4297 I17.4465 J-0.354
G3 X39.9518 Y-3.4245 I-0.6495 J0.0255
G2 X39.9778 Y-2.9424 I10.776 J-0.3383
G1 X39.9829 Y-2.8847
G1 X39.9853 Y-2.8596
G3 X39.9857 Y-2.8548 I-0.6469 J0.063
G2 X40.005 Y-2.7128 I1.5937 J-0.1433
G1 X40.0098 Y-2.6903
G2 X40.1071 Y-2.5788 I0.4679 J-0.3101
G2 X40.2456 Y-2.4859 I0.4306 J-0.4926
G3 X40.2474 Y-2.485 I-0.2902 J0.5816
G2 X40.3954 Y-2.4287 I0.3479 J-0.6918
G1 X40.3955
G2 X41.0022 Y-2.4592 I0.256 J-0.9581
G3 X41.0028 Y-2.4594 I0.2298 J0.608
G2 X41.2342 Y-2.6001 I-0.2581 J-0.6849
G2 X41.3482 Y-2.7483 I-0.3603 J-0.3951
G2 X41.3488 Y-2.7532 I-0.2927 J-0.036
G3 X41.3501 Y-2.7652 I0.6464 J0.0685
G2 X41.3549 Y-2.8075 I-1.7895 J-0.2233
G1 X41.36 Y-2.8604
G1 X41.3686 Y-2.9647
G1 X41.5679 Y-2.9485
G1 X41.5684 Y-2.9548
G2 X41.5943 Y-3.4062 I-14.8396 J-1.0777
G3 X41.5944 Y-3.4075 I0.4496 J0.0189
G1 X41.5969 Y-3.4632
G1 X41.606 Y-3.6866
G1 X41.6139 Y-3.9066
G1 X41.6208 Y-4.1233
G1 X41.6324 Y-4.5518
G1 X41.6419 Y-4.9678
G3 X41.6423 Y-4.9774 I0.4499 J0.0103
G2 X41.6429 Y-5.0069 I-0.6317 J-0.0279
G3 X41.643 Y-5.0171 I0.45 J-0.0012
G2 X41.668 Y-6.6229 I-178.7944 J-3.5872
G3 Y-6.623 I0.45 J0.005
G2 X41.6863 Y-9.4361 I-289.4449 J-3.2884
G1 X41.687 Y-9.9641
G1 Y-10.4587
G1 X41.6864 Y-10.9226
G1 X41.6859 Y-11.1399
G1 X41.6853 Y-11.3503
G1 X41.6817 Y-12.1667
G1 X41.6795 Y-12.5236
G1 X41.6789 Y-12.607
G1 X41.6735 Y-13.2665
G3 Y-13.2669 I0.45 J-0.0037
G2 X41.6675 Y-13.8414 I-88.5605 J0.6412
G3 Y-13.8421 I0.45 J-0.0062
G1 X41.6644 Y-14.0943
G1 X41.6578 Y-14.567
G1 X41.6511 Y-14.9808
G3 Y-14.9811 I0.4499 J-0.0073
G2 X41.6169 Y-16.4243 I-91.2865 J1.4371
G3 Y-16.4249 I0.4498 J-0.0142
G2 X41.6043 Y-16.7824 I-35.452 J1.073
G1 X41.5927 Y-17.0523
G1 X41.5877 Y-17.1528
G3 Y-17.1537 I0.4495 J-0.0222
G2 X41.5663 Y-17.4969 I-11.4383 J0.5404
G3 X41.5662 Y-17.4979 I0.4487 J-0.0347
G2 X41.5515 Y-17.6585 I-4.8851 J0.3673
G1 X41.5464 Y-17.7004
G3 X41.5462 Y-17.7025 I0.4468 J-0.0538
G2 X41.5413 Y-17.7356 I-0.5223 J0.0604
G2 X41.4565 Y-17.8714 I-0.5851 J0.271
G3 X41.4558 Y-17.8723 I0.3491 J-0.2839
G2 X41.331 Y-17.9964 I-0.6371 J0.5157
G2 X41.042 Y-18.1581 I-0.6423 J0.8087
G3 X41.0397 Y-18.1589 I0.1539 J-0.4229
G2 X40.5285 Y-18.2286 I-0.4123 J1.1145
G2 X40.2843 Y-18.1772 I0.0905 J1.0344
G2 X40.0779 Y-18.0725 I0.2722 J0.7929
G2 X39.9929 Y-18.002 I0.4461 J0.624
G3 X39.9919 Y-18.0011 I-0.3116 J-0.3247
G2 X39.8629 Y-17.8561 I0.8229 J0.8625
G3 X39.8619 Y-17.8548 I-0.3593 J-0.2709
G3 X39.8596 Y-17.8517 I-0.3633 J-0.2655
G2 X39.8135 Y-17.7824 I0.6457 J0.4803
G1 Y-17.7825
G1 Y-17.7824
G2 X39.8027 Y-17.7625 I0.2532 J0.1504
G3 X39.8019 Y-17.7549 I-0.4479 J-0.0432
G2 X39.7933 Y-17.658 I1.9235 J0.2186
G1 Y-17.6579
G1 X39.7859 Y-17.5401
G3 X39.7858 Y-17.5393 I-0.4491 J-0.0283
G2 X39.7806 Y-17.4359 I3.6495 J0.2369
G3 X39.7805 Y-17.433 I-0.4497 J-0.0164
G1 X39.7756 Y-17.3204
G1 X39.7677 Y-17.0984
G1 X39.7614 Y-16.8831
G1 X39.7516 Y-16.4628
G1 X39.7478 Y-16.2663
G1 X39.7415 Y-15.8837
G2 X39.7171 Y-13.0104 I269.6217 J3.7278
G3 Y-13.01 I-0.45 J-0.0014
G1 X39.7157 Y-12.6503
G1 X39.7138 Y-12.021
G1 X39.7128 Y-11.5491
G1 X39.7119 Y-10.841
G1 X39.7116 Y-10.1329
G1 X39.7118 Y-9.1641
G1 X39.7133 Y-7.4687
G1 X39.7165 Y-6.1974
G1 X39.7186 Y-5.7206
G3 Y-5.7203 I-0.45 J0.002
G2 X39.7355 Y-4.0564 I132.0481 J-0.5041
G1 X39.7397 Y-3.8488
G1 X39.7418 Y-3.758
G3 Y-3.7566 I-0.4499 J0.0105
G2 X39.7518 Y-3.4218 I17.6464 J-0.3581
G3 X39.7519 Y-3.4183 I-0.4497 J0.0177
G2 X39.7784 Y-2.9261 I10.9759 J-0.3445
G1 X39.7837 Y-2.8662
G1 X39.7862 Y-2.8402
G3 X39.7866 Y-2.8368 I-0.4479 J0.0436
G2 X39.8087 Y-2.6739 I1.7928 J-0.1612
G1 X39.8168 Y-2.6361
G2 X39.8248 Y-2.6087 I0.4764 J-0.1242
G2 X39.9753 Y-2.4283 I0.6529 J-0.3917
G2 X40.1563 Y-2.307 I0.5624 J-0.6431
G3 X40.1576 Y-2.3063 I-0.2009 J0.4027
G2 X40.3438 Y-2.2355 I0.4377 J-0.8705
G1 X40.3439
G2 X41.0729 Y-2.2721 I0.3077 J-1.1513
G3 X41.0734 Y-2.2722 I0.1591 J0.4209
G2 X41.3685 Y-2.4519 I-0.3286 J-0.8721
G2 X41.5412 Y-2.6877 I-0.4945 J-0.5433
G2 X41.5424 Y-2.6954 I-0.6405 J-0.1084
G3 X41.5434 Y-2.7011 I0.4446 J0.0698
G2 X41.5477 Y-2.7321 I-0.4879 J-0.0831
G3 X41.5486 Y-2.7404 I0.4475 J0.0474
G2 X41.554 Y-2.7879 I-1.988 J-0.248
G1 X41.5593 Y-2.8427
G1 X41.5679 Y-2.9485
G1 X41.7672 Y-2.9322
G1 X41.7678 Y-2.9394
G2 X41.7941 Y-3.3978 I-15.039 J-1.093
G3 X41.7942 Y-3.3985 I0.2498 J0.0105
G1 X41.7967 Y-3.4546
G1 X41.8059 Y-3.679
G1 X41.8138 Y-3.8999
G1 X41.8207 Y-4.1174
G1 X41.8324 Y-4.5468
G1 X41.8419 Y-4.9632
G3 X41.8421 Y-4.9685 I0.2499 J0.0057
G2 X41.8429 Y-5.0074 I-0.8315 J-0.0367
G3 Y-5.013 I0.25 J-0.0006
G2 X41.8679 Y-6.6207 I-178.9944 J-3.5912
G1 X41.868
G2 X41.8863 Y-9.4358 I-289.6449 J-3.2906
G1 X41.887 Y-9.9639
G1 Y-10.4589
G1 X41.8864 Y-10.923
G1 X41.8859 Y-11.1404
G1 X41.8853 Y-11.3511
G1 X41.8817 Y-12.1677
G1 X41.8795 Y-12.5249
G1 X41.8789 Y-12.6085
G1 X41.8735 Y-13.2682
G3 Y-13.2684 I0.25 J-0.002
G2 X41.8675 Y-13.8441 I-88.7605 J0.6426
G3 Y-13.8445 I0.25 J-0.0034
G1 X41.8644 Y-14.0969
G1 X41.8578 Y-14.57
G1 X41.851 Y-14.9841
G3 Y-14.9843 I0.25 J-0.0041
G2 X41.8168 Y-16.4306 I-91.4865 J1.4402
G3 Y-16.4309 I0.2499 J-0.0079
G2 X41.8041 Y-16.7907 I-35.6519 J1.079
G1 X41.7925 Y-17.0615
G1 X41.7875 Y-17.1627
G3 Y-17.1632 I0.2497 J-0.0123
G2 X41.7657 Y-17.5124 I-11.6381 J0.5499
G3 Y-17.5129 I0.2493 J-0.0193
G2 X41.7502 Y-17.6813 I-5.0846 J0.3823
G1 X41.745 Y-17.7243
G3 X41.7449 Y-17.7255 I0.2482 J-0.0299
G2 X41.7374 Y-17.7749 I-0.7209 J0.0834
G3 X41.7357 Y-17.7851 I0.2458 J-0.0457
G2 X41.7333 Y-17.796 I-0.071 J0.0102
G2 X41.6116 Y-17.9976 I-0.7771 J0.3314
G3 X41.6113 Y-17.9981 I0.194 J-0.1577
G2 X41.4557 Y-18.1527 I-0.7926 J0.6415
G2 X41.1104 Y-18.3461 I-0.767 J0.9651
G3 X41.1091 Y-18.3465 I0.0855 J-0.2349
G2 X40.5115 Y-18.4279 I-0.4817 J1.3021
G2 X40.2196 Y-18.3664 I0.1075 J1.2337
G2 X39.9626 Y-18.236 I0.3369 J0.9822
G2 X39.8544 Y-18.1463 I0.5613 J0.7874
G3 X39.8539 Y-18.1458 I-0.1731 J-0.1804
G2 X39.7032 Y-17.9765 I0.961 J1.0072
G3 X39.7015 Y-17.9743 I-0.1996 J-0.1505
G3 X39.6991 Y-17.9711 I-0.203 J-0.146
G2 X39.6415 Y-17.8846 I0.8062 J0.5997
G2 X39.6081 Y-17.817 I0.4251 J0.2526
G2 X39.6072 Y-17.8114 I0.0566 J0.0112
G3 X39.6045 Y-17.7916 I-0.2488 J-0.0243
G2 X39.6042 Y-17.7889 I0.0243 J0.0044
G3 X39.6031 Y-17.7775 I-0.2494 J-0.0169
G2 X39.5937 Y-17.6705 I2.1222 J0.2412
G1 X39.5863 Y-17.5527
G3 X39.5862 Y-17.5522 I-0.2495 J-0.0157
G2 X39.5807 Y-17.4432 I3.8491 J0.2498
G3 X39.5806 Y-17.4416 I-0.2498 J-0.0091
G1 X39.5758 Y-17.3282
G1 X39.5678 Y-17.1049
G1 X39.5615 Y-16.8884
G1 X39.5517 Y-16.4671
G1 X39.5479 Y-16.2699
G1 X39.5416 Y-15.8867
G2 X39.5171 Y-13.011 I269.8217 J3.7309
G3 Y-13.0108 I-0.25 J-0.0008
G1 X39.5157 Y-12.651
G1 X39.5138 Y-12.0215
G1 X39.5128 Y-11.5494
G1 X39.5119 Y-10.8412
G1 X39.5116 Y-10.1329
G1 X39.5118 Y-9.164
G1 X39.5133 Y-7.4684
G1 X39.5165 Y-6.1967
G1 X39.5186 Y-5.7197
G3 Y-5.7195 I-0.25 J0.0011
G2 X39.5355 Y-4.0527 I132.2481 J-0.5049
G1 X39.5397 Y-3.8444
G1 X39.5419 Y-3.7533
G3 Y-3.7525 I-0.2499 J0.0059
G2 X39.552 Y-3.414 I17.8464 J-0.3621
G3 Y-3.412 I-0.2498 J0.0098
G2 X39.5791 Y-2.9097 I11.1758 J-0.3508
G1 X39.5845 Y-2.8478
G1 X39.5872 Y-2.8208
G3 X39.5874 Y-2.8189 I-0.2488 J0.0242
G2 X39.6126 Y-2.6349 I1.992 J-0.1791
G1 X39.6221 Y-2.5903
G2 X39.6376 Y-2.5379 I0.6711 J-0.17
G2 X39.6496 Y-2.5121 I0.1327 J-0.046
G3 X39.65 Y-2.5115 I-0.2149 J0.1278
G2 X39.8435 Y-2.2779 I0.8277 J-0.489
G2 X40.067 Y-2.128 I0.6942 J-0.7935
G3 X40.0677 Y-2.1277 I-0.1116 J0.2237
G2 X40.2922 Y-2.0423 I0.5276 J-1.0492
G2 X41.1436 Y-2.085 I0.3593 J-1.3445
G3 X41.1439 Y-2.0851 I0.0884 J0.2339
G2 X41.5027 Y-2.3036 I-0.3991 J-1.0592
G2 X41.7337 Y-2.6284 I-0.6288 J-0.6916
G2 X41.7347 Y-2.6331 I-0.0331 J-0.0098
G3 X41.7361 Y-2.6415 I0.2472 J0.0371
G2 X41.74 Y-2.6643 I-0.8354 J-0.1546
G3 X41.7405 Y-2.6675 I0.247 J0.0388
G2 X41.7465 Y-2.711 I-0.685 J-0.1167
G3 X41.7471 Y-2.7156 I0.2486 J0.0263
G2 X41.753 Y-2.7683 I-2.1864 J-0.2728
G1 X41.7585 Y-2.8249
G1 X41.7672 Y-2.9322
G0 Z90.0
G0 X48.8447 Y-3.1739
G1 Z0.0
G3 X48.8989 Y-3.1137 I-1.6456 J1.5345
G3 X48.9468 Y-3.1672 I1.6997 J1.4742
G3 X48.8926 Y-3.2269 I1.639 J-1.5415
G3 X48.8447 Y-3.1739 I-1.6934 J-1.4815
G1 X48.6984 Y-3.3103
G3 X48.5585 Y-3.1739 I-1.4993 J-1.3981
G3 X48.8989 Y-2.7855 I-1.3594 J1.5345
G3 X49.233 Y-3.1684 I1.6997 J1.146
G3 X48.8925 Y-3.5531 I1.3528 J-1.5403
G3 X48.6984 Y-3.3103 I-1.6934 J-1.1554
G1 X48.5522 Y-3.4467
G3 X48.2325 Y-3.1739 I-1.353 J-1.2617
G3 X48.8989 Y-2.3698 I-1.0334 J1.5345
G3 X49.559 Y-3.1697 I1.6997 J0.7303
G3 X48.8925 Y-3.9635 I1.0268 J-1.5389
G3 X48.5522 Y-3.4467 I-1.6934 J-0.745
G1 X48.4059 Y-3.5831
G3 X47.8057 Y-3.1739 I-1.2068 J-1.1253
G3 X48.8491 Y-1.6395 I-0.6065 J1.5345
G1 Y0.2778
G1 X48.8503 Y0.8427
G1 X48.8518 Y1.0509
G1 X48.852 Y1.0717
G1 X48.8522 Y1.0917
G1 X48.8545 Y1.2653
G1 X48.8577 Y1.4189
G3 Y1.4194 I-1.6496 J0.0342
G2 X48.8609 Y1.5257 I5.6274 J-0.1151
G1 X48.8631 Y1.5786
G2 X48.8867 Y1.5789 I0.0233 J-1.0321
G3 X48.889 I0.0005 J1.65
G2 X48.8903 Y1.5397 I-6.9418 J-0.2528
G3 X48.8904 Y1.5375 I1.6492 J0.0508
G1 X48.8952 Y1.3892
G2 X48.9159 Y0.3406 I-85.6626 J-2.2182
G3 X48.916 Y0.336 I1.6498 J0.0225
G1 X48.9488 Y-1.6666
G3 X49.986 Y-3.1715 I1.6498 J0.0271
G3 X48.9358 Y-4.7086 I0.5998 J-1.5371
G1 Y-11.2547
G1 Y-17.2639
G2 X48.9132 Y-17.2743 I-0.1082 J0.2045
G2 X48.9019 Y-17.1015 I8.598 J0.6494
G3 X48.9014 Y-17.094 I-1.6475 J-0.0912
G2 X48.8863 Y-16.7662 I11.9615 J0.7169
G3 X48.8861 Y-16.7612 I-1.6491 J-0.0536
G1 X48.8831 Y-16.6774
G1 X48.8781 Y-16.5145
G1 X48.8702 Y-16.1898
G2 X48.8607 Y-15.5828 I65.6104 J1.3254
G1 Y-15.5829
G1 Y-15.5828
G1 X48.8593 Y-15.4482
G1 X48.855 Y-14.9221
G1 X48.8537 Y-14.6927
G1 X48.8532 Y-14.586
G1 X48.8505 Y-13.7462
G1 X48.8493 Y-12.4841
G1 X48.8492 Y-12.1687
G1 X48.8491 Y-11.6947
G1 Y-11.6946
G1 Y-11.6947
G1 Y-11.2206
G1 Y-4.7084
G3 X48.4059 Y-3.5831 I-1.65 J0.0
G1 X48.2596 Y-3.7195
G3 X47.1991 Y-3.2584 I-1.0605 J-0.9889
G1 X46.5377
G3 X46.5278 Y-3.2585 I0.0 J-1.45
G2 X46.4468 Y-3.2568 I-0.01 J1.4694
G1 X46.3899 Y-3.2536
G1 X46.339 Y-3.2495
G2 X46.2074 Y-3.2301 I0.1193 J1.2648
G3 X46.1986 Y-3.2284 I-0.2864 J-1.4214
G3 X46.186 Y-3.2253 I-0.3415 J-1.4092
G2 X46.1631 Y-3.2196 I0.1533 J0.658
G2 X46.162 Y-3.1833 I0.5136 J0.033
G3 Y-3.1682 I-1.45 J0.0093
G2 X46.1632 Y-3.1287 I0.5859 J0.0024
G2 X46.1913 Y-3.1215 I0.2069 J-0.7551
G2 X46.3328 Y-3.0992 I0.2663 J-1.2265
G1 X46.3921 Y-3.0943
G2 X46.5399 Y-3.0896 I0.156 J-2.5767
G1 X47.1994 Y-3.0895
G3 X48.6491 Y-1.6395 I-0.0002 J1.45
G1 Y0.278
G1 X48.6503 Y0.8436
G1 X48.6518 Y1.0525
G1 X48.652 Y1.0737
G1 X48.6522 Y1.0941
G1 X48.6546 Y1.2687
G1 X48.6578 Y1.4231
G3 Y1.4235 I-1.4497 J0.03
G2 X48.6611 Y1.5338 I5.8274 J-0.1192
G1 X48.6659 Y1.6488
G1 X48.6662 Y1.6552
G2 X48.6727 Y1.7583 I4.594 J-0.2381
G2 X48.7271 Y1.7685 I0.148 J-0.6377
G2 X48.8868 Y1.7789 I0.1593 J-1.222
G3 X48.896 I0.0005 J1.45
G2 X49.0611 Y1.7679 I0.0069 J-1.1412
G2 X49.0802 Y1.7641 I-0.0413 J-0.2567
G2 X49.0902 Y1.5458 I-7.133 J-0.438
G3 X49.0903 Y1.5439 I1.4493 J0.0446
G1 X49.0951 Y1.395
G2 X49.1159 Y0.3433 I-85.8625 J-2.224
G3 Y0.3393 I1.4499 J0.0198
G1 X49.1488 Y-1.6633
G3 X50.5986 Y-3.0895 I1.4498 J0.0238
G1 X51.2267
G2 X51.3429 Y-3.0919 I-0.0235 J-3.991
G2 X51.5008 Y-3.1055 I-0.0687 J-1.7101
G1 X51.5377 Y-3.1112
G1 X51.5676 Y-3.1167
G2 X51.5692 Y-3.1689 I-0.9553 J-0.0547
G1 X51.5689 Y-3.1993
G2 X51.5675 Y-3.2383 I-1.0369 J0.0182
G2 X51.5056 Y-3.247 I-0.1606 J0.9097
G2 X51.2821 Y-3.2586 I-0.2191 J2.0611
G3 X51.279 I-0.0031 J-1.45
G1 X50.5858
G3 X49.1358 Y-4.7086 I0.0 J-1.45
G1 Y-11.2547
G1 Y-17.3566
G2 X49.0898 Y-17.4019 I-0.1987 J0.1555
G3 X49.0889 Y-17.4026 I0.8775 J-1.1543
G2 X48.917 Y-17.4814 I-0.2613 J0.3432
G3 X48.9104 Y-17.4828 I0.3003 J-1.4186
G2 X48.735 Y-17.4839 I-0.0904 J0.4176
G2 X48.7309 Y-17.4828 I0.0711 J0.2743
G1 X48.7269 Y-17.4458
G2 X48.7022 Y-17.1126 I8.7842 J0.8208
G3 X48.7018 Y-17.106 I-1.4478 J-0.0802
G2 X48.6864 Y-16.7727 I12.1611 J0.7289
G3 X48.6862 Y-16.7683 I-1.4492 J-0.0471
G1 X48.6832 Y-16.684
G1 X48.6781 Y-16.5201
G1 X48.6702 Y-16.1943
G2 X48.6607 Y-15.585 I65.8103 J1.3299
G1 Y-15.5849
G1 Y-15.585
G1 X48.6593 Y-15.4501
G1 X48.655 Y-14.9235
G1 X48.6537 Y-14.6938
G1 X48.6532 Y-14.5868
G1 X48.6505 Y-13.7466
G1 X48.6493 Y-12.4842
G1 X48.6492 Y-12.1687
G1 X48.6491 Y-11.6947
G1 Y-11.6946
G1 Y-11.6947
G1 Y-11.2206
G1 Y-4.7084
G3 X48.2596 Y-3.7195 I-1.45 J0.0
G1 X48.1133 Y-3.8559
G3 X47.1991 Y-3.4584 I-0.9142 J-0.8525
G1 X46.5377
G3 X46.5291 I0.0 J-1.25
G2 X46.4364 Y-3.4565 I-0.0114 J1.6694
G1 X46.3763 Y-3.4531
G1 X46.3217 Y-3.4488
G2 X46.1679 Y-3.4262 I0.1367 J1.4641
G3 X46.1559 Y-3.4238 I-0.2469 J-1.2254
G3 X46.1406 Y-3.4201 I-0.2988 J-1.2138
G2 X46.091 Y-3.407 I0.1986 J0.8528
G2 X46.017 Y-3.3799 I0.188 J0.6265
G2 X45.9893 Y-3.365 I0.096 J0.2125
G3 X45.9872 Y-3.3637 I-0.6632 J-1.0595
G2 X45.9765 Y-3.3298 I0.1584 J0.0686
G2 X45.962 Y-3.182 I0.7001 J0.1432
G3 Y-3.169 I-1.25 J0.008
G2 X45.9721 Y-3.0406 I0.7859 J0.0032
G2 X45.9867 Y-2.9849 I0.3537 J-0.0631
G2 X45.9972 Y-2.9783 I0.0502 J-0.0681
G3 X46.0075 Y-2.9728 I-0.5856 J1.1043
G3 X46.0124 Y-2.9705 I-0.5309 J1.1316
G2 X46.0391 Y-2.9588 I0.193 J-0.4068
G1 X46.067 Y-2.9488
G2 X46.1473 Y-2.9264 I0.3031 J-0.935
G2 X46.3147 Y-2.9 I0.3103 J-1.4216
G1 X46.3778 Y-2.8948
G2 X46.5395 Y-2.8896 I0.1703 J-2.7762
G1 X47.1993 Y-2.8895
G3 X48.4491 Y-1.6395 I-0.0002 J1.25
G1 Y0.2782
G1 X48.4503 Y0.8445
G1 X48.4518 Y1.0542
G1 X48.452 Y1.0757
G1 X48.4522 Y1.0965
G1 X48.4546 Y1.2721
G1 X48.4578 Y1.4272
G3 Y1.4275 I-1.2497 J0.0259
G2 X48.4612 Y1.542 I6.0274 J-0.1233
G1 X48.4661 Y1.658
G1 X48.4665 Y1.6653
G2 X48.478 Y1.8317 I4.7937 J-0.2483
G3 X48.4785 Y1.8379 I-1.2453 J0.108
G2 X48.4854 Y1.8973 I0.8752 J-0.0715
G3 X48.4863 Y1.898 I-0.7924 J0.9667
G2 X48.5092 Y1.9127 I0.074 J-0.0901
G3 X48.5142 Y1.9151 I-0.5482 J1.1234
G2 X48.5653 Y1.9362 I0.1798 J-0.3643
G2 X48.6999 Y1.9667 I0.2554 J-0.8156
G2 X48.8869 Y1.9789 I0.1865 J-1.4202
G3 X48.8948 I0.0004 J1.25
G2 X49.0906 Y1.9657 I0.0081 J-1.3412
G2 X49.1607 Y1.9491 I-0.0708 J-0.4545
G2 X49.2175 Y1.9197 I-0.0743 J-0.2133
G3 X49.2206 Y1.9175 I0.7257 J1.0178
G2 X49.273 Y1.8757 I-0.3425 J-0.4834
G2 X49.2902 Y1.552 I-7.3258 J-0.5497
G3 Y1.5504 I1.2494 J0.0385
G1 X49.295 Y1.4008
G2 X49.3159 Y0.346 I-86.0625 J-2.2298
G3 Y0.3426 I1.2499 J0.0171
G1 X49.3488 Y-1.66
G3 X50.5986 Y-2.8895 I1.2498 J0.0205
G1 X51.2273
G2 X51.3504 Y-2.892 I-0.0241 J-4.191
G2 X51.5294 Y-2.9076 I-0.0762 J-1.9099
G1 X51.5709 Y-2.914
G1 X51.6089 Y-2.9209
G2 X51.7076 Y-2.9466 I-0.2024 J-0.9798
G2 X51.7466 Y-2.962 I-0.1475 J-0.4301
G2 X51.7548 Y-2.9953 I-0.2333 J-0.0746
G3 X51.7557 Y-3.0007 I1.2321 J0.2109
G2 X51.7613 Y-3.0369 I-0.9014 J-0.1584
G2 X51.7692 Y-3.1694 I-1.149 J-0.1345
G1 X51.7689 Y-3.2018
G2 X51.7658 Y-3.2709 I-1.2369 J0.0207
G1 X51.7608 Y-3.3223
G2 X51.7462 Y-3.3974 I-0.5821 J0.0739
G2 X51.6986 Y-3.4138 I-0.1934 J0.4846
G2 X51.5268 Y-3.4459 I-0.2917 J1.0852
G2 X51.2816 Y-3.4586 I-0.2403 J2.26
G3 X51.279 I-0.0027 J-1.25
G1 X50.5858
G3 X49.3358 Y-4.7086 I0.0 J-1.25
G1 Y-11.2547
G1 Y-17.4188
G1 X49.3114 Y-17.4549
G2 X49.2108 Y-17.5611 I-0.3744 J0.2539
G3 X49.2101 Y-17.5617 I0.7565 J-0.9951
G2 X48.9584 Y-17.677 I-0.3824 J0.5023
G3 X48.9527 Y-17.6782 I0.2589 J-1.2229
G2 X48.6902 Y-17.6789 I-0.1328 J0.613
G2 X48.6458 Y-17.6656 I0.1159 J0.4692
G2 X48.5462 Y-17.6266 I0.5057 J1.4384
G2 X48.5377 Y-17.5581 I2.103 J0.295
G1 X48.5279 Y-17.4656
G2 X48.5025 Y-17.1237 I8.9832 J0.8407
G3 X48.5021 Y-17.118 I-1.2481 J-0.0691
G2 X48.4865 Y-16.7792 I12.3608 J0.7408
G3 X48.4864 Y-16.7754 I-1.2493 J-0.0406
G1 X48.4833 Y-16.6907
G1 X48.4782 Y-16.5256
G1 X48.4703 Y-16.1987
G2 X48.4608 Y-15.5872 I66.0103 J1.3343
G1 Y-15.5871
G1 Y-15.5872
G1 X48.4593 Y-15.452
G1 X48.455 Y-14.9248
G1 X48.4537 Y-14.6948
G1 X48.4532 Y-14.5876
G1 X48.4505 Y-13.747
G1 X48.4493 Y-12.4843
G1 X48.4492 Y-12.1687
G1 X48.4491 Y-11.6947
G1 Y-11.6946
G1 Y-11.6947
G1 Y-11.2206
G1 Y-4.7084
G3 X48.1133 Y-3.8559 I-1.25 J0.0
G1 X47.9671 Y-3.9923
G3 X47.1991 Y-3.6584 I-0.7679 J-0.7161
G1 X46.5377
G3 X46.5305 I0.0 J-1.05
G2 X46.4259 Y-3.6562 I-0.0128 J1.8694
G1 X46.3627 Y-3.6527
G1 X46.3045 Y-3.648
G2 X46.1284 Y-3.6222 I0.1539 J1.6634
G3 X46.1131 Y-3.6193 I-0.2074 J-1.0293
G3 X46.0952 Y-3.6149 I-0.2561 J-1.0183
G2 X46.0339 Y-3.5987 I0.244 J1.0476
G2 X45.9359 Y-3.5627 I0.2451 J0.8181
G2 X45.8832 Y-3.5346 I0.1772 J0.3953
G3 X45.8782 Y-3.5315 I-0.5571 J-0.89
G2 X45.8343 Y-3.4944 I0.1035 J0.1674
G2 X45.8154 Y-3.4678 I0.1155 J0.1017
G2 X45.7806 Y-3.37 I0.3302 J0.1727
G2 X45.762 Y-3.1807 I0.8961 J0.1833
G3 Y-3.1698 I-1.05 J0.0067
G2 X45.7749 Y-3.0072 I0.9859 J0.004
G2 X45.8014 Y-2.9091 I0.5509 J-0.0965
G2 X45.8402 Y-2.8473 I0.1706 J-0.0639
G2 X45.9035 Y-2.8016 I0.1967 J-0.2057
G3 X45.9141 Y-2.7959 I-0.4919 J0.9276
G2 X45.9205 Y-2.7927 I0.0547 J-0.1004
G3 X45.9266 Y-2.7898 I-0.444 J0.9515
G2 X45.9685 Y-2.7717 I0.2788 J-0.5875
G1 X46.002 Y-2.7596
G2 X46.1033 Y-2.7313 I0.3681 J-1.1242
G2 X46.2967 Y-2.7008 I0.3543 J-1.6168
G1 X46.3634 Y-2.6953
G2 X46.5392 Y-2.6896 I0.1847 J-2.9757
G1 X47.1993 Y-2.6895
G3 X48.2491 Y-1.6395 I-0.0002 J1.05
G1 Y0.2784
G1 X48.2503 Y0.8454
G1 X48.2518 Y1.0559
G1 X48.252 Y1.0777
G1 X48.2522 Y1.0989
G1 X48.2546 Y1.2755
G1 X48.2578 Y1.4313
G3 Y1.4316 I-1.0498 J0.0218
G2 X48.2614 Y1.5501 I6.2273 J-0.1273
G1 X48.2663 Y1.6671
G1 X48.2667 Y1.6755
G2 X48.2787 Y1.849 I4.9935 J-0.2585
G3 X48.2792 Y1.8542 I-1.0461 J0.0907
G2 X48.2887 Y1.9342 I1.0746 J-0.0878
G3 X48.2905 Y1.9458 I-1.0372 J0.1634
G2 X48.2961 Y1.9757 I0.3814 J-0.0557
G2 X48.3017 Y1.9852 I0.1672 J-0.092
G3 X48.3055 Y1.9914 I-0.8892 J0.5584
G2 X48.3583 Y2.0517 I0.2067 J-0.1278
G3 X48.3594 Y2.0526 I-0.6653 J0.8123
G2 X48.4215 Y2.0924 I0.201 J-0.2447
G3 X48.4256 Y2.0945 I-0.4605 J0.9436
G2 X48.5039 Y2.1265 I0.2683 J-0.5437
G2 X48.6728 Y2.1648 I0.3169 J-1.0059
G2 X48.8869 Y2.1789 I0.2137 J-1.6183
G3 X48.8936 I0.0003 J1.05
G2 X49.1199 Y2.1635 I0.0093 J-1.5412
G2 X49.2241 Y2.1388 I-0.1002 J-0.6524
G2 X49.3336 Y2.0825 I-0.1377 J-0.403
G3 X49.3362 Y2.0807 I0.6096 J0.8549
G2 X49.4073 Y2.0239 I-0.4581 J-0.6466
G2 X49.4656 Y1.9681 I-1.2615 J-1.3764
G2 X49.4704 Y1.9177 I-1.4807 J-0.1658
G3 X49.4705 Y1.9169 I1.0468 J0.0813
G2 X49.4901 Y1.5581 I-7.5233 J-0.5908
G3 Y1.5568 I1.0495 J0.0323
G1 X49.4949 Y1.4066
G2 X49.5158 Y0.3488 I-86.2624 J-2.2356
G3 X49.5159 Y0.3459 I1.0499 J0.0143
G1 X49.5488 Y-1.6567
G3 X50.5986 Y-2.6895 I1.0499 J0.0172
G1 X51.2278
G2 X51.3579 Y-2.6921 I-0.0246 J-4.391
G2 X51.5581 Y-2.7096 I-0.0837 J-2.1098
G1 X51.6041 Y-2.7167
G1 X51.647 Y-2.7246
G2 X51.7701 Y-2.7566 I-0.2404 J-1.1762
G2 X51.8475 Y-2.7885 I-0.21 J-0.6201
G3 X51.8487 Y-2.789 I0.461 J0.9434
G2 X51.8977 Y-2.8226 I-0.0888 J-0.1823
G2 X51.9127 Y-2.8423 I-0.0905 J-0.0847
G2 X51.9199 Y-2.8558 I-0.2441 J-0.1379
G2 X51.9519 Y-2.9615 I-0.4065 J-0.1809
G3 X51.9527 Y-2.9661 I1.0349 J0.1772
G2 X51.9598 Y-3.0119 I-1.0983 J-0.193
G2 X51.9692 Y-3.17 I-1.3475 J-0.1594
G1 X51.9689 Y-3.2042
G2 X51.9651 Y-3.2881 I-1.4369 J0.0231
G1 X51.9595 Y-3.3445
G2 X51.9357 Y-3.4627 I-0.7809 J0.0962
G2 X51.9139 Y-3.5172 I-0.2974 J0.0869
G3 X51.9133 Y-3.5184 I0.9341 J-0.4795
G2 X51.8936 Y-3.5434 I-0.0728 J0.0373
G2 X51.8471 Y-3.5719 I-0.1308 J0.1614
G3 X51.8463 Y-3.5722 I0.4263 J-0.9596
G2 X51.7524 Y-3.6064 I-0.2936 J0.6593
G2 X51.5481 Y-3.6448 I-0.3455 J1.2779
G2 X51.2812 Y-3.6586 I-0.2616 J2.4588
G3 X51.279 I-0.0022 J-1.05
G1 X50.5858
G3 X49.5358 Y-4.7086 I0.0 J-1.05
G1 Y-11.2547
G1 Y-17.4799
G1 X49.4771 Y-17.5669
G2 X49.3319 Y-17.7203 I-0.5401 J0.3659
G3 X49.3312 Y-17.7208 I0.6354 J-0.8359
G2 X48.9998 Y-17.8727 I-0.5036 J0.6615
G3 X48.9951 Y-17.8737 I0.2175 J-1.0272
G2 X48.6453 Y-17.8738 I-0.1751 J0.8085
G3 X48.643 Y-17.8732 I-0.2529 J-1.0191
G2 X48.5795 Y-17.8543 I0.1631 J0.6636
G1 X48.5794
G2 X48.434 Y-17.7956 I0.572 J1.6271
G3 X48.4282 Y-17.793 I-0.4368 J-0.9548
G2 X48.3798 Y-17.7691 I0.3227 J0.717
G3 X48.3708 Y-17.7644 I-0.4957 J-0.9256
G2 X48.3654 Y-17.7615 I0.1517 J0.2899
G2 X48.3604 Y-17.7326 I1.0268 J0.1931
G3 X48.3585 Y-17.7214 I-1.037 J-0.165
G2 X48.3389 Y-17.5793 I2.2907 J0.3898
G1 X48.3289 Y-17.4855
G2 X48.3028 Y-17.1347 I9.1823 J0.8606
G3 X48.3025 Y-17.1299 I-1.0484 J-0.058
G2 X48.2866 Y-16.7857 I12.5604 J0.7528
G3 X48.2865 Y-16.7825 I-1.0494 J-0.0341
G1 X48.2835 Y-16.6974
G1 X48.2783 Y-16.5311
G1 X48.2703 Y-16.2032
G2 X48.2608 Y-15.5893 I66.2102 J1.3388
G1 Y-15.5894
G1 Y-15.5893
G1 X48.2593 Y-15.4539
G1 X48.255 Y-14.9262
G1 X48.2537 Y-14.6959
G1 X48.2532 Y-14.5884
G1 X48.2505 Y-13.7475
G1 X48.2493 Y-12.4845
G1 X48.2492 Y-12.1688
G1 X48.2491 Y-11.6947
G1 Y-11.2206
G1 Y-4.7084
G3 X47.9671 Y-3.9923 I-1.05 J0.0
G1 X47.8208 Y-4.1287
G3 X47.1991 Y-3.8584 I-0.6217 J-0.5797
G1 X46.5377
G3 X46.5319 I0.0 J-0.85
G2 X46.4153 Y-3.856 I-0.0141 J2.0694
G1 X46.3492 Y-3.8522
G1 X46.2874 Y-3.8473
G2 X46.0889 Y-3.8183 I0.171 J1.8626
G3 X46.0722 Y-3.8151 I-0.1679 J-0.8333
G2 X46.0687 Y-3.8143 I0.0088 J0.0489
G3 X46.0499 Y-3.8097 I-0.2116 J-0.8232
G2 X45.9768 Y-3.7904 I0.2894 J1.2424
G2 X45.8548 Y-3.7455 I0.3022 J1.0098
G2 X45.7771 Y-3.7041 I0.2582 J0.5781
G3 X45.773 Y-3.7016 I-0.451 J-0.7205
G2 X45.6843 Y-3.6268 I0.2087 J0.3375
G2 X45.6394 Y-3.5627 I0.2654 J0.2341
G2 X45.5846 Y-3.4101 I0.5063 J0.2676
G2 X45.562 Y-3.1795 I1.092 J0.2235
G3 Y-3.1706 I-0.85 J0.0055
G2 X45.5777 Y-2.9739 I1.1859 J0.0048
G2 X45.614 Y-2.8393 I0.7481 J-0.1298
G2 X45.6988 Y-2.7058 I0.358 J-0.1338
G2 X45.8098 Y-2.6249 I0.3381 J-0.3472
G3 X45.8184 Y-2.6203 I-0.3982 J0.751
G2 X45.8359 Y-2.6115 I0.1504 J-0.276
G3 X45.8409 Y-2.6091 I-0.3594 J0.7703
G2 X45.8982 Y-2.5844 I0.3645 J-0.7682
G1 X45.9368 Y-2.5705
G2 X46.0594 Y-2.5362 I0.4333 J-1.3133
G2 X46.2788 Y-2.5016 I0.3983 J-1.8119
G1 X46.3489 Y-2.4958
G2 X46.5389 Y-2.4896 I0.1992 J-3.1752
G1 X47.1993 Y-2.4895
G3 X48.0491 Y-1.6395 I-0.0001 J0.85
G1 Y0.2786
G1 X48.0503 Y0.8463
G1 X48.0518 Y1.0576
G1 X48.052 Y1.0797
G1 X48.0522 Y1.1012
G1 X48.0546 Y1.279
G1 X48.0579 Y1.4355
G3 Y1.4357 I-0.8498 J0.0176
G2 X48.0616 Y1.5583 I6.4273 J-0.1314
G1 X48.0665 Y1.6763
G1 X48.067 Y1.6857
G2 X48.0795 Y1.8663 I5.1932 J-0.2686
G3 X48.0798 Y1.8705 I-0.8468 J0.0734
G2 X48.0912 Y1.9653 I1.2739 J-0.1041
G3 X48.0926 Y1.9747 I-0.8396 J0.1323
G2 X48.1016 Y2.0226 I0.5793 J-0.0846
G3 X48.1045 Y2.0352 I-0.828 J0.1923
G2 X48.1077 Y2.046 I0.068 J-0.0147
G2 X48.1323 Y2.0916 I0.3556 J-0.1623
G3 X48.1354 Y2.0966 I-0.7198 J0.452
G2 X48.2315 Y2.2064 I0.3768 J-0.233
G3 X48.2324 Y2.2071 I-0.5386 J0.6576
G2 X48.3338 Y2.2722 I0.3279 J-0.3992
G3 X48.3371 Y2.2738 I-0.3728 J0.7639
G2 X48.4425 Y2.3169 I0.3568 J-0.723
G2 X48.6456 Y2.363 I0.3783 J-1.1963
G2 X48.887 Y2.3789 I0.2408 J-1.8165
G3 X48.8924 I0.0003 J0.85
G2 X49.1492 Y2.3614 I0.0105 J-1.7412
G2 X49.2873 Y2.3285 I-0.1294 J-0.8502
G2 X49.4497 Y2.2454 I-0.2009 J-0.5928
G3 X49.4518 Y2.2439 I0.4935 J0.6921
G2 X49.5417 Y2.172 I-0.5737 J-0.8098
G2 X49.6498 Y2.0655 I-1.3959 J-1.5246
G3 X49.6545 Y2.0606 I0.6185 J0.5831
G2 X49.6551 Y2.0599 I-0.5129 J-0.4913
G2 X49.6698 Y1.9332 I-1.6702 J-0.2576
G3 X49.6699 Y1.9325 I0.8474 J0.0658
G2 X49.69 Y1.5643 I-7.7227 J-0.6065
G3 Y1.5632 I0.8496 J0.0261
G1 X49.6948 Y1.4124
G2 X49.7158 Y0.3515 I-86.4623 J-2.2414
G3 X49.7159 Y0.3492 I0.8499 J0.0116
G1 X49.7487 Y-1.6534
G3 X50.5986 Y-2.4895 I0.8499 J0.014
G1 X51.2284
G2 X51.3654 Y-2.4923 I-0.0252 J-4.591
G2 X51.5868 Y-2.5117 I-0.0912 J-2.3096
G1 X51.6372 Y-2.5195
G1 X51.6848 Y-2.5282
G2 X51.8324 Y-2.5665 I-0.2783 J-1.3726
G2 X51.9354 Y-2.6088 I-0.2723 J-0.8102
G3 X51.9363 Y-2.6092 I0.3732 J0.7637
G2 X52.0384 Y-2.6804 I-0.1764 J-0.3621
G2 X52.0852 Y-2.741 I-0.2312 J-0.2269
G2 X52.101 Y-2.7708 I-0.4165 J-0.2392
G2 X52.149 Y-2.9278 I-0.5876 J-0.2658
G3 X52.1497 Y-2.9315 I0.8378 J0.1434
G2 X52.1582 Y-2.987 I-1.2953 J-0.2277
G2 X52.1692 Y-3.1707 I-1.5459 J-0.1844
G1 X52.1689 Y-3.2065
G2 X52.1644 Y-3.3055 I-1.6369 J0.0254
G1 X52.1583 Y-3.3664
G2 X52.1279 Y-3.5179 I-0.9797 J0.1181
G2 X52.0919 Y-3.6086 I-0.4896 J0.1422
G3 X52.0914 Y-3.6095 I0.7562 J-0.3882
G2 X52.0211 Y-3.6974 I-0.2508 J0.1284
G2 X51.9283 Y-3.7546 I-0.2584 J0.3154
G3 X51.9277 Y-3.7549 I0.3451 J-0.7768
G2 X51.8062 Y-3.7991 I-0.3749 J0.8421
G2 X51.5693 Y-3.8436 I-0.3992 J1.4705
G2 X51.2808 Y-3.8586 I-0.2828 J2.6577
G3 X51.279 I-0.0018 J-0.85
G1 X50.5858
G3 X49.7358 Y-4.7086 I0.0 J-0.85
G1 Y-11.2547
G1 Y-17.541
G1 X49.6429 Y-17.6789
G2 X49.4529 Y-17.8796 I-0.7058 J0.4779
G3 X49.4524 Y-17.88 I0.5144 J-0.6767
G2 X49.0413 Y-18.0683 I-0.6248 J0.8206
G3 X49.0374 Y-18.0692 I0.1761 J-0.8316
G2 X48.5998 Y-18.0686 I-0.2174 J1.004
G3 X48.5953 Y-18.0675 I-0.2074 J-0.8243
G2 X48.5131 Y-18.043 I0.2109 J0.8578
G2 X48.3508 Y-17.9775 I0.6383 J1.8158
G3 X48.3461 Y-17.9754 I-0.3536 J-0.773
G2 X48.2853 Y-17.9454 I0.4048 J0.8994
G3 X48.2781 Y-17.9416 I-0.4013 J-0.7493
G2 X48.2381 Y-17.9184 I0.2444 J0.4671
G1 X48.2145 Y-17.9029
G3 X48.202 Y-17.8949 I-0.466 J-0.7109
G2 X48.1887 Y-17.8863 I0.4008 J0.6354
G2 X48.1629 Y-17.764 I1.2035 J0.3179
G3 X48.1614 Y-17.755 I-0.8394 J-0.1336
G2 X48.14 Y-17.6005 I2.4878 J0.4233
G1 X48.1299 Y-17.5053
G2 X48.1031 Y-17.1458 I9.3813 J0.8804
G3 X48.1029 Y-17.1419 I-0.8487 J-0.047
G2 X48.0867 Y-16.7922 I12.7601 J0.7648
G3 X48.0866 Y-16.7896 I-0.8496 J-0.0276
G1 X48.0836 Y-16.704
G1 X48.0784 Y-16.5367
G1 X48.0704 Y-16.2076
G2 X48.0608 Y-15.5915 I66.4102 J1.3432
G1 Y-15.5916
G1 Y-15.5915
G1 X48.0593 Y-15.4558
G1 X48.055 Y-14.9276
G1 X48.0537 Y-14.6969
G1 X48.0532 Y-14.5892
G1 X48.0505 Y-13.7479
G1 X48.0493 Y-12.4846
G1 X48.0492 Y-12.1688
G1 X48.0491 Y-11.6947
G1 Y-11.2206
G1 Y-4.7084
G3 X47.8208 Y-4.1287 I-0.85 J0.0
G1 X47.6745 Y-4.2651
G3 X47.1991 Y-4.0584 I-0.4754 J-0.4433
G1 X46.5377
G3 X46.5332 I0.0 J-0.65
G2 X46.4048 Y-4.0557 I-0.0155 J2.2694
G1 X46.3356 Y-4.0518
G1 X46.2703 Y-4.0466
G2 X46.0494 Y-4.0143 I0.1881 J2.0619
G3 X46.0366 Y-4.0119 I-0.1284 J-0.6372
G2 X46.0189 Y-4.008 I0.0444 J0.2457
G3 X46.0045 Y-4.0045 I-0.1618 J-0.6295
G2 X45.9198 Y-3.9821 I0.3347 J1.4372
G2 X45.7738 Y-3.9284 I0.3593 J1.2015
G2 X45.6709 Y-3.8736 I0.3392 J0.761
G3 X45.6679 Y-3.8717 I-0.3449 J-0.551
G2 X45.5344 Y-3.7592 I0.3138 J0.5076
G2 X45.4632 Y-3.6574 I0.4154 J0.3664
G2 X45.3887 Y-3.4502 I0.6824 J0.3624
G2 X45.362 Y-3.1782 I1.2879 J0.2636
G3 Y-3.1714 I-0.65 J0.0042
G2 X45.3805 Y-2.9406 I1.3859 J0.0056
G2 X45.4266 Y-2.7695 I0.9453 J-0.1631
G2 X45.5575 Y-2.5642 I0.5454 J-0.2036
G2 X45.7161 Y-2.4482 I0.4793 J-0.4888
G3 X45.7227 Y-2.4447 I-0.3045 J0.5743
G2 X45.7513 Y-2.4302 I0.2461 J-0.4516
G3 X45.7552 Y-2.4284 I-0.2748 J0.589
G2 X45.8282 Y-2.3971 I0.4502 J-0.9489
G1 X45.8714 Y-2.3815
G2 X46.0154 Y-2.3411 I0.4988 J-1.5023
G2 X46.2609 Y-2.3024 I0.4422 J-2.007
G1 X46.3344 Y-2.2963
G2 X46.5386 Y-2.2896 I0.2137 J-3.3747
G1 X47.1992 Y-2.2895
G3 X47.8491 Y-1.6395 I-0.0001 J0.65
G1 Y0.2788
G1 X47.8503 Y0.8472
G1 X47.8518 Y1.0593
G1 X47.852 Y1.0817
G1 X47.8522 Y1.1036
G1 X47.8547 Y1.2824
G1 X47.8579 Y1.4396
G3 Y1.4398 I-0.6499 J0.0135
G2 X47.8617 Y1.5664 I6.6272 J-0.1355
G1 X47.8667 Y1.6855
G1 X47.8672 Y1.6958
G2 X47.8802 Y1.8836 I5.393 J-0.2788
G3 X47.8805 Y1.8868 I-0.6476 J0.0562
G2 X47.8936 Y1.9964 I1.4732 J-0.1204
G3 X47.8947 Y2.0036 I-0.6421 J0.1012
G2 X47.9068 Y2.0679 I0.7772 J-0.1135
G3 X47.909 Y2.0775 I-0.6331 J0.1471
G2 X47.9241 Y2.1254 I0.2635 J-0.057
G2 X47.9629 Y2.198 I0.5392 J-0.2416
G3 X47.9653 Y2.2018 I-0.5505 J0.3457
G2 X48.1048 Y2.3611 I0.5469 J-0.3382
G3 X48.1055 Y2.3617 I-0.4118 J0.5029
G2 X48.246 Y2.4519 I0.4548 J-0.5538
G3 X48.2486 Y2.4532 I-0.2851 J0.5842
G2 X48.3812 Y2.5072 I0.4453 J-0.9024
G2 X48.6186 Y2.5611 I0.4396 J-1.3867
G2 X48.8871 Y2.5789 I0.2679 J-2.0147
G3 X48.8912 I0.0002 J0.65
G2 X49.1783 Y2.5593 I0.0117 J-1.9412
G2 X49.3505 Y2.5183 I-0.1586 J-1.0481
G2 X49.5658 Y2.4082 I-0.2641 J-0.7825
G3 X49.5674 Y2.4071 I0.3773 J0.5293
G2 X49.6761 Y2.3201 I-0.6893 J-0.973
G2 X49.7954 Y2.2027 I-1.5303 J-1.6727
G3 X49.7989 Y2.1989 I0.4729 J0.4459
G2 X49.8404 Y2.1525 I-0.6574 J-0.6297
G2 X49.8486 Y2.1162 I-0.5932 J-0.1529
G2 X49.8692 Y1.9487 I-1.8637 J-0.3139
G3 Y1.9482 I0.648 J0.0503
G2 X49.8899 Y1.5705 I-7.922 J-0.6222
G3 Y1.5696 I0.6497 J0.02
G1 X49.8948 Y1.4182
G2 X49.9158 Y0.3542 I-86.6622 J-2.2472
G3 Y0.3524 I0.6499 J0.0089
G1 X49.9487 Y-1.6501
G3 X50.5986 Y-2.2895 I0.6499 J0.0107
G1 X51.2289
G2 X51.3729 Y-2.2924 I-0.0257 J-4.791
G2 X51.6157 Y-2.3138 I-0.0987 J-2.5095
G1 X51.6704 Y-2.3223
G1 X51.7225 Y-2.3317
G2 X51.8946 Y-2.3765 I-0.316 J-1.569
G2 X52.0232 Y-2.4291 I-0.3345 J-1.0003
G3 X52.0239 Y-2.4295 I0.2854 J0.584
G2 X52.1789 Y-2.538 I-0.264 J-0.5419
G2 X52.2578 Y-2.6399 I-0.3717 J-0.3693
G2 X52.2821 Y-2.6861 I-0.5891 J-0.3403
G2 X52.3462 Y-2.894 I-0.7688 J-0.3505
G3 X52.3467 Y-2.8969 I0.6407 J0.1097
G2 X52.3567 Y-2.9621 I-1.4923 J-0.2623
G2 X52.3692 Y-3.1714 I-1.7444 J-0.2093
G1 X52.3689 Y-3.2088
G2 X52.3636 Y-3.323 I-1.8369 J0.0277
G1 X52.3572 Y-3.3882
G2 X52.3201 Y-3.5731 I-1.1785 J0.1398
G2 X52.2698 Y-3.6999 I-0.6819 J0.1974
G3 X52.2694 Y-3.7006 I0.5783 J-0.2968
G2 X52.1485 Y-3.8516 I-0.4289 J0.2195
G2 X52.0095 Y-3.9374 I-0.3858 J0.4695
G3 X52.009 Y-3.9376 I0.2639 J-0.594
G2 X51.8598 Y-3.9918 I-0.4563 J1.0248
G2 X51.5906 Y-4.0425 I-0.4529 J1.6632
G2 X51.2804 Y-4.0586 I-0.3041 J2.8566
G3 X51.279 I-0.0014 J-0.65
G1 X50.5858
G3 X49.9358 Y-4.7086 I0.0 J-0.65
G1 Y-11.2547
G1 Y-17.6021
G1 X49.8086 Y-17.7908
G2 X49.5739 Y-18.0388 I-0.8715 J0.5898
G3 X49.5735 Y-18.0391 I0.3934 J-0.5175
G2 X49.0827 Y-18.264 I-0.7459 J0.9797
G3 X49.0797 Y-18.2646 I0.1346 J-0.6359
G2 X48.5536 Y-18.2632 I-0.2598 J1.1994
G3 X48.5476 Y-18.2617 I-0.1612 J-0.6297
G2 X48.4468 Y-18.2316 I0.2586 J1.052
G2 X48.2676 Y-18.1594 I0.7047 J2.0044
G3 X48.2641 Y-18.1577 I-0.2704 J-0.5911
G2 X48.1909 Y-18.1217 I0.4869 J1.0817
G3 X48.1854 Y-18.1188 I-0.3069 J-0.573
G2 X48.1293 Y-18.0862 I0.3371 J0.6444
G1 X48.1049 Y-18.0702
G3 X48.0953 Y-18.0641 I-0.3563 J-0.5436
G2 X48.0352 Y-18.0228 I0.5075 J0.8045
G2 X48.0207 Y-18.0115 I0.3975 J0.5236
G2 X47.9984 Y-17.949 I0.3172 J0.1488
G3 X47.9963 Y-17.9412 I-0.63 J-0.16
G2 X47.9653 Y-17.7954 I1.3958 J0.3729
G3 X47.9642 Y-17.7885 I-0.6419 J-0.1022
G2 X47.9411 Y-17.6217 I2.685 J0.4569
G1 X47.9309 Y-17.5252
G2 X47.9034 Y-17.1568 I9.5803 J0.9003
G3 X47.9032 Y-17.1539 I-0.649 J-0.0359
G2 X47.8868 Y-16.7987 I12.9597 J0.7767
G3 X47.8867 Y-16.7967 I-0.6497 J-0.0211
G1 X47.8837 Y-16.7107
G1 X47.8784 Y-16.5422
G1 X47.8704 Y-16.2121
G2 X47.8608 Y-15.5937 I66.6101 J1.3477
G1 X47.8593 Y-15.4577
G1 X47.855 Y-14.929
G1 X47.8537 Y-14.698
G1 X47.8532 Y-14.59
G1 X47.8505 Y-13.7483
G1 X47.8493 Y-12.4847
G1 X47.8492 Y-12.1688
G1 X47.8491 Y-11.6947
G1 Y-11.2206
G1 Y-4.7084
G3 X47.6745 Y-4.2651 I-0.65 J0.0
G1 X47.5282 Y-4.4015
G3 X47.1991 Y-4.2584 I-0.3291 J-0.3069
G1 X46.5377
G3 X46.5346 I0.0 J-0.45
G2 X46.3942 Y-4.2554 I-0.0169 J2.4694
G1 X46.322 Y-4.2513
G1 X46.2533 Y-4.2458
G2 X46.0099 Y-4.2104 I0.2051 J2.2612
G3 X46.001 Y-4.2087 I-0.0889 J-0.4411
G2 X45.9691 Y-4.2017 I0.08 J0.4425
G3 X45.9591 Y-4.1993 I-0.112 J-0.4358
G2 X45.8627 Y-4.1738 I0.3801 J1.632
G2 X45.6928 Y-4.1112 I0.4163 J1.3932
G2 X45.5648 Y-4.0431 I0.4202 J0.9438
G3 X45.5627 Y-4.0418 I-0.2388 J-0.3814
G2 X45.3844 Y-3.8915 I0.419 J0.6778
G2 X45.287 Y-3.7521 I0.5653 J0.4988
G2 X45.1928 Y-3.4904 I0.8586 J0.4571
G2 X45.162 Y-3.1769 I1.4839 J0.3038
G3 Y-3.1722 I-0.45 J0.0029
G2 X45.1832 Y-2.9073 I1.5859 J0.0064
G2 X45.2392 Y-2.6997 I1.1425 J-0.1963
G2 X45.4163 Y-2.4226 I0.7328 J-0.2734
G2 X45.6225 Y-2.2715 I0.6205 J-0.6304
G3 X45.627 Y-2.2691 I-0.2108 J0.3976
G2 X45.6668 Y-2.249 I0.3418 J-0.6272
G3 X45.6694 Y-2.2477 I-0.1903 J0.4078
G2 X45.7584 Y-2.2096 I0.536 J-1.1296
G1 X45.8058 Y-2.1925
G2 X45.9715 Y-2.146 I0.5643 J-1.6913
G2 X46.2432 Y-2.1032 I0.4861 J-2.2021
G1 X46.3198 Y-2.0969
G2 X46.5383 Y-2.0896 I0.2283 J-3.5742
G1 X47.1992 Y-2.0895
G3 X47.6491 Y-1.6395 I-0.0001 J0.45
G1 Y0.279
G1 X47.6503 Y0.8481
G1 X47.6518 Y1.0609
G1 X47.652 Y1.0837
G1 X47.6523 Y1.106
G1 X47.6547 Y1.2858
G1 X47.658 Y1.4438
G3 Y1.4439 I-0.4499 J0.0093
G2 X47.6619 Y1.5746 I6.8272 J-0.1396
G1 X47.6669 Y1.6947
G1 X47.6675 Y1.706
G2 X47.681 Y1.9008 I5.5927 J-0.2889
G3 X47.6812 Y1.9031 I-0.4483 J0.0389
G2 X47.696 Y2.0276 I1.6726 J-0.1367
G3 X47.6968 Y2.0325 I-0.4445 J0.07
G2 X47.712 Y2.1131 I0.9751 J-0.1424
G3 X47.7135 Y2.1198 I-0.4383 J0.1018
G2 X47.7408 Y2.2053 I0.459 J-0.0993
G2 X47.7936 Y2.3043 I0.7225 J-0.3216
G3 X47.7952 Y2.307 I-0.3811 J0.2393
G2 X47.9781 Y2.5158 I0.717 J-0.4433
G3 X47.9786 Y2.5162 I-0.2851 J0.3481
G2 X48.1583 Y2.6317 I0.5818 J-0.7084
G3 X48.1601 Y2.6325 I-0.1974 J0.4044
G2 X48.3199 Y2.6976 I0.5338 J-1.0817
G2 X48.5915 Y2.7593 I0.5009 J-1.577
G2 X48.8871 Y2.7789 I0.2949 J-2.2128
G3 X48.89 I0.0001 J0.45
G2 X49.2075 Y2.7571 I0.0129 J-2.1412
G2 X49.4137 Y2.708 I-0.1877 J-1.246
G2 X49.682 Y2.5711 I-0.3273 J-0.9723
G3 X49.6831 Y2.5703 I0.2612 J0.3664
G2 X49.8106 Y2.4682 I-0.805 J-1.1362
G2 X49.9409 Y2.3399 I-1.6647 J-1.8208
G3 X49.9433 Y2.3373 I0.3274 J0.3087
G2 X50.0118 Y2.2588 I-0.8018 J-0.768
G2 X50.0216 Y2.2413 I-0.066 J-0.0489
G3 X50.0219 Y2.2408 I0.4157 J0.1724
G2 X50.0287 Y2.2225 I-0.2289 J-0.0953
G2 X50.0455 Y2.1518 I-0.7814 J-0.2229
G2 X50.0686 Y1.9642 I-2.0605 J-0.3494
G3 Y1.9638 I0.4486 J0.0349
G2 X50.0898 Y1.5766 I-8.1214 J-0.6378
G3 Y1.576 I0.4498 J0.0138
G1 X50.0947 Y1.424
G2 X50.1158 Y0.357 I-86.8621 J-2.253
G3 Y0.3557 I0.45 J0.0061
G1 X50.1487 Y-1.6469
G3 X50.5986 Y-2.0895 I0.4499 J0.0074
G1 X51.2294
G2 X51.3804 Y-2.0926 I-0.0263 J-4.991
G2 X51.6446 Y-2.1159 I-0.1062 J-2.7094
G1 X51.7036 Y-2.125
G1 X51.7601 Y-2.1353
G2 X51.9568 Y-2.1864 I-0.3536 J-1.7655
G2 X52.111 Y-2.2494 I-0.3967 J-1.1903
G3 X52.1115 Y-2.2497 I0.1976 J0.4043
G2 X52.3194 Y-2.3956 I-0.3516 J-0.7217
G2 X52.4304 Y-2.5389 I-0.5121 J-0.5117
G2 X52.4633 Y-2.6014 I-0.7617 J-0.4413
G2 X52.5433 Y-2.8603 I-0.9499 J-0.4353
G3 X52.5436 Y-2.8623 I0.4435 J0.0759
G2 X52.5551 Y-2.9372 I-1.6893 J-0.2969
G2 X52.5692 Y-3.1722 I-1.9428 J-0.2342
G1 X52.5689 Y-3.211
G2 X52.5628 Y-3.3406 I-2.0369 J0.0299
G1 X52.556 Y-3.4097
G2 X52.5124 Y-3.6283 I-1.3774 J0.1613
G2 X52.4477 Y-3.7912 I-0.8741 J0.2525
G3 X52.4475 Y-3.7917 I0.4003 J-0.2055
G2 X52.276 Y-4.0057 I-0.6069 J0.3106
G2 X52.0907 Y-4.1202 I-0.5133 J0.6237
G3 X52.0904 Y-4.1203 I0.1827 J-0.4112
G2 X51.9135 Y-4.1844 I-0.5376 J1.2075
G2 X51.6118 Y-4.2414 I-0.5066 J1.8559
G2 X51.2799 Y-4.2586 I-0.3253 J3.0554
G3 X51.279 I-0.001 J-0.45
G1 X50.5858
G3 X50.1358 Y-4.7086 I0.0 J-0.45
G1 Y-11.2547
G1 Y-17.6632
G1 X49.9743 Y-17.9028
G2 X49.695 Y-18.198 I-1.0373 J0.7018
G3 X49.6947 Y-18.1982 I0.2723 J-0.3582
G2 X49.1241 Y-18.4597 I-0.8671 J1.1388
G3 X49.1221 Y-18.4601 I0.0932 J-0.4402
G2 X48.5067 Y-18.4576 I-0.3021 J1.3949
G3 X48.4998 Y-18.4559 I-0.1143 J-0.4352
G2 X48.3805 Y-18.4203 I0.3064 J1.2462
G1 X48.3804
G2 X48.1845 Y-18.3412 I0.771 J2.1931
G3 X48.182 Y-18.3401 I-0.1872 J-0.4092
G2 X48.0965 Y-18.298 I0.569 J1.2641
G3 X48.0927 Y-18.296 I-0.2124 J-0.3967
G2 X48.0204 Y-18.2539 I0.4298 J0.8216
G1 X47.9952 Y-18.2375
G3 X47.9886 Y-18.2332 I-0.2467 J-0.3764
G2 X47.9151 Y-18.1827 I0.6142 J0.9737
G2 X47.8856 Y-18.1594 I0.5176 J0.6835
G2 X47.8471 Y-18.1118 I0.1059 J0.1249
G2 X47.8045 Y-17.9982 I0.4908 J0.249
G3 X47.8031 Y-17.9928 I-0.4362 J-0.1108
G2 X47.7678 Y-17.8268 I1.5891 J0.4245
G3 X47.767 Y-17.8221 I-0.4444 J-0.0707
G2 X47.7422 Y-17.6429 I2.8822 J0.4904
G1 X47.7319 Y-17.5451
G2 X47.7037 Y-17.1679 I9.7793 J0.9202
G3 X47.7036 Y-17.1658 I-0.4493 J-0.0249
G2 X47.6869 Y-16.8052 I13.1594 J0.7887
G3 Y-16.8038 I-0.4498 J-0.0146
G1 X47.6838 Y-16.7173
G1 X47.6785 Y-16.5477
G1 X47.6705 Y-16.2165
G2 X47.6608 Y-15.5959 I66.8101 J1.3521
G1 X47.6593 Y-15.4596
G1 X47.655 Y-14.9304
G1 X47.6537 Y-14.6991
G1 X47.6532 Y-14.5909
G1 X47.6505 Y-13.7487
G1 X47.6493 Y-12.4848
G1 X47.6492 Y-12.1689
G1 X47.6491 Y-11.6947
G1 Y-11.2206
G1 Y-4.7084
G3 X47.5282 Y-4.4015 I-0.45 J0.0
G1 X47.382 Y-4.5379
G3 X47.1991 Y-4.4584 I-0.1828 J-0.1705
G1 X46.5377
G3 X46.536 I0.0 J-0.25
G2 X46.3835 Y-4.4551 I-0.0182 J2.6694
G1 X46.3084 Y-4.4509
G1 X46.2363 Y-4.4451
G2 X45.9704 Y-4.4065 I0.2221 J2.4605
G3 X45.9655 Y-4.4055 I-0.0494 J-0.2451
G2 X45.9193 Y-4.3954 I0.1156 J0.6393
G3 X45.9138 Y-4.3941 I-0.0622 J-0.2421
G2 X45.8056 Y-4.3655 I0.4255 J1.8268
G2 X45.6118 Y-4.2941 I0.4734 J1.5849
G2 X45.4587 Y-4.2127 I0.5012 J1.1267
G3 X45.4575 Y-4.2119 I-0.1326 J-0.2119
G2 X45.2345 Y-4.0239 I0.5242 J0.8479
G2 X45.1109 Y-3.8468 I0.7152 J0.6312
G2 X44.9968 Y-3.5305 I1.0348 J0.5517
G2 X44.962 Y-3.1756 I1.6798 J0.3439
G3 Y-3.173 I-0.25 J0.0016
G2 X44.986 Y-2.8741 I1.7859 J0.0072
G2 X45.0517 Y-2.6299 I1.3397 J-0.2295
G2 X45.2752 Y-2.2809 I0.9202 J-0.3432
G2 X45.5288 Y-2.0948 I0.7617 J-0.7721
G3 X45.5313 Y-2.0935 I-0.1171 J0.2209
G2 X45.5822 Y-2.0677 I0.4375 J-0.8028
G3 X45.5837 Y-2.067 I-0.1057 J0.2266
G2 X45.6887 Y-2.0222 I0.6217 J-1.3103
G1 X45.7401 Y-2.0036
G2 X45.9276 Y-1.9509 I0.63 J-1.8802
G2 X46.2254 Y-1.904 I0.53 J-2.3972
G1 X46.3051 Y-1.8974
G2 X46.538 Y-1.8896 I0.2429 J-3.7736
G1 X47.1992 Y-1.8895
G3 X47.4491 Y-1.6395 I0.0 J0.25
G1 Y0.2792
G1 X47.4503 Y0.8491
G1 X47.4518 Y1.0626
G1 X47.452 Y1.0857
G1 X47.4523 Y1.1084
G1 X47.4547 Y1.2892
G1 X47.458 Y1.4479
G1 Y1.448
G2 X47.4621 Y1.5827 I7.0271 J-0.1437
G1 X47.4671 Y1.7039
G1 X47.4678 Y1.7161
G2 X47.4817 Y1.9181 I5.7924 J-0.2991
G3 X47.4818 Y1.9194 I-0.2491 J0.0216
G2 X47.4985 Y2.0587 I1.8719 J-0.1529
G3 X47.4989 Y2.0614 I-0.247 J0.0389
G2 X47.5172 Y2.1584 I1.173 J-0.1713
G3 X47.518 Y2.1621 I-0.2435 J0.0566
G2 X47.5575 Y2.2854 I0.6545 J-0.1415
G2 X47.6242 Y2.4107 I0.9058 J-0.4016
G3 X47.6251 Y2.4122 I-0.2117 J0.133
G2 X47.8514 Y2.6706 I0.8871 J-0.5485
G3 X47.8516 Y2.6708 I-0.1584 J0.1934
G2 X48.0706 Y2.8114 I0.7087 J-0.8629
G3 X48.0716 Y2.8119 I-0.1096 J0.2247
G2 X48.2586 Y2.888 I0.6224 J-1.2611
G2 X48.5644 Y2.9575 I0.5622 J-1.7674
G2 X48.8872 Y2.9789 I0.322 J-2.411
G3 X48.8888 I0.0001 J0.25
G2 X49.2366 Y2.955 I0.0141 J-2.3412
G2 X49.4768 Y2.8978 I-0.2168 J-1.4438
G2 X49.7981 Y2.7339 I-0.3904 J-1.162
G3 X49.7987 Y2.7335 I0.1451 J0.2036
G2 X49.945 Y2.6162 I-0.9206 J-1.2994
G2 X50.0864 Y2.4771 I-1.7992 J-1.9688
G3 X50.0878 Y2.4756 I0.1819 J0.1715
G2 X50.17 Y2.3811 I-0.9462 J-0.9064
G2 X50.2064 Y2.318 I-0.2242 J-0.1713
G3 X50.2065 Y2.3177 I0.2309 J0.0958
G2 X50.22 Y2.2807 I-0.4135 J-0.1721
G2 X50.2423 Y2.1872 I-0.9728 J-0.2811
G2 X50.268 Y1.9797 I-2.2574 J-0.3848
G3 Y1.9795 I0.2492 J0.0194
G2 X50.2897 Y1.5828 I-8.3208 J-0.6535
G3 Y1.5824 I0.2499 J0.0077
G1 X50.2946 Y1.4298
G2 X50.3158 Y0.3597 I-87.062 J-2.2588
G3 Y0.359 I0.25 J0.0034
G1 X50.3487 Y-1.6436
G3 X50.5986 Y-1.8895 I0.25 J0.0041
G1 X51.23
G2 X51.3878 Y-1.8927 I-0.0268 J-5.191
G2 X51.6735 Y-1.918 I-0.1136 J-2.9092
G1 X51.7368 Y-1.9278
G1 X51.7976 Y-1.9388
G2 X52.019 Y-1.9963 I-0.3911 J-1.9619
G2 X52.1988 Y-2.0697 I-0.4589 J-1.3804
G3 X52.1991 Y-2.0699 I0.1098 J0.2246
G2 X52.4598 Y-2.2532 I-0.4392 J-0.9015
G2 X52.603 Y-2.4379 I-0.6526 J-0.6541
G2 X52.6445 Y-2.5167 I-0.9343 J-0.5423
G2 X52.7404 Y-2.8265 I-1.1311 J-0.5199
G3 X52.7406 Y-2.8276 I0.2464 J0.0422
G2 X52.7535 Y-2.9122 I-1.8863 J-0.3315
G2 X52.7692 Y-3.173 I-2.1412 J-0.2591
G1 X52.7689 Y-3.2132
G2 X52.7621 Y-3.3583 I-2.2369 J0.0321
G1 X52.7549 Y-3.4311
G2 X52.7046 Y-3.6834 I-1.5762 J0.1828
G2 X52.6256 Y-3.8826 I-1.0664 J0.3077
G3 X52.6255 Y-3.8828 I0.2224 J-0.1142
G2 X52.4034 Y-4.1599 I-0.785 J0.4017
G2 X52.1719 Y-4.303 I-0.6407 J0.7779
G3 X52.1717 I0.1015 J-0.2285
G2 X51.9671 Y-4.3771 I-0.619 J1.3902
G2 X51.6331 Y-4.4402 I-0.5602 J2.0485
G2 X51.2795 Y-4.4586 I-0.3466 J3.2543
G3 X51.279 I-0.0005 J-0.25
G1 X50.5858
G3 X50.3358 Y-4.7086 I0.0 J-0.25
G1 Y-11.2547
G1 Y-17.7243
G1 X50.1401 Y-18.0147
G2 X49.816 Y-18.3572 I-1.203 J0.8137
G3 X49.8158 Y-18.3573 I0.1513 J-0.199
G2 X49.1655 Y-18.6553 I-0.9882 J1.298
G3 X49.1644 Y-18.6556 I0.0518 J-0.2446
G2 X48.4587 Y-18.6518 I-0.3444 J1.5904
G3 X48.4521 Y-18.6501 I-0.0663 J-0.241
G2 X48.3141 Y-18.609 I0.3541 J1.4405
G2 X48.1013 Y-18.5231 I0.8373 J2.3818
G3 X48.0999 Y-18.5225 I-0.104 J-0.2273
G2 X48.0021 Y-18.4744 I0.6511 J1.4465
G3 X47.9999 Y-18.4732 I-0.118 J-0.2204
G2 X47.9114 Y-18.4216 I0.5225 J0.9988
G1 X47.8856 Y-18.4047
G3 X47.8819 Y-18.4024 I-0.1371 J-0.2091
G2 X47.795 Y-18.3427 I0.7209 J1.1429
G2 X47.7573 Y-18.3128 I0.6377 J0.8435
G2 X47.6697 Y-18.204 I0.2342 J0.2783
G2 X47.6107 Y-18.0474 I0.6682 J0.3412
G3 X47.6099 Y-18.0444 I-0.2423 J-0.0615
G2 X47.5703 Y-17.8583 I1.7823 J0.4761
G3 X47.5699 Y-17.8556 I-0.2469 J-0.0393
G2 X47.5434 Y-17.6641 I3.0793 J0.524
G1 X47.5329 Y-17.565
G2 X47.504 Y-17.1789 I9.9783 J0.9401
G3 X47.5039 Y-17.1778 I-0.2496 J-0.0138
G2 X47.487 Y-16.8117 I13.359 J0.8007
G3 Y-16.8109 I-0.2499 J-0.0081
G1 X47.4839 Y-16.724
G1 X47.4786 Y-16.5533
G1 X47.4705 Y-16.221
G2 X47.4608 Y-15.5981 I67.01 J1.3565
G1 X47.4593 Y-15.4615
G1 X47.455 Y-14.9318
G1 X47.4537 Y-14.7001
G1 X47.4532 Y-14.5917
G1 X47.4505 Y-13.7491
G1 X47.4493 Y-12.485
G1 X47.4492 Y-12.1689
G1 X47.4491 Y-11.6947
G1 Y-11.2206
G1 Y-4.7084
G3 X47.382 Y-4.5379 I-0.25 J0.0
G0 Z90.0
G0 X33.8779 Y-4.7343
G1 Z0.0
G1 Y-5.8265
G3 X33.4968 Y-5.1833 I-6.3479 J-3.3272
G3 X33.3891 Y-5.026 I-5.4149 J-3.5894
G3 X33.8779 Y-4.7343 I-0.7958 J1.8893
G1 X34.0779
G1 Y-6.6134
G1 Y-6.7599
G3 X33.9833 Y-6.5222 I-7.7497 J-2.9453
G3 X33.7757 Y-6.0665 I-6.6937 J-2.7751
G3 X33.3301 Y-5.294 I-6.2456 J-3.0873
G3 X33.0661 Y-4.9253 I-5.2483 J-3.4788
G3 X34.0779 Y-4.2406 I-0.4728 J1.7886
G1 Y-4.7343
G1 X34.2779
G1 Y-6.6134
G1 Y-8.1916
G3 X34.1892 Y-7.7918 I-9.0702 J-1.8027
G3 X33.7986 Y-6.5989 I-7.861 J-1.9135
G3 X33.5965 Y-6.1554 I-6.509 J-2.6984
G3 X33.1635 Y-5.4046 I-6.0665 J-2.9984
G3 X32.6922 Y-4.7837 I-5.0817 J-3.3681
G3 X34.2433 Y-3.133 I-0.0989 J1.647
G1 X34.2346 Y0.7367
G1 X34.2327 Y1.7966
G3 Y1.7982 I-1.65 J-0.003
G2 X34.2378 Y3.3656 I129.322 J0.3651
G1 X34.2406 Y3.5585
G1 X34.2409 Y3.5749
G1 X34.2445 Y3.7411
G1 X34.2449 Y3.7566
G3 X34.245 Y3.7634 I-1.6495 J0.0422
G2 X34.2539 Y4.0142 I9.0409 J-0.1944
G1 X34.2554 Y4.0435
G2 X34.2779 Y4.0412 I-0.0238 J-0.3418
G1 Y-4.7343
G0 Z90.0
G0 X25.6444 Y-3.9654
G1 Z0.0
G3 X25.3774 Y-4.1912 I3.8714 J-4.8498
G3 X24.576 Y-5.0319 I4.8474 J-5.4227
G3 X24.3895 Y-5.2735 I4.7301 J-3.8448
G3 X24.2602 Y-5.4561 I4.9346 J-3.633
G3 X23.8845 Y-6.0982 I4.198 J-2.8871
G3 X23.8788 Y-6.1099 I1.4808 J-0.7269
G3 X23.5465 Y-6.9173 I6.7818 J-3.2629
G3 X23.3365 Y-7.6102 I8.8153 J-3.0508
G3 X23.3334 Y-7.6219 I1.596 J-0.417
G1 X23.3014 Y-7.7484
G3 X23.2974 Y-7.7643 I1.599 J-0.4052
G3 X23.0795 Y-8.9311 I10.7554 J-2.6127
G3 X22.9826 Y-10.697 I11.3522 J-1.5084
G3 X23.0442 Y-11.6047 I9.716 J0.2031
G3 X23.2029 Y-12.5361 I8.2308 J0.9231
G3 X23.2036 Y-12.5393 I1.6077 J0.3694
G3 X23.6358 Y-13.8731 I7.9917 J1.8526
G3 X23.6415 Y-13.8865 I1.5201 J0.6407
G1 X23.6834 Y-13.9834
G3 X23.6884 Y-13.995 I1.5144 J0.6541
G3 X24.1721 Y-14.917 I7.0384 J3.1042
G3 X24.1737 Y-14.9197 I1.4056 J0.8634
G3 X24.6363 Y-15.5804 I5.9228 J3.6538
G3 X24.6378 Y-15.5823 I1.2943 J1.0227
G3 X24.722 Y-15.6862 I4.5824 J3.6317
G2 X24.3555 Y-15.2656 I4.0274 J3.88
G3 X24.3534 Y-15.2629 I-1.2964 J-1.0207
G2 X24.1663 Y-15.0112 I4.1194 J3.2567
G3 X24.1653 Y-15.0098 I-1.3531 J-0.9442
G2 X23.9963 Y-14.7556 I5.3584 J3.747
G1 X23.9767 Y-14.7243
G1 X23.958 Y-14.694
G1 X23.9396 Y-14.6639
G2 X23.4357 Y-13.6454 I5.9218 J3.5637
G3 X23.4354 Y-13.6445 I-1.534 J-0.6076
G2 X23.1586 Y-12.8161 I7.3499 J2.9162
G1 X23.1351 Y-12.729
G2 X22.8931 Y-11.4477 I9.1468 J2.3908
G3 Y-11.4474 I-1.6386 J-0.1936
G2 X22.8159 Y-10.1101 I11.0562 J1.309
G3 Y-10.1059 I-1.65 J0.0042
G2 X23.041 Y-8.1079 I8.9767 J0.0003
G2 X23.5038 Y-6.6868 I8.1027 J-1.8524
G2 X24.0132 Y-5.7092 I6.8653 J-2.9556
G2 X24.4809 Y-5.05 I5.5736 J-3.4594
G3 X24.4824 Y-5.0481 I-1.2843 J1.0359
G2 X25.3077 Y-4.2158 I4.4042 J-3.542
G2 X25.6444 Y-3.9654 I3.2036 J-3.9562
G0 Z90.0
G0 X33.6779 Y-15.3344
G1 Z0.0
G1 Y-15.5625
G3 X33.5654 Y-15.5037 I-1.0979 J-1.964
G3 X33.6495 Y-15.3781 I-5.4992 J3.7745
G3 X33.6779 Y-15.3344 I-6.3185 J4.1315
G1 X33.5097 Y-15.2261
G3 X33.8487 Y-14.6426 I-6.1787 J3.9796
G3 X33.8521 Y-14.6362 I-1.8177 J0.9471
G3 X33.8779 Y-14.5857 I-7.3814 J3.8131
G1 Y-15.9396
G3 X33.2569 Y-15.5914 I-1.2979 J-1.5868
G3 X33.4821 Y-15.2686 I-5.1907 J3.8622
G3 X33.5097 Y-15.2261 I-6.1511 J4.0221
G1 X33.3416 Y-15.1178
G3 X33.6714 Y-14.5502 I-6.0105 J3.8713
G3 X33.6744 Y-14.5444 I-1.6403 J0.8547
G3 X34.0779 Y-13.6287 I-7.2037 J3.7213
G1 Y-16.4407
G3 X32.913 Y-15.7067 I-1.4979 J-1.0857
G3 X33.3147 Y-15.1592 I-4.8468 J3.9774
G3 X33.3416 Y-15.1178 I-5.9837 J3.9127
G1 X33.1735 Y-15.0095
G3 X33.494 Y-14.4577 I-5.8424 J3.763
G3 X33.4967 Y-14.4526 I-1.4629 J0.7623
G3 X33.9507 Y-13.3897 I-7.0261 J3.6295
G3 X33.9515 Y-13.3874 I-1.5603 J0.5354
G3 X34.077 Y-12.9914 I-8.9588 J3.0593
G3 X34.0777 Y-12.9891 I-1.583 J0.4641
G3 X34.2544 Y-12.2757 I-8.6241 J2.5145
G3 X34.2779 Y-12.1576 I-10.0089 J2.0499
G1 Y-17.2633
G2 X34.2306 Y-17.2545 I0.0249 J0.2625
G3 X34.2263 Y-17.2532 I-0.4514 J-1.5871
G2 X34.2081 Y-17.2476 I0.0949 J0.3371
G1 X34.1916 Y-17.1725
G3 X32.496 Y-15.8786 I-1.6116 J-0.354
G3 X32.6529 Y-15.705 I-3.893 J3.6744
G3 X33.1473 Y-15.0498 I-4.5866 J3.9757
G3 X33.1735 Y-15.0095 I-5.8163 J3.8032
G1 X33.0053 Y-14.9012
G3 X33.3166 Y-14.3653 I-5.6742 J3.6547
G3 X33.319 Y-14.3608 I-1.2856 J0.6698
G3 X33.7615 Y-13.3248 I-6.8484 J3.5377
G3 X33.7622 Y-13.3228 I-1.3711 J0.4705
G3 X33.8851 Y-12.9352 I-8.7695 J2.9947
G3 X33.8857 Y-12.9331 I-1.3911 J0.4078
G3 X34.0585 Y-12.2356 I-8.4321 J2.4585
G3 X34.2146 Y-11.2005 I-9.8129 J2.0098
G3 X34.2274 Y-11.0602 I-5.6026 J0.5806
G3 X34.265 Y-10.156 I-10.6855 J0.8973
G3 X34.2311 Y-9.3103 I-10.4975 J0.0027
G3 X34.2261 Y-9.2498 I-1.6584 J-0.1081
G3 X34.1317 Y-8.5039 I-9.2681 J-0.7935
G3 X33.9949 Y-7.8392 I-8.924 J-1.4903
G3 X33.6139 Y-6.6756 I-7.6667 J-1.866
G3 X33.4173 Y-6.2443 I-6.3243 J-2.6217
G3 X32.9969 Y-5.5153 I-5.8873 J-2.9095
G3 X32.17 Y-4.5236 I-4.915 J-3.2575
G3 X34.0433 Y-3.1335 I0.4233 J1.3868
G1 X34.0346 Y0.7363
G1 X34.0327 Y1.7962
G3 Y1.7977 I-1.45 J-0.0026
G2 X34.0378 Y3.368 I129.522 J0.3657
G1 X34.0406 Y3.5618
G1 X34.041 Y3.5788
G1 X34.0445 Y3.7458
G1 X34.045 Y3.7617
G3 X34.0451 Y3.7677 I-1.4495 J0.0371
G2 X34.0542 Y4.0241 I9.2408 J-0.1987
G1 X34.0567 Y4.0746
G1 X34.0594 Y4.1224
G3 X34.0596 Y4.126 I-1.4477 J0.0824
G2 X34.066 Y4.2154 I2.7673 J-0.1507
G2 X34.1587 Y4.2395 I0.1338 J-0.3249
G3 X34.1655 Y4.2403 I-0.1697 J1.44
G2 X34.424 Y4.2091 I0.0661 J-0.5386
G1 X34.4242 Y4.209
G2 X34.4779 Y4.183 I-0.1179 J-0.3111
G1 Y-6.6134
G1 Y-17.4208
G2 X34.4316 Y-17.4451 I-0.1085 J0.1506
G2 X34.308 Y-17.4645 I-0.1213 J0.3685
G3 X34.3019 I-0.0089 J-1.45
G2 X34.1759 Y-17.4468 I0.0009 J0.4637
G3 X34.1721 Y-17.4458 I-0.3967 J-1.3947
G2 X34.0707 Y-17.406 I0.1491 J0.5296
G3 X34.0705 Y-17.4059 I-0.6601 J-1.291
G2 X34.0334 Y-17.3844 I0.1898 J0.3714
G1 X33.9962 Y-17.2154
G3 X31.6993 Y-16.3746 I-1.4162 J-0.3111
G1 X31.2084 Y-16.7499
G1 X31.1631 Y-16.7839
G2 X30.8489 Y-16.9866 I-1.8725 J2.5586
G2 X30.2192 Y-17.2616 I-1.711 J3.0585
G3 X30.2145 Y-17.2632 I0.4474 J-1.3792
G2 X29.6899 Y-17.3984 I-1.3018 J3.9662
G2 X28.8415 Y-17.4887 I-0.9816 J5.1887
G1 X28.7175 Y-17.4908
G2 X27.9445 Y-17.449 I-0.0418 J6.3928
G3 X27.9397 Y-17.4485 I-0.1658 J-1.4405
G2 X27.3302 Y-17.3489 I0.678 J6.0681
G3 X27.3287 Y-17.3486 I-0.3057 J-1.4174
G2 X26.2508 Y-16.9992 I1.1657 J5.4325
G2 X25.3986 Y-16.5225 I2.1219 J4.7941
G3 X25.3983 Y-16.5223 I-0.8226 J-1.1941
G2 X24.7375 Y-15.984 I3.0012 J4.3591
G1 X24.6997 Y-15.9475
G2 X24.1983 Y-15.3893 I4.0498 J4.1414
G3 X24.1965 Y-15.387 I-1.1393 J-0.897
G2 X24.0023 Y-15.1256 I4.2762 J3.3807
G3 X24.0014 Y-15.1244 I-1.1891 J-0.8297
G2 X23.827 Y-14.8621 I5.5223 J3.8616
G1 X23.8068 Y-14.8298
G1 X23.7875 Y-14.7986
G1 X23.7685 Y-14.7675
G2 X23.2498 Y-13.7191 I6.0928 J3.6673
G3 X23.2495 Y-13.7183 I-1.3481 J-0.534
G2 X22.9656 Y-12.8685 I7.5358 J2.9899
G1 X22.9418 Y-12.7803
G2 X22.6945 Y-11.4712 I9.3402 J2.4421
G3 Y-11.4709 I-1.44 J-0.1702
G2 X22.6159 Y-10.1096 I11.2548 J1.3325
G3 Y-10.1059 I-1.45 J0.0037
G2 X22.8461 Y-8.0633 I9.1767 J0.0003
G2 X23.32 Y-6.6079 I8.2977 J-1.897
G2 X23.8432 Y-5.6038 I7.049 J-3.0346
G2 X24.3253 Y-4.9244 I5.7436 J-3.5648
G3 X24.3266 Y-4.9227 I-1.1286 J0.9104
G2 X25.1814 Y-4.0607 I4.56 J-3.6673
G2 X25.6617 Y-3.7144 I3.3298 J-4.1113
G2 X26.1707 Y-3.4334 I2.5582 J-4.0335
G3 X26.1729 Y-3.4324 I-0.6221 J1.3098
G2 X26.4336 Y-3.3172 I2.1143 J-4.4326
G3 X26.44 Y-3.3146 I-0.5473 J1.3428
G2 X27.3528 Y-3.0564 I1.5633 J-3.7841
G1 X27.4191 Y-3.0462
G1 X27.4807 Y-3.0375
G2 X27.6914 Y-3.0136 I0.6652 J-4.9268
G1 X27.7931 Y-3.0049
G3 X27.8017 Y-3.0041 I-0.1232 J1.4448
G3 X27.8295 Y-3.0022 I-0.0854 J1.4475
G2 X27.9548 Y-2.9945 I0.2902 J-3.7037
G3 X27.9652 Y-2.994 I-0.0644 J1.4486
G2 X28.4084 Y-2.9834 I0.414 J-8.0109
G3 X28.4206 I0.0053 J1.45
G3 X28.4342 I0.009 J1.45
G3 X28.4681 Y-2.9833 I0.0111 J1.45
G3 X28.5215 Y-2.9838 I0.0399 J1.4494
G3 X28.5521 Y-2.9845 I0.0482 J1.4492
G2 X28.9499 Y-3.0007 I-0.0848 J-6.9498
G1 X29.0493 Y-3.0083
G2 X29.6772 Y-3.0989 I-0.3945 J-4.9547
G2 X29.7863 Y-3.1239 I-0.8438 J-3.9371
G3 X29.7909 Y-3.125 I0.3431 J1.4088
G2 X30.54 Y-3.4042 I-0.7717 J-3.2149
G1 X30.5905 Y-3.4312
G2 X30.9097 Y-3.6293 I-1.6568 J-3.0244
G2 X30.9109 Y-3.6302 I-2.4221 J-3.445
G3 X30.5113 Y-3.4611 I-1.7019 J-3.4651
G3 X29.6444 Y-3.2345 I-1.7067 J-4.7588
G3 X28.3849 Y-3.1552 I-1.0055 J-5.9235
G3 X27.7326 Y-3.2221 I0.2224 J-5.3836
G3 X27.0528 Y-3.3869 I0.7462 J-4.5608
G3 X27.0334 Y-3.3933 I0.4473 J-1.3789
G3 X26.8775 Y-3.4507 I1.0878 J-3.1994
G1 X26.8776
G1 X26.8775
G3 X26.5732 Y-3.5903 I1.1599 J-2.9303
G3 X26.135 Y-3.8518 I2.0077 J-3.8623
G3 X26.1329 Y-3.8531 I0.8145 J-1.1991
G3 X25.5107 Y-4.3403 I3.3829 J-4.962
G3 X24.7313 Y-5.158 I4.714 J-5.2736
G3 X24.5507 Y-5.3919 I4.5748 J-3.7188
G3 X24.4252 Y-5.5691 I4.7734 J-3.5146
G3 X24.064 Y-6.1863 I4.033 J-2.7742
G3 X24.059 Y-6.1966 I1.3013 J-0.6387
G3 X23.7355 Y-6.9827 I6.6016 J-3.1762
G3 X23.53 Y-7.6607 I8.6263 J-2.9855
G3 X23.5273 Y-7.671 I1.4025 J-0.3664
G1 X23.4952 Y-7.7975
G3 X23.4918 Y-7.8115 I1.4052 J-0.3561
G3 X23.2778 Y-8.9574 I10.5611 J-2.5655
G3 X23.1826 Y-10.6927 I11.1539 J-1.4822
G3 X23.2429 Y-11.5821 I9.5161 J0.1988
G3 X23.3978 Y-12.4913 I8.032 J0.9005
G3 X23.3984 Y-12.4941 I1.4128 J0.3246
G3 X23.8201 Y-13.7954 I7.7968 J1.8074
G3 X23.8251 Y-13.8072 I1.3358 J0.5631
G1 X23.867 Y-13.9041
G3 X23.8714 Y-13.9143 I1.3308 J0.5748
G3 X24.3425 Y-14.8123 I6.8554 J3.0235
G3 X24.3439 Y-14.8147 I1.2352 J0.7587
G3 X24.7932 Y-15.4564 I5.7526 J3.5488
G3 X24.7945 Y-15.4581 I1.1374 J0.8987
G3 X24.8924 Y-15.5782 I4.4257 J3.5074
G3 X25.2832 Y-16.001 I4.4923 J3.7603
G3 X25.2975 Y-16.0148 I1.0149 J1.0351
G1 X25.3565 Y-16.0711
G3 X25.3731 Y-16.0867 I1.0006 J1.0489
G1 X25.4009 Y-16.1124
G3 X26.0824 Y-16.6347 I3.1538 J3.4092
G3 X26.4923 Y-16.8599 I2.0949 J3.3275
G3 X26.7124 Y-16.956 I1.6142 J3.3966
G3 X26.7245 Y-16.9608 I0.5374 J1.3463
G1 X26.759 Y-16.9742
G3 X26.7881 Y-16.9851 I0.5253 J1.3511
G1 X26.8403 Y-17.0042
G3 X26.8763 Y-17.0168 I0.4963 J1.362
G1 X26.929 Y-17.0344
G3 X26.9486 Y-17.0408 I0.4602 J1.3746
G3 X27.2457 Y-17.1213 I1.0568 J3.3125
G3 X27.7339 Y-17.2038 I0.9937 J4.397
G1 X27.7691 Y-17.2078
G3 X27.7839 Y-17.2094 I0.1654 J1.4401
G3 X28.5218 Y-17.2464 I0.7099 J6.7972
G3 X29.5985 Y-17.1662 I-0.0235 J7.5915
G1 X29.5986
G3 X30.1498 Y-17.0591 I-0.8761 J5.9782
G3 X30.2265 Y-17.0396 I-0.4087 J1.7713
G3 X30.4823 Y-16.9648 I-1.336 J5.0408
G3 X30.5684 Y-16.9358 I-0.7826 J2.4662
G3 X30.7072 Y-16.8838 I-0.8316 J2.4342
G1 X30.739 Y-16.8711
G3 X30.7656 Y-16.8601 I-0.5402 J1.3452
G1 X30.8011 Y-16.845
G3 X30.8199 Y-16.8369 I-0.5669 J1.3342
G3 X31.8139 Y-16.2348 I-1.829 J4.1411
G3 X32.5017 Y-15.5741 I-3.2109 J4.0306
G3 X32.9799 Y-14.9403 I-4.4354 J3.8448
G3 X33.0053 Y-14.9012 I-5.6489 J3.6938
G0 Z90.0
G0 X32.1646 Y-14.3597
G1 Z0.0
G3 X32.4298 Y-13.9032 I-4.8335 J3.1132
G3 X32.4305 Y-13.9018 I-0.3987 J0.2078
G3 X32.8156 Y-13.0002 I-5.9599 J3.0788
G3 X32.8159 Y-12.9996 I-0.4253 J0.1459
G3 X32.9255 Y-12.6538 I-7.8232 J2.6715
G3 X32.9257 Y-12.6532 I-0.4314 J0.1265
G3 X33.0788 Y-12.035 I-7.4721 J2.1786
G3 X33.2197 Y-11.1002 I-8.8332 J1.8092
G3 X33.2307 Y-10.9793 I-4.6076 J0.4803
G3 X33.265 Y-10.1562 I-9.6888 J0.8165
G3 X33.2336 Y-9.3814 I-9.4975 J0.0028
G3 X33.2305 Y-9.3448 I-0.6609 J-0.037
G3 X33.1454 Y-8.669 I-8.2725 J-0.6985
G3 X33.0235 Y-8.0766 I-7.9377 J-1.3252
G3 X32.6903 Y-7.059 I-6.6953 J-1.6287
G3 X32.5216 Y-6.6888 I-5.4007 J-2.2383
G3 X32.1639 Y-6.0685 I-4.9915 J-2.465
G3 X31.4658 Y-5.2337 I-4.082 J-2.7042
G3 X31.4654 Y-5.2333 I-0.3107 J-0.325
G3 X30.5728 Y-4.5808 I-2.936 J-3.0796
G3 X30.571 Y-4.5798 I-0.2159 J-0.3944
G3 X30.1738 Y-4.4024 I-1.362 J-2.5155
G3 X29.4777 Y-4.2205 I-1.3692 J-3.8175
G3 X28.4267 Y-4.1543 I-0.8388 J-4.9375
G3 X27.8945 Y-4.2089 I0.1806 J-4.3845
G3 X27.3613 Y-4.3381 I0.5843 J-3.574
G3 X27.3553 Y-4.3401 I0.1387 J-0.4277
G3 X27.2456 Y-4.3805 I0.7659 J-2.2526
G3 X27.0362 Y-4.4766 I0.7918 J-2.0005
G3 X26.6969 Y-4.679 I1.5447 J-2.976
G3 X26.6962 Y-4.6794 I0.2526 J-0.3719
G3 X26.1774 Y-5.0856 I2.8196 J-4.1358
G3 X25.5076 Y-5.7884 I4.0474 J-4.5282
G3 X25.3566 Y-5.9839 I3.7985 J-3.0884
G3 X25.2503 Y-6.134 I3.9674 J-2.9226
G3 X24.9617 Y-6.627 I3.2078 J-2.2092
G3 X24.9601 Y-6.6302 I0.4036 J-0.1981
G3 X24.6807 Y-7.3093 I5.7004 J-2.7426
G3 X24.4975 Y-7.9135 I7.6811 J-2.6589
G3 X24.4967 Y-7.9167 I0.435 J-0.1137
G1 X24.4646 Y-8.0432
G3 X24.4635 Y-8.0475 I0.4358 J-0.1105
G3 X24.2691 Y-9.0885 I9.5893 J-2.3294
G3 X24.1823 Y-10.671 I10.1626 J-1.351
G3 X24.2365 Y-11.4692 I8.5163 J0.1771
G3 X24.3724 Y-12.2674 I7.0384 J0.7877
G3 X24.3726 Y-12.2683 I0.4382 J0.1007
G3 X24.7416 Y-13.407 I6.8227 J1.5816
G3 X24.7431 Y-13.4106 I0.4143 J0.1746
G1 X24.785 Y-13.5076
G3 X24.7864 Y-13.5107 I0.4127 J0.1783
G3 X25.1946 Y-14.2889 I5.9404 J2.62
G3 X25.195 Y-14.2896 I0.3831 J0.2353
G3 X25.5778 Y-14.8365 I4.9015 J3.0237
G3 X25.5782 Y-14.837 I0.3528 J0.2787
G3 X25.659 Y-14.9361 I3.642 J2.8863
G3 X25.9834 Y-15.287 I3.7257 J3.1181
G3 X25.9878 Y-15.2913 I0.3148 J0.321
G1 X26.0467 Y-15.3475
G3 X26.0519 Y-15.3524 I0.3103 J0.3253
G1 X26.0799 Y-15.3782
G3 X26.6149 Y-15.7883 I2.4749 J2.675
G3 X26.9212 Y-15.9566 I1.5623 J2.4811
G3 X27.0831 Y-16.0273 I1.1853 J2.4932
G3 X27.0868 Y-16.0288 I0.1667 J0.4176
G1 X27.1214 Y-16.0422
G3 X27.1304 Y-16.0456 I0.1629 J0.419
G1 X27.1826 Y-16.0646
G3 X27.1938 Y-16.0685 I0.1539 J0.4224
G1 X27.2465 Y-16.0861
G3 X27.2526 Y-16.0881 I0.1427 J0.4263
G3 X27.4652 Y-16.1457 I0.7529 J2.3598
G3 X27.8469 Y-16.2102 I0.7743 J3.4214
G1 X27.8832 Y-16.2143
G3 X27.8878 Y-16.2148 I0.0513 J0.4467
G3 X28.5182 Y-16.2464 I0.606 J5.8026
G3 X29.4536 Y-16.1768 I-0.0199 J6.5915
G3 X29.9201 Y-16.0858 I-0.7311 J4.9888
G3 X29.9641 Y-16.0746 I-0.179 J0.798
G3 X30.1786 Y-16.012 I-1.0736 J4.0758
G3 X30.2389 Y-15.9916 I-0.4789 J1.5135
G3 X30.332 Y-15.9569 I-0.5021 J1.4901
G1 X30.3663 Y-15.9431
G3 X30.3746 Y-15.9397 I-0.1676 J0.4172
G1 X30.4101 Y-15.9246
G3 X30.4159 Y-15.9221 I-0.1758 J0.4138
G3 X31.1906 Y-15.4528 I-1.425 J3.2263
G3 X31.7456 Y-14.9196 I-2.5876 J3.2486
G3 X32.1429 Y-14.3932 I-3.6793 J3.1903
G3 X32.1646 Y-14.3597 I-4.8118 J3.1466
G1 X31.9968 Y-14.2517
G3 X32.2528 Y-13.811 I-4.6657 J3.0051
G3 X32.2532 Y-13.8102 I-0.2217 J0.1155
G3 X32.6268 Y-12.9355 I-5.7826 J2.9872
G3 X32.627 Y-12.9351 I-0.2365 J0.0811
G3 X32.734 Y-12.5977 I-7.6343 J2.607
G3 X32.7341 Y-12.5973 I-0.2399 J0.0703
G3 X32.8833 Y-11.995 I-7.2805 J2.1227
G3 X33.0211 Y-11.0802 I-8.6377 J1.7692
G3 X33.0317 Y-10.9632 I-4.409 J0.4603
G3 X33.0654 Y-10.1563 I-9.4899 J0.8004
G3 X33.0344 Y-9.3949 I-9.2979 J0.0029
G3 X33.0319 Y-9.3645 I-0.4617 J-0.0235
G3 X32.9486 Y-8.702 I-8.0739 J-0.6788
G3 X32.8296 Y-8.1239 I-7.7409 J-1.2922
G3 X32.506 Y-7.1356 I-6.5014 J-1.5813
G3 X32.3428 Y-6.7775 I-5.2164 J-2.1617
G3 X31.9977 Y-6.179 I-4.8127 J-2.3763
G3 X31.3279 Y-5.378 I-3.9158 J-2.5938
G3 X31.3276 Y-5.3778 I-0.1728 J-0.1807
G3 X30.477 Y-4.7559 I-2.7982 J-2.9351
G3 X30.4759 Y-4.7553 I-0.1201 J-0.2193
G3 X30.1065 Y-4.5903 I-1.2669 J-2.34
G3 X29.4444 Y-4.4173 I-1.3019 J-3.6296
G3 X28.435 Y-4.3537 I-0.8055 J-4.7407
G3 X27.9268 Y-4.4058 I0.1722 J-4.1851
G3 X27.4229 Y-4.528 I0.552 J-3.377
G3 X27.4196 Y-4.5291 I0.0771 J-0.2378
G3 X27.319 Y-4.5661 I0.7017 J-2.0636
G3 X27.1286 Y-4.6535 I0.7184 J-1.8149
G3 X26.809 Y-4.8441 I1.4523 J-2.799
G3 X26.8087 Y-4.8443 I0.1405 J-0.2068
G3 X26.3105 Y-5.2344 I2.7072 J-3.9709
G3 X25.6625 Y-5.9142 I3.9143 J-4.3795
G3 X25.5175 Y-6.1021 I3.6436 J-2.9626
G3 X25.415 Y-6.2467 I3.8066 J-2.8044
G3 X25.1409 Y-6.7149 I3.0431 J-2.0965
G3 X25.14 Y-6.7167 I0.2244 J-0.1102
G3 X24.8693 Y-7.3745 I5.5206 J-2.6561
G3 X24.6906 Y-7.9639 I7.4925 J-2.5937
G3 X24.6901 Y-7.9657 I0.2419 J-0.0632
G1 X24.6581 Y-8.0922
G3 X24.6575 Y-8.0946 I0.2423 J-0.0614
G3 X24.467 Y-9.1147 I9.3954 J-2.2823
G3 X24.3819 Y-10.6667 I9.9647 J-1.3248
G3 X24.4348 Y-11.4467 I8.3167 J0.1727
G3 X24.5669 Y-12.2227 I6.8401 J0.7652
G3 X24.567 Y-12.2232 I0.2437 J0.056
G3 X24.9255 Y-13.3295 I6.6282 J1.5365
G3 X24.9264 Y-13.3315 I0.2304 J0.0971
G1 X24.9682 Y-13.4284
G3 X24.969 Y-13.4302 I0.2295 J0.0991
G3 X25.3646 Y-14.1844 I5.7578 J2.5394
G3 X25.3649 Y-14.1848 I0.213 J0.1308
G3 X25.7344 Y-14.7127 I4.7316 J2.9189
G3 X25.7346 Y-14.713 I0.1962 J0.155
G3 X25.812 Y-14.8079 I3.4855 J2.7624
G3 X26.1231 Y-15.1445 I3.5727 J2.99
G3 X26.1256 Y-15.1469 I0.175 J0.1785
G1 X26.1845 Y-15.2031
G3 X26.1874 Y-15.2058 I0.1726 J0.1809
G1 X26.2154 Y-15.2317
G3 X26.7212 Y-15.6194 I2.3394 J2.5285
G3 X27.0068 Y-15.7762 I1.456 J2.3122
G3 X27.1571 Y-15.8419 I1.0997 J2.3129
G3 X27.1592 Y-15.8427 I0.0927 J0.2322
G1 X27.1937 Y-15.8561
G3 X27.1987 Y-15.858 I0.0906 J0.233
G1 X27.2509 Y-15.8771
G3 X27.2571 Y-15.8792 I0.0856 J0.2349
G1 X27.3099 Y-15.8969
G3 X27.3132 Y-15.898 I0.0794 J0.2371
G3 X27.509 Y-15.951 I0.6922 J2.1696
G3 X27.8695 Y-16.0119 I0.7305 J3.2267
G1 X27.906 Y-16.016
G3 X27.9085 Y-16.0163 I0.0285 J0.2484
G3 X28.5175 Y-16.0468 I0.5853 J5.6041
G3 X29.4247 Y-15.9793 I-0.0191 J6.3919
G3 X29.8747 Y-15.8914 I-0.7022 J4.7913
G3 X29.9113 Y-15.8821 I-0.1336 J0.6037
G3 X30.118 Y-15.8218 I-1.0209 J3.8833
G3 X30.1731 Y-15.8031 I-0.4183 J1.3233
G3 X30.257 Y-15.7719 I-0.4363 J1.3016
G1 X30.2919 Y-15.7579
G3 X30.2965 Y-15.756 I-0.0932 J0.232
G1 X30.332 Y-15.7409
G3 X30.3352 Y-15.7395 I-0.0978 J0.2301
G3 X31.0662 Y-15.2967 I-1.3443 J3.0438
G3 X31.5946 Y-14.789 I-2.4632 J3.0925
G3 X31.9758 Y-14.284 I-3.5284 J3.0597
G3 X31.9968 Y-14.2517 I-4.6448 J3.0374
G0 Z90.0
G0 X32.3328 Y-14.468
G1 Z0.0
G2 X32.3103 Y-14.5026 I-5.0017 J3.2215
G2 X31.8968 Y-15.0505 I-4.2441 J2.7734
G2 X31.3152 Y-15.6092 I-3.2938 J2.8463
G2 X30.4967 Y-16.1051 I-2.3243 J2.9135
G2 X30.4883 Y-16.1087 I-0.2624 J0.5942
G1 X30.4528 Y-16.1238
G2 X30.4408 Y-16.1287 I-0.254 J0.5979
G1 X30.4071 Y-16.1423
G2 X30.3048 Y-16.1804 I-0.6703 J1.6407
G2 X30.2393 Y-16.2026 I-0.6051 J1.6819
G2 X30.0167 Y-16.2676 I-1.3489 J4.2038
G2 X29.9659 Y-16.2805 I-0.2756 J0.9798
G2 X29.4826 Y-16.3747 I-1.2433 J5.0925
G2 X28.5189 Y-16.4464 I-0.9842 J6.7199
G2 X27.867 Y-16.4138 I-0.0251 J6.0341
G2 X27.8604 Y-16.413 I0.0675 J0.6461
G1 X27.8243 Y-16.4089
G2 X27.4213 Y-16.3408 I0.4151 J3.6846
G2 X27.1918 Y-16.2787 I0.5841 J2.6124
G2 X27.183 Y-16.2758 I0.1974 J0.6189
G1 X27.1303 Y-16.2582
G2 X27.1141 Y-16.2525 I0.2062 J0.616
G1 X27.0619 Y-16.2335
G2 X27.0489 Y-16.2286 I0.2224 J0.6103
G1 X27.0144 Y-16.2152
G2 X27.009 Y-16.213 I0.2354 J0.6055
G2 X26.8354 Y-16.1372 I1.0975 J2.7497
G2 X26.5084 Y-15.9576 I1.3419 J2.83
G2 X25.9441 Y-15.5251 I2.0463 J3.2544
G1 X25.9161 Y-15.4992
G2 X25.9087 Y-15.4922 I0.441 J0.477
G1 X25.8497 Y-15.436
G2 X25.8433 Y-15.4298 I0.4484 J0.47
G2 X25.5057 Y-15.0645 I3.5414 J3.6118
G2 X25.4215 Y-14.9612 I3.7145 J3.1139
G2 X25.4209 Y-14.9605 I0.5091 J0.4035
G2 X25.0248 Y-14.3946 I4.6756 J3.6946
G2 X25.0242 Y-14.3936 I0.5529 J0.3411
G2 X24.6034 Y-13.5914 I5.7027 J3.5028
G2 X24.6014 Y-13.5869 I0.5944 J0.2621
G1 X24.5595 Y-13.49
G2 X24.5573 Y-13.4847 I0.5963 J0.2576
G2 X24.1778 Y-12.3134 I6.638 J2.798
G2 X24.1775 Y-12.3122 I0.6328 J0.1467
G2 X24.0378 Y-11.4918 I7.0975 J1.6307
G2 X23.9824 Y-10.6753 I8.6608 J0.9979
G2 X24.0709 Y-9.0623 I10.4493 J0.2358
G2 X24.2692 Y-8.0003 I9.982 J-1.3146
G2 X24.2707 Y-7.9941 I0.6312 J-0.1533
G1 X24.3028 Y-7.8676
G2 X24.304 Y-7.8629 I0.6297 J-0.1596
G2 X24.4916 Y-7.244 I8.0578 J-2.1052
G2 X24.7799 Y-6.5434 I6.1689 J-2.1288
G2 X24.7821 Y-6.5389 I0.5854 J-0.2816
G2 X25.0853 Y-6.021 I3.676 J-1.8044
G2 X25.1954 Y-5.8655 I4.2387 J-2.8855
G2 X25.3523 Y-5.6623 I4.1107 J-3.0112
G2 X26.0441 Y-4.9365 I4.8724 J-3.9516
G2 X26.5836 Y-4.5141 I3.4718 J-3.8787
G2 X26.5845 Y-4.5135 I0.3659 J-0.5367
G2 X26.9436 Y-4.2994 I1.9964 J-2.9391
G2 X27.172 Y-4.1945 I1.0938 J-2.0816
G2 X27.291 Y-4.1508 I0.9493 J-2.3982
G2 X27.2996 Y-4.1479 I0.2091 J-0.615
G2 X27.8621 Y-4.0115 I1.1791 J-3.635
G2 X28.4183 Y-3.9545 I0.7452 J-4.5273
G2 X29.5111 Y-4.0233 I0.2206 J-5.2036
G2 X30.2413 Y-4.2141 I-0.7064 J-4.1966
G2 X30.6662 Y-4.4039 I-1.0323 J-2.8812
G2 X30.6689 Y-4.4054 I-0.3093 J-0.5712
G2 X31.6034 Y-5.0885 I-2.1395 J-3.9075
G2 X31.6041 Y-5.0892 I-0.4482 J-0.4702
G2 X32.3305 Y-5.9579 I-3.5222 J-3.6836
G2 X32.7007 Y-6.5999 I-4.8005 J-3.1959
G2 X32.8751 Y-6.9824 I-5.4111 J-2.6975
G2 X33.2178 Y-8.0291 I-6.5469 J-2.7229
G2 X33.3427 Y-8.636 I-8.0101 J-1.9651
G2 X33.4296 Y-9.3254 I-8.3847 J-1.4073
G2 X33.4331 Y-9.3675 I-0.8569 J-0.0929
G2 X33.465 Y-10.1562 I-9.6656 J-0.7858
G2 X33.43 Y-10.9955 I-9.9232 J-0.0067
G2 X33.4187 Y-11.1203 I-4.818 J0.3756
G2 X33.2747 Y-12.0751 I-9.1731 J0.8945
G2 X33.1177 Y-12.7092 I-7.8211 J1.6005
G2 X33.1174 Y-12.7101 I-0.6236 J0.1818
G2 X33.0051 Y-13.0642 I-8.1248 J2.382
G2 X33.0048 Y-13.0651 I-0.6147 J0.2099
G2 X32.6082 Y-13.9936 I-6.5342 J2.2421
G2 X32.6072 Y-13.9957 I-0.5771 J0.2981
G2 X32.3328 Y-14.468 I-5.2761 J2.7491
G1 X32.5009 Y-14.5763
G2 X32.4777 Y-14.612 I-5.1698 J3.3298
G2 X32.048 Y-15.1814 I-4.4115 J2.8828
G2 X31.4399 Y-15.7656 I-3.445 J2.9772
G2 X30.5775 Y-16.288 I-2.449 J3.0698
G2 X30.5665 Y-16.2928 I-0.3433 J0.7772
G1 X30.531 Y-16.3079
G2 X30.5154 Y-16.3143 I-0.3322 J0.7819
G1 X30.4822 Y-16.3276
G2 X30.3707 Y-16.3693 I-0.7454 J1.8261
G2 X30.3 Y-16.3931 I-0.671 J1.8707
G2 X30.0693 Y-16.4606 I-1.4096 J4.3943
G2 X30.0117 Y-16.4752 I-0.3282 J1.1728
G2 X29.5116 Y-16.5726 I-1.2892 J5.2872
G2 X28.5197 Y-16.6464 I-1.0132 J6.9178
G2 X27.8463 Y-16.6127 I-0.0258 J6.2341
G2 X27.8376 Y-16.6117 I0.0883 J0.845
G1 X27.8017 Y-16.6076
G2 X27.3774 Y-16.5359 I0.4378 J3.8833
G2 X27.131 Y-16.4692 I0.628 J2.8076
G2 X27.1195 Y-16.4655 I0.2582 J0.8094
G1 X27.0668 Y-16.4478
G2 X27.0457 Y-16.4404 I0.2697 J0.8056
G1 X26.9935 Y-16.4214
G2 X26.9765 Y-16.415 I0.2909 J0.7983
G1 X26.9419 Y-16.4016
G2 X26.9348 Y-16.3988 I0.3079 J0.7919
G2 X26.7496 Y-16.3179 I1.1717 J2.9354
G2 X26.4019 Y-16.1269 I1.4277 J3.0107
G2 X25.8083 Y-15.6719 I2.1528 J3.4237
G1 X25.7804 Y-15.6461
G2 X25.7706 Y-15.6369 I0.5767 J0.6239
G1 X25.7117 Y-15.5807
G2 X25.7033 Y-15.5726 I0.5865 J0.6147
G2 X25.3524 Y-15.1929 I3.6814 J3.7547
G2 X25.2647 Y-15.0854 I3.8678 J3.2423
G2 X25.264 Y-15.0844 I0.6658 J0.5277
G2 X24.8546 Y-14.4996 I4.8325 J3.8185
G2 X24.8537 Y-14.4982 I0.7231 J0.4461
G2 X24.4204 Y-13.6721 I5.8731 J3.6075
G2 X24.4178 Y-13.6662 I0.7774 J0.3428
G1 X24.3759 Y-13.5693
G2 X24.373 Y-13.5624 I0.7799 J0.3369
G2 X23.9829 Y-12.3586 I6.8223 J2.8757
G2 X23.9826 Y-12.357 I0.8277 J0.1919
G2 X23.8391 Y-11.5144 I7.2924 J1.6754
G2 X23.7824 Y-10.6797 I8.8596 J1.0204
G2 X23.8726 Y-9.0361 I10.6493 J0.2401
G2 X24.0748 Y-7.9531 I10.1803 J-1.3409
G2 X24.0769 Y-7.9449 I0.8256 J-0.2005
G1 X24.1089 Y-7.8184
G2 X24.1105 Y-7.8124 I0.8236 J-0.2087
G2 X24.3026 Y-7.1787 I8.2513 J-2.1558
G2 X24.5997 Y-6.4567 I6.358 J-2.1941
G2 X24.6026 Y-6.4507 I0.7656 J-0.3684
G2 X24.9203 Y-5.908 I3.8555 J-1.8925
G2 X25.0343 Y-5.7471 I4.4038 J-2.9985
G2 X25.1971 Y-5.5362 I4.2718 J-3.1297
G2 X25.9107 Y-4.7875 I5.0277 J-4.0776
G2 X26.4709 Y-4.3489 I3.6051 J-4.0277
G2 X26.4721 Y-4.3481 I0.4786 J-0.702
G2 X26.851 Y-4.1221 I2.1088 J-3.1045
G2 X27.0984 Y-4.0085 I1.1864 J-2.2589
G2 X27.2266 Y-3.9614 I1.0229 J-2.5842
G2 X27.2379 Y-3.9576 I0.2735 J-0.8044
G2 X27.8297 Y-3.8141 I1.2408 J-3.8252
G2 X28.41 Y-3.7547 I0.7776 J-4.7247
G2 X29.5444 Y-3.8261 I0.229 J-5.4034
G2 X30.3088 Y-4.0259 I-0.7398 J-4.3938
G2 X30.7614 Y-4.2281 I-1.0998 J-3.0694
G2 X30.7649 Y-4.23 I-0.4045 J-0.7471
G2 X31.7414 Y-4.9438 I-2.2355 J-4.0829
G2 X31.7423 Y-4.9446 I-0.5862 J-0.6149
G2 X32.4971 Y-5.8472 I-3.6604 J-3.8281
G2 X32.8799 Y-6.511 I-4.9671 J-3.3065
G2 X33.0598 Y-6.9057 I-5.5902 J-2.7864
G2 X33.412 Y-7.9816 I-6.7316 J-2.7996
G2 X33.5399 Y-8.603 I-8.2044 J-2.0126
G2 X33.6287 Y-9.3063 I-8.5819 J-1.4403
G2 X33.6326 Y-9.3534 I-1.056 J-0.1121
G2 X33.665 Y-10.1561 I-9.8651 J-0.7999
G2 X33.6294 Y-11.0117 I-10.1232 J-0.0067
G2 X33.6177 Y-11.1403 I-5.0173 J0.3917
G2 X33.4707 Y-12.1153 I-9.3721 J0.9145
G2 X33.3097 Y-12.7652 I-8.0171 J1.6406
G2 X33.3094 Y-12.7664 I-0.8156 J0.2378
G2 X33.1944 Y-13.1289 I-8.3167 J2.4383
G2 X33.194 Y-13.1301 I-0.804 J0.2746
G2 X32.7859 Y-14.0854 I-6.7234 J2.307
G2 X32.7845 Y-14.0881 I-0.7548 J0.3899
G2 X32.5009 Y-14.5763 I-5.4535 J2.8415
G1 X32.669 Y-14.6846
G2 X32.6451 Y-14.7215 I-5.338 J3.4381
G2 X32.1992 Y-15.3123 I-4.5789 J2.9922
G2 X31.5646 Y-15.922 I-3.5962 J3.1081
G2 X30.6583 Y-16.471 I-2.5737 J3.2262
G2 X30.6447 Y-16.4769 I-0.4241 J0.9601
G1 X30.6092 Y-16.4919
G2 X30.5899 Y-16.4999 I-0.4104 J0.966
G1 X30.5572 Y-16.513
G2 X30.4366 Y-16.5581 I-0.8204 J2.0115
G2 X30.3608 Y-16.5837 I-0.7369 J2.0596
G2 X30.1217 Y-16.6536 I-1.4704 J4.5849
G2 X30.0577 Y-16.6698 I-0.3806 J1.3658
G2 X29.5406 Y-16.7705 I-1.3352 J5.4818
G2 X28.5204 Y-16.8464 I-1.0422 J7.1156
G2 X27.8255 Y-16.8116 I-0.0266 J6.4341
G2 X27.8147 Y-16.8104 I0.109 J1.0439
G1 X27.7791 Y-16.8063
G2 X27.3335 Y-16.7311 I0.4604 J4.082
G2 X27.0702 Y-16.6598 I0.6719 J3.0027
G2 X27.056 Y-16.6551 I0.319 J0.9999
G1 X27.0033 Y-16.6375
G2 X26.9772 Y-16.6283 I0.3332 J0.9953
G1 X26.925 Y-16.6093
G2 X26.904 Y-16.6014 I0.3593 J0.9862
G1 X26.8694 Y-16.588
G2 X26.8607 Y-16.5845 I0.3803 J0.9783
G2 X26.6638 Y-16.4986 I1.2458 J3.1212
G2 X26.2954 Y-16.2962 I1.5134 J3.1914
G2 X25.6725 Y-15.8187 I2.2594 J3.593
G1 X25.6446 Y-15.7929
G2 X25.6326 Y-15.7817 I0.7125 J0.7707
G1 X25.5736 Y-15.7254
G2 X25.5633 Y-15.7154 I0.7245 J0.7594
G2 X25.1991 Y-15.3214 I3.8215 J3.8975
G2 X25.108 Y-15.2096 I4.0211 J3.3707
G2 X25.107 Y-15.2084 I0.8226 J0.6519
G2 X24.6844 Y-14.6046 I4.9895 J3.9425
G2 X24.6833 Y-14.6029 I0.8933 J0.5511
G2 X24.2374 Y-13.7528 I6.0435 J3.7122
G2 X24.2342 Y-13.7455 I0.9603 J0.4235
G1 X24.1923 Y-13.6486
G2 X24.1887 Y-13.6401 I0.9636 J0.4162
G2 X23.7881 Y-12.4038 I7.0066 J2.9534
G2 X23.7876 Y-12.4018 I1.0225 J0.237
G2 X23.6403 Y-11.537 I7.4873 J1.7202
G2 X23.5825 Y-10.684 I9.0583 J1.043
G2 X23.6743 Y-9.0098 I10.8492 J0.2445
G2 X23.8805 Y-7.9059 I10.3785 J-1.3671
G2 X23.883 Y-7.8958 I1.0199 J-0.2478
G1 X23.9151 Y-7.7693
G2 X23.917 Y-7.7618 I1.0174 J-0.2578
G2 X24.1136 Y-7.1133 I8.4448 J-2.2064
G2 X24.4195 Y-6.37 I6.547 J-2.2595
G2 X24.4231 Y-6.3626 I0.9458 J-0.4551
G2 X24.7553 Y-5.795 I4.0351 J-1.9806
G2 X24.8731 Y-5.6287 I4.5688 J-3.1115
G2 X25.0418 Y-5.4101 I4.433 J-3.2481
G2 X25.7774 Y-4.6384 I5.183 J-4.2037
G2 X26.3583 Y-4.1836 I3.7384 J-4.1768
G2 X26.3597 Y-4.1826 I0.5912 J-0.8672
G2 X26.7584 Y-3.9448 I2.2211 J-3.2699
G2 X27.0248 Y-3.8226 I1.279 J-2.4362
G1 X27.0247
G1 X27.0248
G2 X27.1622 Y-3.7721 I1.0965 J-2.7701
G2 X27.1762 Y-3.7674 I0.3379 J-0.9937
G2 X27.7973 Y-3.6168 I1.3026 J-4.0155
G2 X28.4016 Y-3.5548 I0.8099 J-4.922
G2 X29.5778 Y-3.6289 I0.2374 J-5.6033
G2 X30.3763 Y-3.8376 I-0.7731 J-4.591
G2 X30.8566 Y-4.0522 I-1.1673 J-3.2577
G2 X30.861 Y-4.0546 I-0.4997 J-0.923
G2 X31.8794 Y-4.799 I-2.3316 J-4.2584
G2 X31.8805 Y-4.8001 I-0.7242 J-0.7597
G2 X32.6637 Y-5.7366 I-3.7986 J-3.9727
G2 X33.059 Y-6.4221 I-5.1337 J-3.4172
G2 X33.2445 Y-6.829 I-5.7694 J-2.8753
G2 X33.6063 Y-7.9342 I-6.9163 J-2.8762
G2 X33.7372 Y-8.57 I-8.3986 J-2.0601
G2 X33.8278 Y-9.2874 I-8.7792 J-1.4733
G2 X33.8321 Y-9.3392 I-1.2551 J-0.131
G2 X33.865 Y-10.1561 I-10.0646 J-0.8142
G2 X33.8287 Y-11.0278 I-10.3232 J-0.0067
G2 X33.8167 Y-11.1604 I-5.2167 J0.4079
G2 X33.6666 Y-12.1554 I-9.5711 J0.9346
G2 X33.5017 Y-12.8211 I-8.213 J1.6808
G2 X33.5013 Y-12.8226 I-1.0076 J0.2938
G2 X33.3837 Y-13.1935 I-8.5086 J2.4945
G2 X33.3832 Y-13.195 I-0.9933 J0.3392
G2 X32.9636 Y-14.1772 I-6.9125 J2.3719
G2 X32.9619 Y-14.1805 I-0.9325 J0.4817
G2 X32.669 Y-14.6846 I-5.6308 J2.9339
G1 X32.8372 Y-14.7929
G2 X32.8125 Y-14.8309 I-5.5061 J3.5464
G2 X32.3504 Y-15.4432 I-4.7463 J3.1017
G2 X31.6892 Y-16.0784 I-3.7474 J3.239
G2 X30.7391 Y-16.6539 I-2.6983 J3.3826
G2 X30.7229 Y-16.6609 I-0.5049 J1.1431
G1 X30.6874 Y-16.676
G2 X30.6644 Y-16.6855 I-0.4886 J1.1501
G1 X30.6322 Y-16.6984
G2 X30.5025 Y-16.7469 I-0.8955 J2.1969
G2 X30.4216 Y-16.7742 I-0.8028 J2.2484
G2 X30.1741 Y-16.8466 I-1.5311 J4.7754
G2 X30.1037 Y-16.8645 I-0.433 J1.5589
G2 X29.5696 Y-16.9683 I-1.3812 J5.6765
G1 X29.5695 Y-16.9684
G2 X28.5211 Y-17.0464 I-1.0712 J7.3135
G2 X27.8047 Y-17.0105 I-0.0273 J6.6341
G2 X27.7919 Y-17.0091 I0.1298 J1.2428
G1 X27.7565 Y-17.005
G2 X27.2896 Y-16.9262 I0.483 J4.2808
G2 X27.0094 Y-16.8503 I0.7158 J3.1978
G2 X26.9925 Y-16.8448 I0.3798 J1.1905
G1 X26.9398 Y-16.8271
G2 X26.9087 Y-16.8163 I0.3967 J1.1849
G1 X26.8565 Y-16.7972
G2 X26.8315 Y-16.7878 I0.4278 J1.1741
G1 X26.797 Y-16.7744
G2 X26.7865 Y-16.7703 I0.4528 J1.1647
G2 X26.5781 Y-16.6792 I1.3199 J3.3069
G2 X26.1889 Y-16.4654 I1.5992 J3.372
G2 X25.5367 Y-15.9656 I2.3659 J3.7622
G1 X25.5088 Y-15.9398
G2 X25.4945 Y-15.9264 I0.8483 J0.9176
G1 X25.4356 Y-15.8701
G2 X25.4233 Y-15.8582 I0.8626 J0.9041
G2 X25.0457 Y-15.4498 I3.9615 J4.0403
G2 X24.9512 Y-15.3339 I4.1744 J3.4992
G2 X24.9501 Y-15.3324 I0.9793 J0.7761
G2 X24.5142 Y-14.7096 I5.1464 J4.0665
G2 X24.5129 Y-14.7076 I1.0635 J0.6561
G2 X24.0544 Y-13.8335 I6.2139 J3.8168
G2 X24.0506 Y-13.8248 I1.1433 J0.5043
G1 X24.0087 Y-13.7279
G2 X24.0044 Y-13.7177 I1.1472 J0.4955
G2 X23.5933 Y-12.4489 I7.1909 J3.0311
G2 X23.5927 Y-12.4466 I1.2173 J0.2822
G2 X23.4416 Y-11.5595 I7.6822 J1.765
G2 X23.3825 Y-10.6884 I9.257 J1.0656
G2 X23.476 Y-8.9836 I11.0492 J0.2488
G2 X23.6861 Y-7.8587 I10.5768 J-1.3933
G2 X23.6891 Y-7.8467 I1.2143 J-0.295
G1 X23.7212 Y-7.7202
G2 X23.7235 Y-7.7113 I1.2113 J-0.307
G2 X23.9246 Y-7.048 I8.6383 J-2.2569
G2 X24.2392 Y-6.2833 I6.736 J-2.3248
G2 X24.2435 Y-6.2745 I1.126 J-0.5418
G2 X24.5902 Y-5.682 I4.2146 J-2.0687
G2 X24.7119 Y-5.5103 I4.7338 J-3.2245
G2 X24.8865 Y-5.2841 I4.5942 J-3.3665
G2 X25.6441 Y-4.4893 I5.3382 J-4.3298
G2 X26.2456 Y-4.0184 I3.8718 J-4.3259
G2 X26.2474 Y-4.0172 I0.7039 J-1.0325
G2 X26.6658 Y-3.7675 I2.3335 J-3.4354
G2 X26.9511 Y-3.6366 I1.3716 J-2.6134
G1 X26.9512
G1 X26.9511
G2 X27.0978 Y-3.5827 I1.1701 J-2.9561
G2 X27.1145 Y-3.5772 I0.4023 J-1.1831
G2 X27.7649 Y-3.4194 I1.3643 J-4.2057
G2 X28.3932 Y-3.355 I0.8423 J-5.1194
G2 X29.6111 Y-3.4317 I0.2457 J-5.8031
G2 X30.4438 Y-3.6493 I-0.8065 J-4.7882
G2 X30.9519 Y-3.8763 I-1.2348 J-3.446
G2 X30.957 Y-3.8791 I-0.595 J-1.0989
G2 X32.0174 Y-4.6543 I-2.4276 J-4.4338
G2 X32.0187 Y-4.6555 I-0.8623 J-0.9044
G2 X32.8303 Y-5.6259 I-3.9368 J-4.1172
G2 X33.2382 Y-6.3332 I-5.3003 J-3.5278
G2 X33.4292 Y-6.7523 I-5.9485 J-2.9642
G2 X33.8006 Y-7.8867 I-7.101 J-2.9529
G2 X33.9345 Y-8.537 I-8.5929 J-2.1075
G2 X34.0269 Y-9.2686 I-8.9764 J-1.5064
G2 X34.0316 Y-9.3248 I-1.4542 J-0.1498
G2 X34.065 Y-10.1561 I-10.2641 J-0.8286
G2 X34.0281 Y-11.044 I-10.5232 J-0.0068
G2 X34.0157 Y-11.1804 I-5.416 J0.4241
G2 X33.8625 Y-12.1955 I-9.7701 J0.9546
G2 X33.6937 Y-12.8771 I-8.4089 J1.7209
G2 X33.6932 Y-12.8789 I-1.1996 J0.3498
G2 X33.5729 Y-13.2581 I-8.7005 J2.5508
G2 X33.5723 Y-13.2599 I-1.1826 J0.4038
G2 X33.1413 Y-14.269 I-7.1017 J2.4368
G2 X33.1393 Y-14.2729 I-1.1102 J0.5735
G2 X32.8372 Y-14.7929 I-5.8082 J3.0264
G0 Z90.0
G0 X32.6971 Y-16.2819
G1 Z0.0
G3 X31.8208 Y-16.5334 I-0.1171 J-1.2445
G1 X31.3292 Y-16.9093
G1 X31.2823 Y-16.9445
G2 X30.9468 Y-17.1609 I-1.9917 J2.7192
G2 X30.281 Y-17.4519 I-1.809 J3.2329
G3 X30.2768 Y-17.4532 I0.3857 J-1.189
G2 X29.7271 Y-17.5949 I-1.3642 J4.1562
G2 X28.8457 Y-17.6887 I-1.0188 J5.3852
G1 X28.7198 Y-17.6908
G2 X27.9217 Y-17.6477 I-0.0442 J6.5928
G3 X27.9175 Y-17.6472 I-0.143 J-1.2418
G2 X27.2881 Y-17.5445 I0.7002 J6.2669
G3 X27.2867 Y-17.5442 I-0.2636 J-1.2219
G2 X26.17 Y-17.1821 I1.2077 J5.6281
G2 X25.2851 Y-16.6872 I2.2027 J4.977
G3 X25.2849 Y-16.687 I-0.7091 J-1.0294
G2 X24.5989 Y-16.1282 I3.1147 J4.5238
G1 X24.5603 Y-16.091
G2 X24.0412 Y-15.513 I4.1892 J4.2848
G3 X24.0396 Y-15.511 I-0.9821 J-0.7732
G2 X23.8382 Y-15.2401 I4.4331 J3.5048
G3 X23.8375 Y-15.239 I-1.0251 J-0.7153
G2 X23.6576 Y-14.9685 I5.6862 J3.9762
G1 X23.6369 Y-14.9354
G1 X23.6171 Y-14.9032
G1 X23.5975 Y-14.8711
G2 X23.0638 Y-13.7927 I6.2639 J3.7709
G3 X23.0636 Y-13.792 I-1.1622 J-0.4603
G2 X22.7726 Y-12.921 I7.7217 J3.0637
G1 X22.7485 Y-12.8317
G2 X22.4959 Y-11.4947 I9.5335 J2.4934
G3 Y-11.4944 I-1.2414 J-0.1467
G2 X22.4159 Y-10.1091 I11.4535 J1.356
G3 Y-10.1059 I-1.25 J0.0032
G2 X22.6511 Y-8.0188 I9.3767 J0.0003
G2 X23.1362 Y-6.5289 I8.4927 J-1.9415
G2 X23.6732 Y-5.4984 I7.2328 J-3.1135
G2 X24.1696 Y-4.7988 I5.9136 J-3.6701
G3 X24.1707 Y-4.7974 I-0.9729 J0.7848
G2 X25.0552 Y-3.9056 I4.7159 J-3.7927
G2 X25.5543 Y-3.5457 I3.4561 J-4.2664
G2 X26.0849 Y-3.2528 I2.6656 J-4.2022
G3 X26.0868 Y-3.2519 I-0.5363 J1.1291
G2 X26.3582 Y-3.132 I2.2004 J-4.6131
G3 X26.3636 Y-3.1297 I-0.4718 J1.1575
G2 X27.3216 Y-2.8588 I1.6397 J-3.969
G1 X27.3899 Y-2.8483
G1 X27.4534 Y-2.8393
G2 X27.6738 Y-2.8144 I0.6926 J-5.125
G1 X27.7761 Y-2.8056
G3 X27.7867 Y-2.8047 I-0.1062 J1.2455
G3 X27.8139 Y-2.8028 I-0.0704 J1.248
G2 X27.9459 Y-2.7947 I0.3058 J-3.9031
G3 X27.9549 Y-2.7943 I-0.0555 J1.2488
G2 X28.4092 Y-2.7834 I0.4243 J-8.2106
G3 X28.4207 I0.0045 J1.25
G3 X28.4347 I0.0088 J1.25
G3 X28.4692 Y-2.7832 I0.0106 J1.25
G3 X28.5201 Y-2.7838 I0.0388 J1.2494
G2 X28.5278 Y-2.7839 I0.0017 J-0.1774
G3 X28.5545 Y-2.7845 I0.042 J1.2493
G2 X28.9645 Y-2.8013 I-0.0872 J-7.1498
G1 X29.0648 Y-2.8089
G2 X29.7188 Y-2.9033 I-0.41 J-5.1541
G2 X29.8336 Y-2.9295 I-0.8853 J-4.1328
G3 X29.8376 Y-2.9305 I0.2958 J1.2145
G2 X30.6331 Y-3.2272 I-0.8184 J-3.4093
G1 X30.6856 Y-3.2552
G2 X31.0245 Y-3.4656 I-1.7519 J-3.2004
G2 X31.3585 Y-3.7252 I-2.5369 J-3.6088
G3 X31.3592 Y-3.7257 I0.8135 J0.9491
G1 X31.7805 Y-4.0863
G3 X33.8433 Y-3.1339 I0.8128 J0.9496
G1 X33.8346 Y0.7359
G1 X33.8327 Y1.7958
G3 Y1.7971 I-1.25 J-0.0023
G2 X33.8378 Y3.3704 I129.722 J0.3662
G1 X33.8407 Y3.5651
G1 X33.841 Y3.5828
G1 X33.8446 Y3.7505
G1 X33.845 Y3.7669
G3 X33.8451 Y3.772 I-1.2496 J0.032
G2 X33.8544 Y4.0341 I9.4408 J-0.203
G1 X33.857 Y4.0853
G1 X33.8598 Y4.1337
G3 X33.8599 Y4.1368 I-1.248 J0.0711
G2 X33.8702 Y4.2697 I2.967 J-0.1616
G1 X33.8758 Y4.3208
G1 X33.8767 Y4.3268
G2 X33.8923 Y4.3425 I0.1162 J-0.1
G3 X33.895 Y4.3448 I-0.8202 J0.9433
G2 X33.9486 Y4.3814 I0.1782 J-0.2038
G2 X34.1353 Y4.4381 I0.2512 J-0.4908
G3 X34.1412 Y4.4388 I-0.1463 J1.2414
G2 X34.4949 Y4.3961 I0.0904 J-0.7371
G1 X34.4951
G2 X34.6218 Y4.3271 I-0.1888 J-0.4981
G3 X34.6226 Y4.3265 I0.7405 J1.007
G2 X34.6779 Y4.2771 I-0.2282 J-0.3108
G1 Y-6.6134
G1 Y-17.5053
G2 X34.6182 Y-17.5649 I-0.4134 J0.3548
G2 X34.4963 Y-17.6344 I-0.2488 J0.2946
G2 X34.3068 Y-17.6645 I-0.1859 J0.5577
G3 X34.3015 I-0.0077 J-1.25
G2 X34.1212 Y-17.6392 I0.0013 J0.6637
G3 X34.1179 Y-17.6383 I-0.342 J-1.2023
G2 X33.9797 Y-17.5841 I0.2033 J0.7221
G3 X33.9795 Y-17.584 I-0.5691 J-1.1129
G2 X33.8956 Y-17.5322 I0.2809 J0.5495
G3 X33.8953 Y-17.532 I-0.7389 J-1.0083
G2 X33.8549 Y-17.4979 I0.2277 J0.3109
G3 X33.8532 Y-17.4963 I-0.8697 J-0.8978
G1 X33.8009 Y-17.2583
G3 X32.6971 Y-16.2819 I-1.2209 J-0.2682
G1 X32.6784 Y-16.4811
G3 X31.9422 Y-16.6923 I-0.0984 J-1.0454
G1 X31.45 Y-17.0687
G1 X31.4015 Y-17.1051
G2 X31.0448 Y-17.3353 I-2.1109 J2.8798
G2 X30.3427 Y-17.6421 I-1.9069 J3.4072
G3 X30.3392 Y-17.6432 I0.324 J-0.9988
G2 X29.7643 Y-17.7914 I-1.4266 J4.3463
G2 X28.8499 Y-17.8886 I-1.056 J5.5817
G1 X28.7222 Y-17.8908
G2 X27.8988 Y-17.8464 I-0.0466 J6.7928
G3 X27.8953 Y-17.846 I-0.1201 J-1.0431
G2 X27.2459 Y-17.74 I0.7224 J6.4656
G3 X27.2448 Y-17.7397 I-0.2214 J-1.0264
G2 X26.0891 Y-17.365 I1.2496 J5.8236
G2 X25.1717 Y-16.8519 I2.2836 J5.16
G3 X25.1715 Y-16.8518 I-0.5957 J-0.8647
G2 X24.4602 Y-16.2723 I3.2281 J4.6886
G1 X24.4209 Y-16.2344
G2 X23.884 Y-15.6367 I4.3285 J4.4283
G3 X23.8827 Y-15.635 I-0.825 J-0.6495
G2 X23.6742 Y-15.3545 I4.59 J3.6288
G3 X23.6736 Y-15.3536 I-0.8611 J-0.6008
G2 X23.4883 Y-15.0749 I5.8501 J4.0908
G1 X23.4671 Y-15.041
G1 X23.4466 Y-15.0078
G1 X23.4264 Y-14.9748
G2 X22.8779 Y-13.8664 I6.4349 J3.8746
G3 X22.8777 Y-13.8658 I-0.9762 J-0.3867
G2 X22.5796 Y-12.9734 I7.9076 J3.1374
G1 X22.5552 Y-12.883
G2 X22.2973 Y-11.5181 I9.7268 J2.5448
G3 Y-11.5179 I-1.0427 J-0.1232
G2 X22.2159 Y-10.1086 I11.6521 J1.3795
G3 Y-10.1059 I-1.05 J0.0027
G2 X22.4561 Y-7.9743 I9.5767 J0.0003
G2 X22.9525 Y-6.45 I8.6877 J-1.986
G2 X23.5032 Y-5.3931 I7.4166 J-3.1924
G2 X24.0139 Y-4.6732 I6.0836 J-3.7755
G3 X24.0149 Y-4.672 I-0.8173 J0.6592
G2 X24.9289 Y-3.7505 I4.8718 J-3.918
G2 X25.4469 Y-3.377 I3.5823 J-4.4215
G2 X25.9991 Y-3.0721 I2.773 J-4.3709
G3 X26.0007 Y-3.0714 I-0.4505 J0.9485
G2 X26.2827 Y-2.9468 I2.2865 J-4.7936
G3 X26.2873 Y-2.9449 I-0.3963 J0.9723
G2 X27.2905 Y-2.6613 I1.716 J-4.1538
G1 X27.3606 Y-2.6505
G1 X27.426 Y-2.6412
G2 X27.6562 Y-2.6151 I0.72 J-5.3231
G1 X27.7591 Y-2.6064
G3 X27.7717 Y-2.6052 I-0.0892 J1.0462
G3 X27.7983 Y-2.6035 I-0.0555 J1.0485
G2 X27.937 Y-2.5949 I0.3214 J-4.1025
G3 X27.9446 Y-2.5946 I-0.0466 J1.049
G2 X28.4099 Y-2.5834 I0.4346 J-8.4104
G3 X28.4209 I0.0038 J1.05
G3 X28.4351 I0.0087 J1.05
G3 X28.467 Y-2.5832 I0.0102 J1.05
G2 X28.4738 Y-2.5833 I0.0027 J-0.1282
G3 X28.5182 Y-2.5838 I0.0342 J1.0494
G2 X28.5345 Y-2.584 I0.0037 J-0.3774
G3 X28.5569 Y-2.5845 I0.0352 J1.0494
G2 X28.979 Y-2.6018 I-0.0897 J-7.3498
G1 X29.0803 Y-2.6095
G2 X29.7603 Y-2.7076 I-0.4256 J-5.3535
G2 X29.8809 Y-2.7352 I-0.9268 J-4.3284
G3 X29.8843 Y-2.736 I0.2485 J1.0202
G2 X30.7262 Y-3.0502 I-0.8651 J-3.6038
G1 X30.7807 Y-3.0792
G2 X31.1394 Y-3.3018 I-1.8469 J-3.3763
G2 X31.4887 Y-3.5733 I-2.6517 J-3.7725
G3 X31.4893 Y-3.5738 I0.6833 J0.7972
G1 X31.9105 Y-3.9344
G3 X33.6433 Y-3.1344 I0.6828 J0.7977
G1 X33.6346 Y0.7355
G1 X33.6327 Y1.7955
G3 Y1.7965 I-1.05 J-0.0019
G2 X33.6378 Y3.3728 I129.922 J0.3668
G1 X33.6407 Y3.5683
G1 X33.641 Y3.5867
G1 X33.6447 Y3.7552
G1 X33.6451 Y3.772
G3 X33.6452 Y3.7763 I-1.0497 J0.0269
G2 X33.6547 Y4.044 I9.6407 J-0.2073
G1 X33.6573 Y4.096
G1 X33.6601 Y4.1451
G3 X33.6602 Y4.1477 I-1.0483 J0.0597
G2 X33.6713 Y4.2906 I3.1667 J-0.1724
G1 X33.6774 Y4.3455
G1 X33.6836 Y4.3906
G2 X33.6854 Y4.4014 I0.3912 J-0.0602
G3 X33.6921 Y4.4122 I-0.887 J0.5619
G2 X33.761 Y4.4934 I0.3007 J-0.1854
G3 X33.7633 Y4.4954 I-0.689 J0.7924
G2 X33.857 Y4.5592 I0.3099 J-0.3544
G2 X34.1119 Y4.6368 I0.3428 J-0.6686
G3 X34.1168 Y4.6374 I-0.1229 J1.0428
G2 X34.5658 Y4.5831 I0.1148 J-0.9356
G1 X34.566
G2 X34.7403 Y4.4882 I-0.2597 J-0.6851
G3 X34.741 Y4.4877 I0.6221 J0.8459
G2 X34.8636 Y4.3662 I-0.3465 J-0.472
G1 X34.8779 Y4.3469
G1 Y-6.6134
G1 Y-17.5738
G1 X34.8633 Y-17.5934
G3 X34.8623 Y-17.5947 I0.8419 J-0.6275
G2 X34.7476 Y-17.7173 I-0.5978 J0.4442
G2 X34.5608 Y-17.8237 I-0.3782 J0.447
G2 X34.3055 Y-17.8645 I-0.2504 J0.747
G3 X34.3011 I-0.0064 J-1.05
G2 X34.0665 Y-17.8316 I0.0017 J0.8637
G3 X34.0638 Y-17.8308 I-0.2872 J-1.0099
G2 X33.8886 Y-17.7622 I0.2575 J0.9146
G3 X33.8885 Y-17.7621 I-0.478 J-0.9349
G2 X33.7773 Y-17.6936 I0.3719 J0.7276
G3 X33.7771 Y-17.6934 I-0.6207 J-0.8469
G2 X33.7157 Y-17.6416 I0.3459 J0.4723
G3 X33.713 Y-17.6389 I-0.7306 J-0.7542
G2 X33.6677 Y-17.584 I0.214 J0.2225
G1 X33.6056 Y-17.3012
G3 X32.6784 Y-16.4811 I-1.0256 J-0.2253
G1 X32.6596 Y-16.6802
G3 X32.0637 Y-16.8512 I-0.0796 J-0.8463
G1 X31.5708 Y-17.228
G1 X31.5207 Y-17.2657
G2 X31.1428 Y-17.5097 I-2.2301 J3.0404
G2 X30.4044 Y-17.8324 I-2.0049 J3.5816
G3 X30.4016 Y-17.8333 I0.2623 J-0.8085
G2 X29.8015 Y-17.9879 I-1.489 J4.5363
G2 X28.8541 Y-18.0886 I-1.0932 J5.7782
G1 X28.7246 Y-18.0908
G2 X27.8759 Y-18.0451 I-0.0489 J6.9928
G3 X27.8731 Y-18.0448 I-0.0972 J-0.8444
G2 X27.2037 Y-17.9355 I0.7446 J6.6644
G3 X27.2028 Y-17.9353 I-0.1792 J-0.8309
G2 X26.0083 Y-17.548 I1.2916 J6.0192
G2 X25.0582 Y-17.0166 I2.3644 J5.3429
G3 X25.058 Y-17.0165 I-0.4822 J-0.7
G2 X24.3215 Y-16.4165 I3.3415 J4.8533
G1 X24.2816 Y-16.3779
G2 X23.7269 Y-15.7604 I4.4679 J4.5717
G3 X23.7258 Y-15.7591 I-0.6679 J-0.5258
G2 X23.5102 Y-15.4689 I4.7469 J3.7529
G3 X23.5097 Y-15.4682 I-0.6971 J-0.4864
G2 X23.319 Y-15.1814 I6.014 J4.2054
G1 X23.2972 Y-15.1466
G1 X23.2761 Y-15.1125
G1 X23.2554 Y-15.0784
