( Made using CamBam - http://www.cambam.co.uk )
( fibonacci 2012-03-22 6:34:53 PM )
( T0 : 0.8 )
G21 G90 G64 G40
G0 Z90.0
( T0 : 0.8 )
T0 M6
( Engrave1 )
G17
M3 S1000
G0 X-16.1236 Y-9.9101
G1 F7.0 Z0.0
G1 X-15.3371
G1 Y-9.1236
G1 X-16.1236
G1 Y-9.9101
G1 Y-11.4831
G1 X-14.5506
G1 Y-9.9101
G1 X-16.1236
G1 Y-9.1236
G1 X-18.4831
G1 Y-11.4831
G1 X-16.1236
G1 Y-9.9101
G0 Z90.0
G0 X-15.3371
G1 Z0.0
G1 X-14.5506
G1 Y-9.1236
G1 X-15.3371
G1 Y-9.9101
G0 Z90.0
G0 X-14.5506
G1 Z0.0
G1 Y-11.4831
G1 X-8.2584
G1 Y-5.191
G1 X-14.5506
G1 Y-9.9101
G0 Z90.0
G0 Y-9.1236
G1 Z0.0
G1 Y-5.191
G1 X-18.4831
G1 Y-9.1236
G1 X-14.5506
G0 Z90.0
G0 Y-11.4831
G1 Z0.0
G1 X-18.4831
G1 Y-21.7079
G1 X-8.2584
G1 Y-11.4831
G1 X-14.5506
G0 Z90.0
G0 X-18.4831
G1 Z0.0
G1 Y-5.191
G1 X-35.0
G1 Y-21.7079
G1 X-18.4831
G1 Y-11.4831
G0 Z90.0
G0 Y-5.191
G1 Z0.0
G1 X-8.2584
G1 Y21.5506
G1 X-35.0
G1 Y-5.191
G1 X-18.4831
G0 Z90.0
G0 X-8.2584
G1 Z0.0
G1 Y-21.7079
G1 X35.0
G1 Y21.5506
G1 X-8.2584
G1 Y-5.191
( Engrave2 )
S1000
G0 Z90.0
G0 X-15.3371 Y-9.1236
G1 Z0.0
G3 X-16.1236 Y-9.9101 I0.0 J-0.7865
G0 Z90.0
G0 X-15.3371 Y-9.1236
G1 Z0.0
G2 X-14.5506 Y-9.9101 I0.0 J-0.7865
G2 X-16.1236 Y-11.4831 I-1.573 J0.0
G2 X-18.4831 Y-9.1236 I0.0 J2.3596
G2 X-14.5506 Y-5.191 I3.9326 J0.0
G2 X-8.2584 Y-11.4831 I0.0 J-6.2921
G2 X-18.4831 Y-21.7079 I-10.2247 J0.0
G2 X-35.0 Y-5.191 I0.0 J16.5169
G2 X-8.2584 Y21.5506 I26.7416 J0.0
G2 X35.0 Y-21.7079 I0.0 J-43.2584
G0 Z90.0
M5
M30
