( Made using CamBam - http://www.cambam.co.uk )
( Hello World 2012-03-31 11:19:50 AM )
( T0 : 0.0 )
G20 G90 G64 G40
G0 Z90.0
( T0 : 0.0 )
T0 M6
( Engrave1 )
G17
M3 S1000
G0 F250.0 X47.3349 Y-4.7591
G1 Z0.0
G1 X49.9657 Y7.6238
G1 X46.5737 Y7.1646
G1 X45.4542 Y1.8914
G1 X45.2414 Y0.9286
G1 X44.0324 Y-4.6921
G2 X43.9415 Y-4.9454 I-7.0741 J2.3949
G2 X43.8358 Y-5.1927 I-2.1464 J0.771
G2 X43.5746 Y-5.6051 I-1.9179 J0.9257
G2 X43.2488 Y-5.9292 I-1.5922 J1.2749
G2 X42.8967 Y-6.1624 I-1.4824 J1.8561
G2 X42.5571 Y-6.3023 I-0.8253 J1.5207
G2 X42.2299 Y-6.349 I-0.3506 J1.2884
G2 X41.898 Y-6.3066 I-0.0106 J1.2381
G2 X41.5955 Y-6.1636 I0.24 J0.8992
G2 X41.3642 Y-5.9137 I0.5904 J0.7784
G2 X41.2148 Y-5.6076 I1.1692 J0.7601
G2 X41.1116 Y-5.1497 I1.9836 J0.6879
G2 X41.0879 Y-4.6808 I4.7157 J0.4729
G2 X41.0942 Y-4.3362 I6.9723 J0.0452
G1 X41.1019 Y-4.17
G2 X41.113 Y-4.004 I4.3626 J-0.2076
G2 X41.1272 Y-3.844 I5.565 J-0.4126
G1 X41.1441 Y-3.6843
G2 X41.2888 Y-2.7301 I12.0298 J-1.3353
G2 X41.511 Y-1.7909 I11.4946 J-2.2245
G2 X41.635 Y-1.3868 I9.7264 J-2.7632
G2 X42.1193 Y-0.216 I7.8612 J-2.5662
G2 X42.502 Y0.4407 I5.3755 J-2.6926
G2 X42.6104 Y0.597 I2.4149 J-1.5583
G2 X42.9689 Y1.0404 I4.0524 J-2.9105
G2 X43.167 Y1.2414 I2.2454 J-2.0148
G2 X43.3855 Y1.4198 I1.609 J-1.7477
G2 X43.8296 Y1.6475 I0.9999 J-1.4034
G2 X44.3011 Y1.7234 I0.4457 J-1.2663
G1 X44.3654 Y1.7215
G2 X44.4275 Y1.7163 I0.0143 J-0.2004
G2 X44.4422 Y1.7108 I-0.0068 J-0.0407
G3 X44.4646 Y1.7033 I0.061 J0.1443
G3 X44.4886 Y1.7086 I0.0073 J0.0243
G2 X44.5935 Y1.775 I0.2552 J-0.2868
G2 X44.7684 Y1.8384 I0.9742 J-2.4139
G3 X44.8122 Y1.8546 I-0.0847 J0.2977
G3 X44.9342 Y1.9226 I-0.1511 J0.4143
G3 X45.0283 Y2.0556 I-0.2277 J0.261
G3 X45.0706 Y2.2935 I-0.5498 J0.2204
G3 X45.0298 Y2.5318 I-0.7089 J0.0011
G3 X44.8518 Y2.8072 I-0.7113 J-0.2643
G3 X44.6017 Y3.0193 I-1.5954 J-1.6285
G3 X44.5298 Y3.0384 I-0.4473 J-1.5402
G3 X44.3126 Y3.0892 I-0.8092 J-2.9671
G3 X43.9774 Y3.1313 I-0.6179 J-3.5633
G3 X43.5958 Y3.1454 I-0.3526 J-4.3756
G3 X42.403 Y3.0023 I-0.0168 J-4.9025
G3 X41.332 Y2.573 I1.0505 J-4.1716
G3 X40.8359 Y2.2438 I2.3153 J-4.0269
G3 X40.3829 Y1.8577 I3.4577 J-4.5153
G3 X39.5631 Y0.9235 I4.832 J-5.067
G3 X38.8802 Y-0.1625 I6.6952 J-4.9678
G3 X38.3341 Y-1.4003 I8.6155 J-4.5405
G3 X38.2814 Y-1.5486 I3.2649 J-1.2433
G3 X38.1364 Y-1.998 I7.3494 J-2.6205
G1 X38.0931 Y-2.1469
G1 X38.0321 Y-2.3713
G1 X37.9759 Y-2.597
G3 X37.9095 Y-2.8962 I7.6105 J-1.8479
G3 X37.8527 Y-3.1972 I5.8121 J-1.251
G3 X37.7925 Y-3.5884 I13.4783 J-2.2769
G3 X37.7463 Y-3.9796 I4.4401 J-0.7226
G1 X37.7421 Y-4.0656
G2 X37.7207 Y-4.3226 I-1.8525 J0.0249
G2 X37.6563 Y-4.5405 I-1.0748 J0.1991
G2 X37.5578 Y-4.7454 I-1.7482 J0.7145
G2 X37.3872 Y-5.0231 I-3.2027 J1.7767
G2 X37.2934 Y-5.1565 I-2.0047 J1.3101
G1 X37.1959 Y-5.2872
G2 X36.7854 Y-5.7669 I-3.6887 J2.7408
G2 X36.5967 Y-5.9391 I-2.0631 J2.0706
G2 X36.3906 Y-6.0902 I-1.3506 J1.6268
G2 X35.9745 Y-6.2843 I-0.8742 J1.3314
G2 X35.5373 Y-6.349 I-0.4511 J1.5389
G2 X35.2744 Y-6.3349 I-0.06 J1.3389
G2 X35.0211 Y-6.2631 I0.1402 J0.978
G2 X34.7114 Y-6.0056 I0.2685 J0.6379
G2 X34.6318 Y-5.7978 I0.5425 J0.327
G2 X34.6082 Y-5.5766 I1.2674 J0.2471
G2 X34.6097 Y-5.4414 I1.134 J0.0552
G2 X34.6181 Y-5.3066 I1.6542 J-0.036
G2 X34.6479 Y-5.0341 I2.918 J-0.1815
G2 X34.6977 Y-4.7591 I4.0963 J-0.5994
G1 X37.3284 Y7.6238
G1 X33.9365 Y7.1646
G1 X32.8437 Y2.0442
G3 X32.8075 Y2.1208 I-1.204 J-0.522
G3 X32.7693 Y2.1965 I-1.0475 J-0.4813
G1 X32.7252 Y2.2746
G3 X32.6777 Y2.3507 I-2.0327 J-1.2123
G3 X32.6243 Y2.4302 I-1.1194 J-0.6948
G1 X32.5672 Y2.5071
G3 X32.2543 Y2.7995 I-1.0812 J-0.8432
G3 X31.8531 Y2.9749 I-0.727 J-1.1162
G3 X31.3638 Y3.0334 I-0.4699 J-1.8561
G3 X30.8426 Y2.9824 I-0.0065 J-2.6207
G3 X30.3463 Y2.8293 I0.5315 J-2.6048
G3 X29.8748 Y2.5743 I1.3263 J-3.0149
G3 X29.8178 Y2.5373 I0.5169 J-0.8594
G3 X29.4289 Y2.2632 I4.2532 J-6.4484
G3 X29.2173 Y2.105 I5.7463 J-7.9081
G3 X29.0091 Y1.9423 I2.8259 J-3.8293
G1 X28.811 Y1.7784
G1 X28.6155 Y1.6114
G1 X28.9065 Y3.0334
G1 X25.604
G1 X24.9839 Y0.1064
G2 X24.8436 Y0.0425 I-5.86 J12.6934
G2 X24.7022 Y-0.0195 I-3.1235 J6.926
G1 X24.5595 Y-0.0791
G1 X24.4097 Y-0.1384
G2 X24.1827 Y-0.2216 I-5.405 J14.402
G1 X24.0682 Y-0.2603
G1 X23.953 Y-0.2969
G2 X23.4249 Y-0.4274 I-1.2508 J3.9264
G2 X22.9752 Y-0.4709 I-0.4844 J2.6624
G1 X22.8136 Y-0.4685
G2 X22.75 Y-0.4659 I0.0072 J0.9696
G2 X22.6867 Y-0.4611 I0.0147 J0.6079
G1 X22.5947 Y-0.4484
G1 Y-0.4262
G3 X22.5804 Y0.0661 I-10.305 J-0.0529
G3 X22.5637 Y0.295 I-12.5417 J-0.7982
G3 X22.5375 Y0.5229 I-2.8619 J-0.2136
G1 X22.5042 Y0.7339
G1 X22.4661 Y0.9441
G1 X22.466 Y0.9437
G1 X22.3937 Y1.2128
G1 X22.335 Y1.4135
G3 X22.102 Y1.995 I-3.1457 J-0.9231
G3 X21.8344 Y2.3989 I-1.9856 J-1.0251
G3 X21.4847 Y2.7343 I-1.5609 J-1.2775
G3 X21.0639 Y2.9774 I-1.4072 J-1.9501
G1 X20.9529 Y3.0267
G1 X20.7843 Y3.0959
G1 X20.6145 Y3.162
G1 X20.6139 Y3.1638
G3 X20.5883 Y3.1679 I-0.0575 J-0.2788
G3 X20.5623 Y3.1703 I-0.2118 J-2.1497
G3 X20.5359 Y3.171 I-0.0315 J-0.6142
G3 X20.2561 Y3.0703 I0.0146 J-0.4796
G3 X20.0571 Y2.8055 I0.408 J-0.5137
G3 X19.9814 Y2.4331 I0.8678 J-0.3703
G3 X20.0197 Y2.1632 I0.9474 J-0.0032
G3 X20.1248 Y1.938 I0.6881 J0.184
G3 X20.2822 Y1.7768 I0.8467 J0.6692
G1 X20.2819 Y1.7766
G2 X20.3186 Y1.7527 I-0.195 J-0.3405
G2 X20.354 Y1.7273 I-0.2026 J-0.319
G2 X20.416 Y1.6693 I-0.5401 J-0.6401
G2 X20.4678 Y1.6026 I-0.3434 J-0.32
G2 X20.5796 Y1.36 I-0.8288 J-0.5293
G2 X20.6617 Y1.0204 I-2.4015 J-0.7599
G1 X20.6782 Y0.9117
G2 X20.714 Y0.5837 I-17.3134 J-2.0541
G1 X20.6183 Y0.5259
G3 X20.479 Y0.432 I0.8916 J-1.4733
G3 X20.3533 Y0.3206 I0.6183 J-0.8239
G3 X20.1369 Y-0.0657 I0.7646 J-0.6822
G3 X20.0815 Y-0.3176 I1.2965 J-0.4175
G3 X20.0648 Y-0.5751 I1.6775 J-0.238
G3 X20.1257 Y-1.0745 I1.7283 J-0.0425
G3 X20.1965 Y-1.2634 I0.9188 J0.2366
G3 X20.3086 Y-1.431 I0.6144 J0.2896
G3 X20.4526 Y-1.5496 I0.5929 J0.5736
G3 X20.6134 Y-1.6443 I1.1888 J1.8336
G2 X20.5881 Y-1.8047 I-7.968 J1.1728
G2 X20.5657 Y-1.945 I-4.4644 J0.6399
G2 X20.5457 Y-2.0678 I-3.4459 J0.4978
G2 X20.3826 Y-2.9226 I-14.5135 J2.3273
G2 X20.0486 Y-4.0554 I-9.5647 J2.2044
G2 X19.9522 Y-4.3078 I-5.5737 J1.9842
G2 X19.6114 Y-5.0426 I-7.1641 J2.8756
G2 X19.3759 Y-5.4387 I-3.7803 J1.9801
G1 X19.3106 Y-5.5336
G1 X19.2596 Y-5.6035
G1 X19.1798 Y-5.7057
G1 X19.0958 Y-5.8046
G2 X18.833 Y-6.0602 I-1.9406 J1.7327
G2 X18.5267 Y-6.2617 I-1.1037 J1.344
G2 X17.9041 Y-6.4141 I-0.6482 J1.3005
G2 X17.5714 Y-6.3724 I-0.0197 J1.1923
G2 X17.3046 Y-6.2475 I0.2299 J0.8383
G2 X17.1036 Y-6.0393 I0.4318 J0.6179
G2 X17.0194 Y-5.8718 I0.8983 J0.5565
G2 X16.9637 Y-5.6928 I1.226 J0.4792
G2 X16.911 Y-5.4248 I3.6146 J0.8501
G2 X16.8798 Y-5.1535 I6.1141 J0.842
G1 X16.8658 Y-4.9708
G2 X16.8518 Y-4.4215 I8.2511 J0.4857
G2 X16.8599 Y-4.1605 I4.3254 J-0.0046
G2 X16.8779 Y-3.9 I5.4121 J-0.2426
G1 X16.8931 Y-3.7473
G2 X16.9563 Y-3.2915 I9.6311 J-1.1031
G2 X17.0186 Y-2.9431 I8.8132 J-1.397
G1 X17.0869 Y-2.5958
G2 X17.1339 Y-2.4068 I7.6459 J-1.8008
G2 X17.1754 Y-2.2415 I4.2879 J-0.9886
G2 X17.2122 Y-2.097 I3.2998 J-0.7647
G2 X17.3483 Y-1.5932 I12.1142 J-3.0026
G2 X17.3848 Y-1.4679 I3.0112 J-0.809
G2 X17.5024 Y-1.0946 I10.4438 J-3.0836
G2 X18.0323 Y0.1706 I8.7204 J-2.909
G2 X18.3295 Y0.7007 I6.2117 J-3.1343
G2 X18.6766 Y1.1995 I4.5695 J-2.8089
G2 X18.7507 Y1.2913 I11.693 J-9.3733
G1 X18.8279 Y1.3806
G2 X18.9016 Y1.4591 I1.4574 J-1.2933
G2 X18.9791 Y1.5337 I0.7308 J-0.6821
G1 X19.0536 Y1.5979
G1 X19.13 Y1.6599
G1 X19.1291 Y1.6614
G3 X19.2999 Y1.844 I-0.8097 J0.9288
G3 X19.4129 Y2.0867 I-0.6519 J0.4513
G3 X19.4538 Y2.3718 I-0.9467 J0.2812
G3 X19.3611 Y2.792 I-0.9873 J0.0025
G3 X19.1175 Y3.0908 I-0.6861 J-0.3108
G3 X18.7749 Y3.2045 I-0.3537 J-0.4928
G3 X18.7509 Y3.204 I-0.0057 J-0.3015
G3 X18.7271 Y3.2025 I0.0146 J-0.4185
G1 X18.7036 Y3.2
G1 X18.7032 Y3.203
G3 X18.5759 Y3.1735 I0.7348 J-3.464
G3 X18.4646 Y3.1473 I0.4007 J-1.9527
G3 X18.3673 Y3.1238 I0.3138 J-1.5112
G3 X18.0291 Y3.0339 I1.2336 J-5.3204
G3 X17.8618 Y2.9822 I0.7076 J-2.5884
G1 X17.6965 Y2.9246
G3 X16.7734 Y2.4435 I1.5225 J-4.048
G3 X16.343 Y2.1143 I3.3038 J-4.7651
G3 X15.9339 Y1.7591 I9.6257 J-11.5008
G3 X15.5301 Y1.316 I7.7083 J-7.4286
G1 X15.4326 Y1.1975
G3 X15.159 Y0.827 I4.2163 J-3.3998
G3 X14.9863 Y0.5618 I5.8114 J-3.9713
G1 X14.8204 Y0.2921
G1 X17.9433 Y8.6536
G1 X16.3313
G1 X11.5175 Y-5.3862
G1 X11.316 Y8.6536
G1 X8.4052
G1 X3.5803 Y-5.3862
G1 X3.3787 Y8.7209
G3 X3.0777 Y8.7457 I-0.7026 J-6.6924
G3 X2.7718 Y8.7607 I-1.1993 J-21.3283
G3 X2.4608 Y8.7657 I-0.3971 J-14.9026
G3 X0.585 Y8.5617 I0.0133 J-8.8469
G3 X-1.2361 Y7.9496 I1.842 J-8.4951
G3 X-2.1354 Y7.4676 I4.6729 J-9.7981
G1 X-2.354 Y7.336
G1 X-2.517 Y7.2356
G1 X-2.7601 Y7.0832
G1 X-3.0024 Y6.9295
G3 X-3.0934 Y6.8593 I3.084 J-4.0898
G3 X-3.173 Y6.7976 I1.7136 J-2.293
G3 X-3.2424 Y6.7434 I1.3202 J-1.7629
G3 X-3.3632 Y6.6478 I1.5265 J-2.0529
G3 X-3.4531 Y6.5751 I1.3147 J-1.7185
G3 X-3.5863 Y6.4642 I1.8442 J-2.3497
G1 X-3.717 Y6.3504
G3 X-4.3383 Y5.7178 I4.6144 J-5.1539
G3 X-4.4783 Y5.5525 I2.7592 J-2.4792
G3 X-4.8664 Y5.0318 I4.9218 J-4.0729
G3 X-5.2675 Y4.3096 I3.7661 J-2.5641
G3 X-5.5081 Y3.5688 I3.6184 J-1.5851
G3 X-5.5884 Y2.8094 I3.9205 J-0.7981
G3 X-5.571 Y2.4138 I3.5547 J-0.042
G3 X-5.5188 Y2.063 I3.1906 J0.2955
G1 X-5.5022 Y1.9851
G3 X-5.4317 Y1.7571 I1.1985 J0.2456
G3 X-5.4143 Y1.7186 I0.415 J0.1642
G1 X-5.3949 Y1.6816
G2 X-5.3759 Y1.6444 I-1.4097 J-0.7442
G1 X-5.5843 Y1.3092
G2 X-5.7911 Y1.0162 I-14.481 J10.0046
G2 X-6.0161 Y0.7369 I-3.6676 J2.7232
G1 X-6.0671 Y0.6814
G2 X-6.4751 Y0.3488 I-1.3601 J1.2519
G2 X-6.7134 Y0.2353 I-0.8876 J1.5574
G1 X-6.775 Y0.2115
G1 X-6.9614 Y0.1449
G3 X-6.9833 Y0.3269 I-3.8593 J-0.3732
G3 X-7.0797 Y0.9608 I-7.6534 J-0.8388
G3 X-7.2498 Y1.5791 I-4.0854 J-0.7915
G3 X-7.5131 Y2.1142 I-2.7369 J-1.0147
G3 X-7.8989 Y2.5689 I-1.7891 J-1.1269
G3 X-8.0117 Y2.6589 I-0.7456 J-0.819
G3 X-8.4462 Y2.9138 I-1.5843 J-2.2025
G1 X-8.5032 Y2.9408
G1 X-8.7047 Y3.03
G1 X-8.8064 Y3.0727
G1 X-8.9082 Y3.1148
G1 X-8.9087 Y3.117
G3 X-8.9344 Y3.1209 I-0.0604 J-0.3095
G3 X-8.9603 Y3.1233 I-0.0868 J-0.7979
G3 X-8.9866 Y3.1242 I-0.0354 J-0.7188
G3 X-9.2665 Y3.0234 I0.0151 J-0.4809
G3 X-9.4655 Y2.7586 I0.4059 J-0.5122
G3 X-9.5412 Y2.3861 I0.8696 J-0.3708
G3 X-9.5029 Y2.1162 I0.9476 J-0.0033
G3 X-9.3978 Y1.8909 I0.6881 J0.1839
G3 X-9.2404 Y1.7297 I0.8483 J0.6706
G1 X-9.2407 Y1.7294
G2 X-9.204 Y1.7056 I-0.1957 J-0.342
G2 X-9.1685 Y1.6801 I-0.2025 J-0.3192
G2 X-9.1065 Y1.6222 I-0.5396 J-0.64
G2 X-9.0547 Y1.5554 I-0.3433 J-0.3199
G2 X-8.9428 Y1.3128 I-0.8285 J-0.5291
G2 X-8.8608 Y0.9732 I-2.401 J-0.7597
G1 X-8.8443 Y0.8645
G2 X-8.8085 Y0.5366 I-19.0536 J-2.2439
G1 X-8.9042 Y0.4787
G3 X-9.0435 Y0.3849 I0.878 J-1.4542
G3 X-9.1693 Y0.2735 I0.615 J-0.8206
G3 X-9.3857 Y-0.1127 I0.7655 J-0.6828
G3 X-9.4412 Y-0.3646 I1.2925 J-0.4166
G3 X-9.4579 Y-0.6221 I1.6784 J-0.2381
G3 X-9.3969 Y-1.1216 I1.7275 J-0.0427
G3 X-9.3261 Y-1.3105 I0.9192 J0.2367
G3 X-9.214 Y-1.4781 I0.6151 J0.2901
G3 X-9.07 Y-1.5967 I0.5924 J0.5727
G3 X-8.9093 Y-1.6914 I1.1821 J1.8215
G2 X-8.9345 Y-1.8518 I-7.8912 J1.1604
G2 X-8.9569 Y-1.9921 I-4.4479 J0.6372
G2 X-8.9769 Y-2.1149 I-3.4371 J0.4963
G2 X-9.14 Y-2.9696 I-14.4441 J2.314
G2 X-9.474 Y-4.1023 I-9.5682 J2.2058
G2 X-9.5704 Y-4.3547 I-5.5628 J1.9803
G2 X-9.9112 Y-5.0895 I-7.171 J2.8789
G2 X-10.1467 Y-5.4856 I-3.7802 J1.98
G1 X-10.212 Y-5.5805
G1 X-10.263 Y-5.6504
G1 X-10.3428 Y-5.7526
G1 X-10.4268 Y-5.8515
G2 X-10.6896 Y-6.1071 I-1.941 J1.733
G2 X-10.9959 Y-6.3086 I-1.1037 J1.3439
G2 X-11.6185 Y-6.461 I-0.6481 J1.3001
G2 X-11.9512 Y-6.4193 I-0.0193 J1.1944
G2 X-12.218 Y-6.2942 I0.2279 J0.8334
G2 X-12.4189 Y-6.0858 I0.4363 J0.6215
G2 X-12.5588 Y-5.7393 I0.9673 J0.5919
G1 X-12.5885 Y-5.6061
G2 X-12.5978 Y-5.5557 I0.5233 J0.1231
G2 X-12.6121 Y-5.4672 I0.9072 J0.1918
G2 X-12.6427 Y-5.2001 I6.9218 J0.9288
G1 X-12.6567 Y-5.0174
G2 X-12.6707 Y-4.4681 I8.1011 J0.482
G2 X-12.6626 Y-4.2072 I4.3819 J-0.0063
G2 X-12.6446 Y-3.9468 I5.4304 J-0.2436
G1 X-12.6295 Y-3.7942
G2 X-12.5663 Y-3.3385 I9.5339 J-1.0896
G2 X-12.5039 Y-2.9902 I8.851 J-1.4048
G1 X-12.4356 Y-2.643
G2 X-12.3886 Y-2.454 I7.6632 J-1.8047
G2 X-12.3471 Y-2.2886 I4.302 J-0.9918
G2 X-12.3103 Y-2.1441 I3.3119 J-0.7675
G2 X-12.1742 Y-1.6403 I12.4295 J-3.0869
G2 X-12.1377 Y-1.515 I3.0375 J-0.8164
G2 X-12.0202 Y-1.1416 I10.9043 J-3.2276
G2 X-11.4903 Y0.1235 I8.5972 J-2.8574
G2 X-10.8459 Y1.1524 I5.6535 J-2.8245
G2 X-10.7718 Y1.2443 I7.6979 J-6.137
G1 X-10.6946 Y1.3337
G2 X-10.621 Y1.4122 I1.4544 J-1.2895
G2 X-10.5435 Y1.4867 I0.7243 J-0.6754
G1 X-10.469 Y1.5508
G1 X-10.3926 Y1.6127
G1 X-10.3934 Y1.6146
G3 X-10.2227 Y1.797 I-0.8089 J0.9282
G3 X-10.1097 Y2.0396 I-0.6518 J0.4513
G3 X-10.0688 Y2.3248 I-0.9472 J0.2814
G3 X-10.1615 Y2.745 I-0.9866 J0.0027
G3 X-10.4051 Y3.0437 I-0.6857 J-0.3106
G3 X-10.7478 Y3.1573 I-0.3538 J-0.4934
G3 X-10.7718 Y3.1568 I-0.0058 J-0.2982
G3 X-10.7955 Y3.1553 I0.0146 J-0.4172
G1 X-10.8189 Y3.1528
G1 X-10.8193 Y3.156
G3 X-10.9466 Y3.1265 I0.7368 J-3.4712
G3 X-11.0579 Y3.1003 I0.4013 J-1.9543
G3 X-11.1552 Y3.0768 I0.3141 J-1.5122
G3 X-11.4934 Y2.9868 I1.2363 J-5.3293
G3 X-11.6607 Y2.9352 I0.7077 J-2.5883
G1 X-11.826 Y2.8775
G3 X-12.7492 Y2.3964 I1.5239 J-4.051
G3 X-13.1796 Y2.0673 I3.3022 J-4.7643
G3 X-13.5887 Y1.7123 I9.5623 J-11.4323
G3 X-13.6891 Y1.5997 I3.4954 J-3.2172
G3 X-14.0349 Y1.2012 I10.65 J-9.5919
G3 X-14.3599 Y0.7855 I5.9436 J-4.9818
G3 X-15.0018 Y-0.3229 I5.4609 J-3.9023
G3 X-15.272 Y-0.9623 I10.3482 J-4.7489
G1 X-15.3949 Y-1.287
G1 X-15.5143 Y-1.6129
G3 X-15.5616 Y-1.7622 I6.7889 J-2.2347
G3 X-15.6312 Y-1.9865 I4.9192 J-1.6487
G3 X-15.6971 Y-2.2119 I6.2432 J-1.9486
G1 X-15.7368 Y-2.358
G1 X-15.7921 Y-2.5783
G1 X-15.8427 Y-2.7998
G3 X-15.9014 Y-3.0872 I5.8731 J-1.35
G3 X-15.9509 Y-3.3764 I6.988 J-1.3436
G3 X-15.9744 Y-3.5422 I23.0798 J-3.3568
G3 X-15.9853 Y-3.6253 I1.9413 J-0.2972
G3 X-15.9959 Y-3.7083 I1.3938 J-0.2209
G1 X-16.0161 Y-3.873
G3 X-16.031 Y-4.0382 I2.8782 J-0.3433
G1 X-16.035 Y-4.1095
G1 X-16.0417 Y-4.2164
G2 X-16.0555 Y-4.3226 I-1.9335 J0.1965
G2 X-16.1181 Y-4.5275 I-0.8945 J0.1613
G1 X-16.1393 Y-4.5767
G1 X-16.1738 Y-4.6492
G2 X-16.2106 Y-4.7206 I-0.6078 J0.2678
G2 X-16.5518 Y-5.2748 I-4.4161 J2.3366
G2 X-16.7408 Y-5.5292 I-3.9375 J2.7279
G2 X-16.8425 Y-5.6508 I-1.5529 J1.1969
G2 X-16.9503 Y-5.7669 I-2.2072 J1.9408
G2 X-17.3453 Y-6.0902 I-1.6238 J1.5807
G2 X-17.7614 Y-6.2843 I-0.9113 J1.4107
G2 X-18.1986 Y-6.349 I-0.4572 J1.5803
G2 X-18.4615 Y-6.3349 I-0.0611 J1.3179
G2 X-18.7148 Y-6.2631 I0.1398 J0.9768
G2 X-19.0245 Y-6.0056 I0.2687 J0.6381
G2 X-19.1041 Y-5.7978 I0.5423 J0.3269
G2 X-19.1277 Y-5.5766 I1.269 J0.2472
G2 X-19.1262 Y-5.4414 I1.1342 J0.0552
G2 X-19.1178 Y-5.3066 I1.6533 J-0.0359
G2 X-19.088 Y-5.0341 I2.9184 J-0.1815
G2 X-19.0382 Y-4.7591 I4.0954 J-0.5993
G1 X-16.4074 Y7.6238
G1 X-19.7994 Y7.1646
G1 X-22.251 Y-4.3226
G3 X-22.2885 Y-4.5112 I6.9231 J-1.474
G3 X-22.3209 Y-4.6942 I12.4634 J-2.296
G3 X-22.3492 Y-4.8726 I28.9639 J-4.692
G2 X-22.5218 Y-5.1977 I-4.9999 J2.4464
G2 X-22.7252 Y-5.4963 I-2.1758 J1.2631
G2 X-22.9615 Y-5.7669 I-2.3578 J1.8213
G2 X-23.3565 Y-6.0902 I-1.6204 J1.5765
G2 X-23.7726 Y-6.2843 I-0.921 J1.4317
G2 X-24.2098 Y-6.349 I-0.4553 J1.5673
G2 X-24.4727 Y-6.3349 I-0.0608 J1.3243
G2 X-24.726 Y-6.2631 I0.14 J0.9773
G2 X-25.0357 Y-6.0056 I0.2686 J0.6379
G2 X-25.1153 Y-5.7978 I0.5426 J0.327
G2 X-25.1389 Y-5.5766 I1.2699 J0.2473
G2 X-25.1374 Y-5.4414 I1.1333 J0.0553
G2 X-25.129 Y-5.3066 I1.6579 J-0.036
G2 X-25.0992 Y-5.0341 I2.8987 J-0.179
G2 X-25.0494 Y-4.7591 I4.1548 J-0.611
G1 X-22.4186 Y7.6238
G1 X-25.8106 Y7.1646
G1 X-28.2622 Y-4.3226
G3 X-28.2684 Y-4.3539 I1.5009 J-0.3126
G1 X-28.2741 Y-4.3847
G1 X-28.2801 Y-4.4159
G2 X-28.4348 Y-4.5827 I-5.4651 J4.9134
G2 X-28.5515 Y-4.7073 I-3.0261 J2.7173
G2 X-28.6396 Y-4.8001 I-2.3782 J2.1696
G2 X-28.7732 Y-4.938 I-3.0524 J2.8248
G2 X-28.909 Y-5.0736 I-6.3349 J6.2072
G1 X-29.0565 Y-5.215
G2 X-29.5167 Y-5.6198 I-6.6651 J7.1108
G2 X-30.1024 Y-6.0523 I-3.6838 J4.3765
G2 X-30.7499 Y-6.3788 I-1.9682 J3.0978
G2 X-31.4906 Y-6.5747 I-1.3928 J3.7679
G2 X-32.3246 Y-6.64 I-0.7636 J4.3942
G2 X-32.4409 Y-6.6368 I0.045 J3.7794
G2 X-32.7874 Y-6.5983 I0.0851 J2.3441
G2 X-33.1755 Y-6.4733 I0.3266 J1.6787
G2 X-33.4888 Y-6.2649 I0.4704 J1.0472
G2 X-33.719 Y-5.9261 I0.7846 J0.7805
G2 X-33.7676 Y-5.8011 I1.2007 J0.5396
G2 X-33.857 Y-5.4091 I2.2739 J0.7248
G2 X-33.9031 Y-4.7143 I4.2931 J0.6333
G2 X-33.8969 Y-4.4929 I5.2543 J-0.036
G1 X-33.8783 Y-4.1869
G2 X-33.8644 Y-3.9914 I6.6134 J-0.3714
G2 X-33.8471 Y-3.7962 I3.8367 J-0.2408
G1 X-33.8304 Y-3.6503
G1 X-33.8109 Y-3.5048
G2 X-33.78 Y-3.2989 I5.562 J-0.7284
G2 X-33.7452 Y-3.0937 I5.34 J-0.8005
G1 X-33.7076 Y-2.8961
G1 X-33.668 Y-2.6989
G2 X-33.6359 Y-2.5543 I6.8776 J-1.4477
G2 X-33.6077 Y-2.4278 I3.8586 J-0.7955
G2 X-33.5826 Y-2.3172 I2.9565 J-0.6113
G2 X-33.5604 Y-2.2205 I2.4939 J-0.5233
G2 X-33.5405 Y-2.1359 I2.2095 J-0.4735
G2 X-33.3882 Y-1.5477 I11.752 J-2.7304
G2 X-33.0113 Y-0.4673 I10.2278 J-2.9621
G2 X-32.5373 Y0.5422 I9.1541 J-3.6815
G2 X-32.0087 Y1.3564 I4.9627 J-2.6435
G2 X-31.7634 Y1.6312 I1.9894 J-1.5288
G2 X-31.4676 Y1.8509 I0.9284 J-0.9415
G2 X-31.3347 Y1.9107 I0.467 J-0.8586
G2 X-31.1265 Y1.9759 I0.7765 J-2.116
G1 X-30.914 Y2.0258
G2 X-30.8729 Y2.02 I-0.0206 J-0.2937
G2 X-30.8011 Y2.0083 I-0.1625 J-1.2251
G2 X-30.7477 Y1.9968 I-0.0332 J-0.2852
G2 X-30.5968 Y1.9337 I-0.0933 J-0.4349
G2 X-30.4805 Y1.8102 I-0.2684 J-0.3693
G2 X-30.4065 Y1.6575 I-0.5943 J-0.3821
G2 X-30.3553 Y1.4301 I-1.0896 J-0.365
G2 X-30.346 Y1.3139 I-1.3616 J-0.1673
G1 X-30.3431 Y1.1972
G2 X-30.437 Y0.2179 I-4.9254 J-0.0221
G2 X-30.5574 Y-0.2423 I-4.2872 J0.876
G2 X-30.7385 Y-0.6823 I-2.9603 J0.9613
G2 X-30.9904 Y-1.0991 I-3.1534 J1.6213
G2 X-31.1319 Y-1.2973 I-5.5479 J3.8111
G1 X-31.2776 Y-1.4924
G2 X-31.3542 Y-1.581 I-2.3435 J1.9475
G2 X-31.5957 Y-1.8364 I-2.5815 J2.1994
G2 X-31.9919 Y-2.1233 I-1.234 J1.2874
G2 X-32.1223 Y-2.185 I-0.87 J1.6692
G1 X-32.323 Y-2.2659
G1 X-32.4234 Y-2.3061
G1 X-32.5227 Y-2.3492
G3 X-32.7843 Y-2.5044 I0.4728 J-1.0956
G3 X-32.9821 Y-2.7356 I0.4487 J-0.584
G3 X-33.0635 Y-2.9758 I0.6549 J-0.3557
G3 X-33.0669 Y-3.1044 I0.5071 J-0.0778
G3 X-33.0272 Y-3.2267 I0.28 J0.0232
G3 X-32.9216 Y-3.3229 I0.2344 J0.1513
G3 X-32.7198 Y-3.3872 I0.2822 J0.5374
G3 X-32.6674 Y-3.3943 I0.0819 J0.4035
G3 X-32.5087 Y-3.4026 I0.1338 J1.0417
G3 X-32.1008 Y-3.3522 I-0.0019 J1.69
G3 X-32.0758 Y-3.3459 I-0.0255 J0.1553
G3 X-31.7098 Y-3.225 I-0.8486 J3.1826
G1 X-31.6129 Y-3.1877
G3 X-30.9542 Y-2.8815 I-1.7558 J4.6398
G3 X-30.9002 Y-2.8502 I-0.2922 J0.5655
G3 X-30.5129 Y-2.5884 I-2.494 J4.1072
G3 X-30.1527 Y-2.2904 I-3.6294 J4.7536
G3 X-29.9121 Y-2.0654 I-6.9521 J7.6768
G3 X-29.2758 Y-1.3108 I-3.4966 J3.5939
G3 X-28.7496 Y-0.2004 I-3.4555 J2.3172
G3 X-28.5742 Y1.0405 I-4.0331 J1.2028
G3 X-28.6377 Y1.6607 I-2.9607 J0.0104
G3 X-28.828 Y2.1924 I-2.1656 J-0.4752
G3 X-29.1452 Y2.6358 I-1.5374 J-0.7645
G3 X-29.6391 Y2.9685 I-1.1677 J-1.2004
G3 X-29.682 Y2.9873 I-0.2003 J-0.4001
G3 X-30.0152 Y3.0983 I-0.9878 J-2.4105
G3 X-30.3593 Y3.1682 I-0.8029 J-3.068
G3 X-31.3058 Y3.2348 I-0.8614 J-5.4849
G3 X-31.9476 Y3.1876 I0.0656 J-5.2768
G3 X-32.5745 Y3.0458 I0.5387 J-3.8395
G3 X-32.7298 Y2.9929 I0.9071 J-2.9158
G1 X-32.845 Y2.9496
G1 X-33.0163 Y2.8807
G1 X-33.1865 Y2.8094
G3 X-33.3266 Y2.7347 I1.559 J-3.0923
G1 X-33.5706 Y2.6022
G3 X-33.9306 Y2.3924 I4.948 J-8.9051
G3 X-34.0187 Y2.3368 I0.6568 J-1.1387
G3 X-34.2762 Y2.16 I2.0588 J-3.2749
G3 X-34.7659 Y1.7441 I2.631 J-3.5934
G3 X-35.2017 Y1.2719 I4.2284 J-4.34
G3 X-35.9629 Y0.1449 I5.416 J-4.4789
G3 X-36.0805 Y-0.0778 I6.8176 J-3.7431
G3 X-36.1923 Y-0.3012 I7.5517 J-3.9163
G1 X-36.2989 Y-0.5253
G1 X-34.3376 Y8.7209
G1 X-37.6401
G1 X-39.1066 Y1.8914
G1 X-42.4763
G1 X-41.0098 Y8.7209
G3 X-41.3108 Y8.7457 I-0.7046 J-6.7184
G3 X-41.6168 Y8.7607 I-1.5752 J-28.9992
G3 X-41.9278 Y8.7657 I-0.3384 J-11.2797
G3 X-42.8943 Y8.7097 I0.0135 J-8.6002
G3 X-43.3763 Y8.6397 I0.8265 J-7.3792
G3 X-43.8534 Y8.5417 I1.1527 J-6.8274
G3 X-44.3327 Y8.4143 I2.536 J-10.501
G3 X-44.8048 Y8.2619 I3.0662 J-10.3088
G3 X-46.6159 Y7.4346 I3.4505 J-9.9498
G3 X-47.387 Y6.9395 I4.4681 J-7.8058
G3 X-48.0937 Y6.356 I3.6816 J-5.179
G3 X-48.2498 Y6.2017 I2.8362 J-3.0266
G3 X-48.7605 Y5.6278 I6.8736 J-6.6301
G1 X-48.8817 Y5.4789
G1 X-49.0608 Y5.2532
G1 X-49.2381 Y5.0262
G3 X-49.2923 Y4.9383 I2.348 J-1.5087
G3 X-49.3394 Y4.8613 I1.3127 J-0.8564
G3 X-49.3803 Y4.7936 I1.0138 J-0.6586
G3 X-49.4156 Y4.7342 I0.8677 J-0.5559
G3 X-49.5345 Y4.5235 I4.3885 J-2.6154
G3 X-49.6424 Y4.3071 I3.7766 J-2.0179
G3 X-49.8849 Y3.5681 I3.1512 J-1.4434
G3 X-49.9657 Y2.8094 I3.781 J-0.7863
G3 X-49.9484 Y2.4138 I3.7318 J-0.0342
G3 X-49.9271 Y2.2377 I3.0879 J0.2829
G3 X-49.8962 Y2.063 I2.1105 J0.2841
G3 X-49.8585 Y1.9083 I2.6524 J0.5633
G3 X-49.809 Y1.7571 I1.4524 J0.3914
G3 X-49.36 Y1.1039 I1.5325 J0.5726
G3 X-48.9996 Y0.8649 I1.1405 J1.3289
G3 X-48.595 Y0.712 I1.0355 J2.128
G3 X-48.3286 Y0.6533 I0.7255 J2.6551
G3 X-47.9224 Y0.6047 I0.642 J3.6473
G1 X-47.8204 Y0.5975
G3 X-47.5141 Y0.5814 I0.5589 J7.7117
G3 X-47.5191 Y0.6287 I-0.1968 J0.0031
G1 X-47.5254 Y0.6551
G3 X-47.5341 Y0.6809 I-0.4007 J-0.1207
G3 X-47.5589 Y0.7382 I-0.4719 J-0.1706
G1 X-47.6424 Y0.9231
G2 X-47.7144 Y1.1127 I2.3382 J0.9965
G1 X-47.747 Y1.2272
G2 X-47.7831 Y1.4022 I2.3304 J0.5727
G2 X-47.8077 Y1.5792 I2.962 J0.5012
G2 X-47.8388 Y2.1376 I5.4891 J0.5859
G2 X-47.7449 Y3.3044 I6.5214 J0.0623
G2 X-47.4632 Y4.3419 I5.3264 J-0.8894
G2 X-46.9936 Y5.2502 I4.3743 J-1.6862
G2 X-46.3548 Y6.0251 I4.1083 J-2.7355
G2 X-46.1701 Y6.1998 I5.4273 J-5.5519
G2 X-45.5655 Y6.6633 I2.999 J-3.2862
G2 X-45.1033 Y6.9282 I3.1389 J-4.9414
G2 X-44.8655 Y7.0482 I2.4592 J-4.578
G1 X-44.6258 Y7.1646
G1 X-47.9507 Y-8.4314
G1 X-44.6482
G1 X-42.8123 Y0.1896
G1 X-39.4426
G1 X-41.2785 Y-8.4314
G1 X-37.976
G1 X-37.2869 Y-5.1826
G3 X-37.2764 Y-5.3157 I3.4776 J0.2063
G3 X-37.2668 Y-5.4322 I1.9642 J0.1037
G3 X-37.2577 Y-5.534 I1.5311 J0.0858
G3 X-37.2166 Y-5.8892 I5.6928 J0.4772
G3 X-37.1526 Y-6.2412 I3.7856 J0.5067
G3 X-37.0234 Y-6.6764 I3.6729 J0.8543
G3 X-36.8313 Y-7.0877 I2.3854 J0.8633
G3 X-36.3211 Y-7.7204 I2.2141 J1.2631
G3 X-35.9771 Y-7.982 I1.6445 J1.8059
G3 X-35.5984 Y-8.1901 I1.9043 J3.0161
G3 X-34.729 Y-8.4719 I1.6281 J3.542
G3 X-33.7127 Y-8.5657 I0.9728 J4.9832
G3 X-31.7879 Y-8.2575 I-0.0032 J6.1843
G3 X-30.0306 Y-7.3332 I-1.9084 J5.7608
G3 X-29.603 Y-6.9806 I-3.6958 J4.9183
G1 X-29.4495 Y-6.8405
G3 X-28.9349 Y-6.3266 I-7.2301 J7.7565
G1 X-28.8102 Y-6.1943
G1 X-28.6248 Y-5.9942
G1 X-28.4406 Y-5.7932
G2 X-28.4408 Y-5.8029 I-0.2193 J0.0
G1 X-28.4412 Y-5.8129
G1 X-28.4414 Y-5.8228
G3 X-28.363 Y-6.6974 I4.39 J-0.0474
G3 X-28.2727 Y-7.0555 I2.9679 J0.558
G3 X-28.128 Y-7.3952 I1.7397 J0.5407
G3 X-28.0419 Y-7.5341 I1.0761 J0.5711
G1 X-28.0066 Y-7.5843
G3 X-27.7361 Y-7.9165 I4.0658 J3.0344
G3 X-27.6761 Y-7.9647 I1.1072 J1.3164
G3 X-27.4628 Y-8.1293 I3.521 J4.3434
G3 X-27.4078 Y-8.1684 I0.4579 J0.5848
G3 X-27.2374 Y-8.2772 I1.7019 J2.478
G3 X-26.6963 Y-8.4936 I1.0391 J1.8137
G3 X-26.1128 Y-8.5657 I0.6239 J2.6516
G3 X-24.6623 Y-8.3518 I0.0944 J4.3841
G3 X-24.0094 Y-8.0846 I-1.3367 J4.1977
G3 X-23.4111 Y-7.711 I-1.6865 J3.3667
G3 X-22.8571 Y-7.2052 I-2.944 J3.7811
G1 X-22.7928 Y-7.1369
G3 X-22.3585 Y-6.6448 I-15.1201 J13.7825
G3 X-22.3288 Y-6.7728 I2.6983 J0.5596
G3 X-22.3053 Y-6.8686 I1.6429 J0.3511
G3 X-22.2212 Y-7.1519 I3.166 J0.7858
G3 X-22.0104 Y-7.5762 I1.7571 J0.6084
G3 X-21.874 Y-7.7516 I1.3903 J0.9411
G3 X-21.7249 Y-7.9165 I3.4203 J2.9418
G3 X-21.6649 Y-7.9647 I1.109 J1.3187
G3 X-21.4515 Y-8.1293 I3.7232 J4.6056
G3 X-21.2262 Y-8.2772 I1.2129 J1.6022
G3 X-20.6851 Y-8.4936 I1.0271 J1.7837
G3 X-20.1016 Y-8.5657 I0.6224 J2.6393
G3 X-18.4654 Y-8.2886 I0.1026 J4.3626
G3 X-17.0877 Y-7.4579 I-1.4936 J4.0353
G3 X-16.4885 Y-6.7983 I-3.5512 J3.8278
G3 X-16.2231 Y-6.4403 I-8.6863 J6.716
G1 X-15.9677 Y-6.0751
G3 X-15.9243 Y-6.2449 I9.5089 J2.3408
G3 X-15.8745 Y-6.4112 I2.0211 J0.5148
G1 X-15.8466 Y-6.4924
G1 X-15.8165 Y-6.5728
G3 X-15.5187 Y-7.154 I2.893 J1.1154
G3 X-15.1001 Y-7.6552 I2.2807 J1.4797
G3 X-14.5677 Y-8.0408 I1.8581 J2.0052
G3 X-13.9657 Y-8.3046 I1.6123 J2.8605
G3 X-13.1987 Y-8.4785 I1.2699 J3.8231
G3 X-12.4133 Y-8.521 I0.677 J5.2264
G3 X-11.7086 Y-8.4643 I-0.0969 J5.6054
G3 X-11.0201 Y-8.3033 I-0.6042 J4.1378
G3 X-9.7812 Y-7.6502 I-1.3804 J4.1201
G3 X-9.4818 Y-7.4074 I-3.8472 J5.0498
G3 X-9.0684 Y-7.0038 I-4.1281 J4.6419
G3 X-8.6965 Y-6.5616 I-4.0984 J3.8242
G3 X-7.8321 Y-5.1111 I-6.0044 J4.5613
G3 X-7.2537 Y-3.3719 I-7.8622 J3.5802
G3 X-7.2269 Y-3.2466 I-2.1242 J0.5204
G3 X-7.1401 Y-2.7741 I-10.2925 J2.135
G1 X-7.1124 Y-2.5961
G1 X-7.0688 Y-2.2838
G1 X-7.0395 Y-2.0492
G3 X-6.9614 Y-1.3442 I-33.0104 J4.017
G3 X-6.8675 Y-1.2828 I-1.3154 J2.1124
G3 X-6.5432 Y-1.0621 I-3.5183 J5.5193
G3 X-6.464 Y-1.0041 I-0.5402 J0.8203
G3 X-6.4054 Y-0.9595 I-0.5344 J0.7633
G3 X-6.2349 Y-0.8193 I-1.5528 J2.0626
G3 X-5.8836 Y-0.4624 I-2.4819 J2.7942
G3 X-5.5782 Y-0.0654 I-3.5626 J3.0573
G3 X-5.272 Y0.4185 I-6.2547 J4.2954
G1 X-5.1299 Y0.667
G1 X-4.991 Y0.9174
G1 X-4.9197 Y1.0641
G3 X-4.8628 Y1.0276 I0.7507 J1.1103
G3 X-4.8128 Y0.996 I0.4259 J0.6166
G3 X-4.4504 Y0.7965 I1.5244 J2.3405
G3 X-4.1587 Y0.6961 I0.7886 J1.8179
G3 X-3.8564 Y0.6353 I0.7927 J3.1585
G3 X-3.4973 Y0.5986 I0.5943 J4.0429
G3 X-3.3171 Y0.5888 I0.4138 J5.9217
G1 X-3.1367 Y0.5814
G1 X-3.1429 Y0.6287
G3 X-3.1616 Y0.6809 I-0.1682 J-0.0306
G3 X-3.1926 Y0.7382 I-0.3655 J-0.1611
G1 X-3.2697 Y0.9183
G2 X-3.3358 Y1.1027 I2.2254 J0.9025
G2 X-3.4216 Y1.5691 I2.4032 J0.6833
G2 X-3.4502 Y2.1376 I5.4122 J0.557
G2 X-3.3501 Y3.3444 I6.6441 J0.0561
G2 X-3.0496 Y4.4117 I5.2605 J-0.9048
G2 X-2.5489 Y5.3395 I4.337 J-1.7414
G2 X-1.8693 Y6.122 I4.0227 J-2.8076
G2 X-1.0315 Y6.7528 I3.3317 J-3.5532
G2 X-0.5411 Y7.008 I3.0679 J-5.2971
G2 X-0.2893 Y7.1219 I2.8601 J-5.9892
G1 X-0.0357 Y7.2318
G1 X0.3337 Y-8.4314
G1 X3.6362
G1 X7.9911 Y3.2348
G1 X8.2598 Y-8.4314
G1 X11.5622
G1 X13.5693 Y-3.058
G1 X13.5484 Y-3.1645
G3 X13.5283 Y-3.2708 I5.6095 J-1.1152
G1 X13.5099 Y-3.3764
G3 X13.4322 Y-3.9443 I12.2032 J-1.9586
G3 X13.3856 Y-4.506 I13.7526 J-1.4239
G3 X13.3733 Y-4.7836 I7.6839 J-0.4814
G3 X13.3701 Y-5.0614 I6.2551 J-0.2103
G3 X13.3782 Y-5.3298 I8.2361 J0.1152
G1 X13.3872 Y-5.4638
G1 X13.3999 Y-5.5976
G3 X13.4895 Y-6.1014 I3.2941 J0.3256
G3 X13.5225 Y-6.2206 I4.3258 J1.136
G1 X13.5786 Y-6.3974
G1 X13.6388 Y-6.5728
G3 X13.6767 Y-6.6449 I1.502 J0.7451
G3 X13.7124 Y-6.7123 I0.8571 J0.4106
G3 X13.9981 Y-7.2081 I5.1524 J2.6389
G3 X14.3552 Y-7.6552 I2.2852 J1.4586
G3 X14.8853 Y-8.0448 I1.6982 J1.7555
G1 X14.9578 Y-8.0837
G3 X15.0872 Y-8.1472 I0.753 J1.3712
G3 X15.4895 Y-8.3046 I1.5565 J3.3851
G3 X16.2567 Y-8.4778 I1.3386 J4.1432
G3 X17.042 Y-8.521 I0.6784 J5.1704
G3 X17.7288 Y-8.4661 I-0.0752 J5.259
G3 X18.4003 Y-8.312 I-0.6377 J4.3198
G3 X19.6243 Y-7.685 I-1.3602 J4.1633
G3 X19.7005 Y-7.6289 I-0.7476 J1.0963
G3 X20.2377 Y-7.1657 I-3.3727 J4.4543
G3 X20.714 Y-6.64 I-4.3489 J4.4186
G3 X21.5959 Y-5.2468 I-5.7593 J4.6214
G3 X22.1967 Y-3.5748 I-7.6129 J3.6796
G3 X22.3846 Y-2.6041 I-10.7341 J2.5807
G3 X22.5164 Y-1.6241 I-32.2976 J4.845
G3 X22.7197 Y-1.5854 I-1.5707 J8.8069
G3 X23.3269 Y-1.4573 I-2.1684 J11.7772
G1 X23.5152 Y-1.4099
G3 X24.0726 Y-1.2398 I-2.1328 J7.9827
G3 X24.2447 Y-1.177 I-1.7893 J5.1793
G3 X24.7551 Y-0.9727 I-4.6208 J12.2783
G1 X23.1747 Y-8.4314
G1 X26.4772
G1 X28.3132 Y0.2791
G2 X28.4593 Y0.414 I2.8247 J-2.911
G2 X28.6079 Y0.546 I2.4393 J-2.5972
G1 X28.7422 Y0.6574
G1 X28.8802 Y0.7643
G2 X29.1304 Y0.9343 I1.4848 J-1.9167
G2 X29.3817 Y1.0554 I0.8353 J-1.4116
G2 X29.6578 Y1.1281 I0.5647 J-1.5836
G2 X29.9589 Y1.1524 I0.2657 J-1.4175
G2 X30.0975 Y1.1331 I-0.0075 J-0.5625
G2 X30.2001 Y1.0753 I-0.077 J-0.2566
G2 X30.2668 Y0.979 I-0.2208 J-0.2241
G2 X30.3121 Y0.8494 I-0.8041 J-0.3541
G2 X30.3331 Y0.7714 I-1.7279 J-0.5064
G2 X30.3512 Y0.6927 I-0.7616 J-0.2175
G1 X30.3683 Y0.6008
G1 X30.3842 Y0.5087
G3 X30.4315 Y0.3121 I1.3289 J0.2153
G1 X30.4491 Y0.2625
G3 X30.5136 Y0.1181 I2.6422 J1.0942
G3 X30.6306 Y-0.0735 I0.9525 J0.4501
G3 X30.8121 Y-0.2322 I0.5073 J0.3971
G3 X31.0882 Y-0.3273 I0.4291 J0.7967
G3 X31.4589 Y-0.3591 I0.3283 J1.6553
G3 X31.8107 Y-0.3125 I-0.0197 J1.5008
G3 X32.13 Y-0.1751 I-0.2908 J1.1154
G3 X32.4179 Y0.0496 I-1.2038 J1.8398
G1 X31.4848 Y-4.3226
G3 X31.4584 Y-4.4586 I5.9828 J-1.2365
G3 X31.42 Y-4.6627 I4.3394 J-0.9199
G3 X31.3854 Y-4.8674 I6.49 J-1.2028
G1 X31.3671 Y-4.992
G1 X31.3438 Y-5.1794
G1 X31.3257 Y-5.3675
G3 X31.3113 Y-5.5949 I4.3798 J-0.3915
G3 X31.3074 Y-5.7089 I1.9909 J-0.1257
G3 X31.3058 Y-5.8228 I1.7665 J-0.0815
G3 X31.3842 Y-6.6974 I4.3493 J-0.0511
G3 X31.4742 Y-7.0556 I3.471 J0.6815
G3 X31.6192 Y-7.3952 I1.7858 J0.562
G3 X31.8019 Y-7.6658 I1.9695 J1.1328
G1 X31.8528 Y-7.7296
G1 X32.011 Y-7.9165
G3 X32.071 Y-7.9647 I1.111 J1.3215
G3 X32.2844 Y-8.1293 I3.7806 J4.6809
G3 X32.5098 Y-8.2772 I1.2154 J1.6063
G3 X33.0509 Y-8.4936 I1.026 J1.781
G3 X33.6342 Y-8.5657 I0.6245 J2.6561
G3 X35.2849 Y-8.283 I0.1035 J4.3555
G3 X36.672 Y-7.4359 I-1.4941 J4.0057
G3 X37.2743 Y-6.7631 I-3.5771 J3.8085
G3 X37.5404 Y-6.3982 I-9.514 J7.2181
G1 X37.7962 Y-6.0261
G3 X37.8404 Y-6.226 I10.178 J2.1423
G3 X37.8922 Y-6.4199 I2.2667 J0.5022
G1 X37.9217 Y-6.5137
G1 X37.9536 Y-6.6066
G3 X38.0091 Y-6.7536 I1.8007 J0.5957
G3 X38.2495 Y-7.2484 I3.5243 J1.406
G3 X38.5705 Y-7.695 I2.5182 J1.4716
G3 X39.4661 Y-8.3481 I1.9092 J1.6777
G3 X40.0422 Y-8.5162 I1.0127 J2.3985
G3 X40.6402 Y-8.5657 I0.5914 J3.5089
G3 X41.8904 Y-8.3543 I0.0039 J3.7783
G3 X43.0136 Y-7.7199 I-1.2771 J3.5727
G3 X43.2847 Y-7.4771 I-3.155 J3.7954
G3 X43.4755 Y-7.2822 I-8.2392 J8.257
G1 X43.5449 Y-7.2069
G1 X43.6639 Y-7.0732
G1 X43.8382 Y-6.869
G1 X44.0099 Y-6.6625
G3 X44.0306 Y-6.7377 I1.7197 J0.4327
G3 X44.2052 Y-7.2546 I3.565 J0.9165
G3 X44.5374 Y-7.7771 I2.0042 J0.9072
G3 X44.7637 Y-8.0121 I2.1729 J1.8666
G1 X44.884 Y-8.1221
G1 X45.0063 Y-8.23
G3 X45.0496 Y-8.2556 I0.5025 J0.8004
G3 X45.3621 Y-8.4165 I1.191 J1.9286
G3 X45.4766 Y-8.4561 I0.416 J1.0177
G3 X45.653 Y-8.4992 I0.4559 J1.4845
G3 X45.8323 Y-8.5284 I1.2377 J7.0239
G3 X46.1239 Y-8.5578 I0.5022 J3.526
G3 X46.2703 Y-8.5645 I0.1675 J2.0424
G1 X46.4169 Y-8.5657
G3 X47.0327 Y-8.4985 I-0.0097 J2.944
G3 X47.5961 Y-8.297 I-0.5614 J2.4579
G3 X48.1073 Y-7.9612 I-1.0571 J2.1663
G3 X48.5203 Y-7.4972 I-1.419 J1.679
G3 X48.789 Y-6.9113 I-1.8104 J1.1847
G3 X48.8655 Y-6.5598 I-2.5366 J0.7362
G3 X48.9134 Y-6.2034 I-6.5184 J1.0568
G2 X48.6671 Y-6.2843 I-1.5973 J4.445
G2 X48.4208 Y-6.3328 I-0.4157 J1.4614
G2 X48.2979 Y-6.3446 I-0.2966 J2.444
G1 X48.1745 Y-6.349
G2 X47.9071 Y-6.3295 I-0.0161 J1.6259
G2 X47.6521 Y-6.247 I0.13 J0.8371
G2 X47.3386 Y-5.9409 I0.3414 J0.6632
G2 X47.2603 Y-5.6912 I0.7338 J0.3672
G1 X47.2553 Y-5.6588
G2 X47.2427 Y-5.5451 I1.046 J0.1738
G1 X47.2382 Y-5.488
G1 X47.2342 Y-5.4309
G2 X47.2381 Y-5.3213 I1.6354 J-0.0045
G2 X47.2453 Y-5.212 I1.6804 J-0.0561
G2 X47.2789 Y-4.9881 I2.4257 J-0.2494
G2 X47.3054 Y-4.8733 I2.1966 J-0.4452
G1 X47.3349 Y-4.7591
G0 Z90.0
G0 X0 Y0
M5
M30
