( Made using CamBam - http://www.cambam.co.uk )
( Hello World 2012-03-28 4:26:42 PM )
( T0 : 0.0 )
G21 G90 G64 G40
G0 F1.0 Z90.0
( T0 : 0.0 )
T0 M6
( Engrave1 )
G0 X4.7335 Y-0.4759
G1 F1.0 Z10.0
G1 F1.0 X4.9966 Y0.7624
G1 X4.6574 Y0.7165
G1 X4.5454 Y0.1891
G1 X4.5241 Y0.0929
G1 X4.4032 Y-0.4692
G2 X4.3942 Y-0.4945 I-0.7074 J0.2395
G2 X4.3836 Y-0.5193 I-0.2146 J0.0771
G2 X4.3575 Y-0.5605 I-0.1918 J0.0926
G2 X4.3249 Y-0.5929 I-0.1592 J0.1275
G2 X4.2897 Y-0.6162 I-0.1482 J0.1856
G2 X4.2557 Y-0.6302 I-0.0825 J0.1521
G2 X4.223 Y-0.6349 I-0.0351 J0.1288
G2 X4.1898 Y-0.6307 I-0.0011 J0.1238
G2 X4.1596 Y-0.6164 I0.024 J0.0899
G2 X4.1364 Y-0.5914 I0.059 J0.0778
G2 X4.1215 Y-0.5608 I0.1169 J0.076
G2 X4.1112 Y-0.515 I0.1984 J0.0688
G2 X4.1088 Y-0.4681 I0.4716 J0.0473
G2 X4.1094 Y-0.4336 I0.6972 J0.0045
G1 X4.1102 Y-0.417
G2 X4.1113 Y-0.4004 I0.4363 J-0.0208
G2 X4.1127 Y-0.3844 I0.5565 J-0.0413
G1 X4.1144 Y-0.3684
G2 X4.1289 Y-0.273 I1.203 J-0.1335
G2 X4.1511 Y-0.1791 I1.1495 J-0.2224
G2 X4.1635 Y-0.1387 I0.9726 J-0.2763
G2 X4.2119 Y-0.0216 I0.7861 J-0.2566
G2 X4.2502 Y0.0441 I0.5375 J-0.2693
G2 X4.261 Y0.0597 I0.2415 J-0.1558
G2 X4.2969 Y0.104 I0.4052 J-0.2911
G2 X4.3167 Y0.1241 I0.2245 J-0.2015
G2 X4.3386 Y0.142 I0.1609 J-0.1748
G2 X4.383 Y0.1647 I0.1 J-0.1403
G2 X4.4301 Y0.1723 I0.0446 J-0.1266
G1 X4.4365 Y0.1722
G2 X4.4428 Y0.1716 I0.0014 J-0.02
G2 X4.4442 Y0.1711 I-0.0007 J-0.0041
G3 X4.4465 Y0.1703 I0.0061 J0.0144
G3 X4.4489 Y0.1709 I0.0007 J0.0024
G2 X4.4594 Y0.1775 I0.0255 J-0.0287
G2 X4.4768 Y0.1838 I0.0974 J-0.2414
G3 X4.4812 Y0.1855 I-0.0085 J0.0298
G3 X4.4934 Y0.1923 I-0.0151 J0.0414
G3 X4.5028 Y0.2056 I-0.0228 J0.0261
G3 X4.5071 Y0.2294 I-0.055 J0.022
G3 X4.503 Y0.2532 I-0.0709 J0.0001
G3 X4.4852 Y0.2807 I-0.0711 J-0.0264
G3 X4.4602 Y0.3019 I-0.1595 J-0.1629
G3 X4.453 Y0.3038 I-0.0447 J-0.154
G3 X4.4313 Y0.3089 I-0.0809 J-0.2967
G3 X4.3977 Y0.3131 I-0.0618 J-0.3563
G3 X4.3596 Y0.3145 I-0.0353 J-0.4376
G3 X4.2403 Y0.3002 I-0.0017 J-0.4903
G3 X4.1332 Y0.2573 I0.105 J-0.4172
G3 X4.0836 Y0.2244 I0.2315 J-0.4027
G3 X4.0383 Y0.1858 I0.3458 J-0.4515
G3 X3.9563 Y0.0923 I0.4832 J-0.5067
G3 X3.888 Y-0.0163 I0.6695 J-0.4968
G3 X3.8334 Y-0.14 I0.8615 J-0.454
G3 X3.8281 Y-0.1549 I0.3265 J-0.1243
G3 X3.8136 Y-0.1998 I0.7349 J-0.262
G1 X3.8093 Y-0.2147
G1 X3.8032 Y-0.2371
G1 X3.7976 Y-0.2597
G3 X3.7909 Y-0.2896 I0.761 J-0.1848
G3 X3.7853 Y-0.3197 I0.5812 J-0.1251
G3 X3.7792 Y-0.3588 I1.3478 J-0.2277
G3 X3.7746 Y-0.398 I0.444 J-0.0723
G1 X3.7742 Y-0.4066
G2 X3.7721 Y-0.4323 I-0.1853 J0.0025
G2 X3.7656 Y-0.4541 I-0.1075 J0.0199
G2 X3.7558 Y-0.4745 I-0.1748 J0.0714
G2 X3.7387 Y-0.5023 I-0.3203 J0.1777
G2 X3.7293 Y-0.5156 I-0.2005 J0.131
G1 X3.7196 Y-0.5287
G2 X3.6785 Y-0.5767 I-0.3689 J0.2741
G2 X3.6597 Y-0.5939 I-0.2063 J0.2071
G2 X3.6391 Y-0.609 I-0.1351 J0.1627
G2 X3.5974 Y-0.6284 I-0.0874 J0.1331
G2 X3.5537 Y-0.6349 I-0.0451 J0.1539
G2 X3.5274 Y-0.6335 I-0.006 J0.1339
G2 X3.5021 Y-0.6263 I0.014 J0.0978
G2 X3.4711 Y-0.6006 I0.0268 J0.0638
G2 X3.4632 Y-0.5798 I0.0543 J0.0327
G2 X3.4608 Y-0.5577 I0.1267 J0.0247
G2 X3.461 Y-0.5441 I0.1134 J0.0055
G2 X3.4618 Y-0.5307 I0.1654 J-0.0036
G2 X3.4648 Y-0.5034 I0.2918 J-0.0181
G2 X3.4698 Y-0.4759 I0.4096 J-0.0599
G1 X3.7328 Y0.7624
G1 X3.3937 Y0.7165
G1 X3.2844 Y0.2044
G3 X3.2807 Y0.2121 I-0.1204 J-0.0522
G3 X3.2769 Y0.2197 I-0.1048 J-0.0481
G1 X3.2725 Y0.2275
G3 X3.2678 Y0.2351 I-0.2033 J-0.1212
G3 X3.2624 Y0.243 I-0.1119 J-0.0695
G1 X3.2567 Y0.2507
G3 X3.2254 Y0.28 I-0.1081 J-0.0843
G3 X3.1853 Y0.2975 I-0.0727 J-0.1116
G3 X3.1364 Y0.3033 I-0.047 J-0.1856
G3 X3.0843 Y0.2982 I-0.0007 J-0.2621
G3 X3.0346 Y0.2829 I0.0532 J-0.2605
G3 X2.9875 Y0.2574 I0.1326 J-0.3015
G3 X2.9818 Y0.2537 I0.0517 J-0.0859
G3 X2.9429 Y0.2263 I0.4253 J-0.6448
G3 X2.9217 Y0.2105 I0.5746 J-0.7908
G3 X2.9009 Y0.1942 I0.2826 J-0.3829
G1 X2.8811 Y0.1778
G1 X2.8616 Y0.1611
G1 X2.8907 Y0.3033
G1 X2.5604
G1 X2.4984 Y0.0106
G2 X2.4844 Y0.0043 I-0.586 J1.2693
G2 X2.4702 Y-0.0019 I-0.3124 J0.6926
G1 X2.4559 Y-0.0079
G1 X2.441 Y-0.0138
G2 X2.4183 Y-0.0222 I-0.5405 J1.4402
G1 X2.4068 Y-0.026
G1 X2.3953 Y-0.0297
G2 X2.3425 Y-0.0427 I-0.1251 J0.3926
G2 X2.2975 Y-0.0471 I-0.0484 J0.2662
G1 X2.2814 Y-0.0469
G2 X2.275 Y-0.0466 I0.0007 J0.097
G2 X2.2687 Y-0.0461 I0.0015 J0.0608
G1 X2.2595 Y-0.0448
G1 Y-0.0426
G3 X2.258 Y0.0066 I-1.0305 J-0.0053
G3 X2.2564 Y0.0295 I-1.2542 J-0.0798
G3 X2.2538 Y0.0523 I-0.2862 J-0.0214
G1 X2.2504 Y0.0734
G1 X2.2466 Y0.0944
G1 X2.2394 Y0.1213
G1 X2.2335 Y0.1413
G3 X2.2102 Y0.1995 I-0.3146 J-0.0923
G3 X2.1834 Y0.2399 I-0.1986 J-0.1025
G3 X2.1485 Y0.2734 I-0.1561 J-0.1277
G3 X2.1064 Y0.2977 I-0.1407 J-0.195
G1 X2.0953 Y0.3027
G1 X2.0784 Y0.3096
G1 X2.0614 Y0.3162
G1 Y0.3164
G3 X2.0588 Y0.3168 I-0.0057 J-0.0279
G3 X2.0562 Y0.317 I-0.0212 J-0.215
G3 X2.0536 Y0.3171 I-0.0032 J-0.0614
G3 X2.0256 Y0.307 I0.0015 J-0.048
G3 X2.0057 Y0.2806 I0.0408 J-0.0514
G3 X1.9981 Y0.2433 I0.0868 J-0.037
G3 X2.002 Y0.2163 I0.0947 J-0.0003
G3 X2.0125 Y0.1938 I0.0688 J0.0184
G3 X2.0282 Y0.1777 I0.0847 J0.0669
G2 X2.0319 Y0.1753 I-0.0195 J-0.034
G2 X2.0354 Y0.1727 I-0.0203 J-0.0319
G2 X2.0416 Y0.1669 I-0.054 J-0.064
G2 X2.0468 Y0.1603 I-0.0343 J-0.032
G2 X2.058 Y0.136 I-0.0829 J-0.0529
G2 X2.0662 Y0.102 I-0.2402 J-0.076
G1 X2.0678 Y0.0912
G2 X2.0714 Y0.0584 I-1.7313 J-0.2054
G1 X2.0618 Y0.0526
G3 X2.0479 Y0.0432 I0.0892 J-0.1473
G3 X2.0353 Y0.0321 I0.0618 J-0.0824
G3 X2.0137 Y-0.0066 I0.0765 J-0.0682
G3 X2.0081 Y-0.0318 I0.1297 J-0.0417
G3 X2.0065 Y-0.0575 I0.1677 J-0.0238
G3 X2.0126 Y-0.1075 I0.1728 J-0.0043
G3 X2.0196 Y-0.1263 I0.0919 J0.0237
G3 X2.0309 Y-0.1431 I0.0614 J0.029
G3 X2.0453 Y-0.155 I0.0593 J0.0574
G3 X2.0613 Y-0.1644 I0.1189 J0.1834
G2 X2.0588 Y-0.1805 I-0.7968 J0.1173
G2 X2.0566 Y-0.1945 I-0.4464 J0.064
G2 X2.0546 Y-0.2068 I-0.3446 J0.0498
G2 X2.0383 Y-0.2923 I-1.4514 J0.2327
G2 X2.0049 Y-0.4055 I-0.9565 J0.2204
G2 X1.9952 Y-0.4308 I-0.5574 J0.1984
G2 X1.9611 Y-0.5043 I-0.7164 J0.2876
G2 X1.9376 Y-0.5439 I-0.378 J0.198
G1 X1.9311 Y-0.5534
G1 X1.926 Y-0.5603
G1 X1.918 Y-0.5706
G1 X1.9096 Y-0.5805
G2 X1.8833 Y-0.606 I-0.1941 J0.1733
G2 X1.8527 Y-0.6262 I-0.1104 J0.1344
G2 X1.7904 Y-0.6414 I-0.0648 J0.13
G2 X1.7571 Y-0.6372 I-0.002 J0.1192
G2 X1.7305 Y-0.6247 I0.023 J0.0838
G2 X1.7104 Y-0.6039 I0.0432 J0.0618
G2 X1.7019 Y-0.5872 I0.0898 J0.0557
G2 X1.6964 Y-0.5693 I0.1226 J0.0479
G2 X1.6911 Y-0.5425 I0.3615 J0.085
G2 X1.688 Y-0.5154 I0.6114 J0.0842
G1 X1.6866 Y-0.4971
G2 X1.6852 Y-0.4421 I0.8251 J0.0486
G2 X1.686 Y-0.416 I0.4325 J-0.0005
G2 X1.6878 Y-0.39 I0.5412 J-0.0243
G1 X1.6893 Y-0.3747
G2 X1.6956 Y-0.3292 I0.9631 J-0.1103
G2 X1.7019 Y-0.2943 I0.8813 J-0.1397
G1 X1.7087 Y-0.2596
G2 X1.7134 Y-0.2407 I0.7646 J-0.1801
G2 X1.7175 Y-0.2241 I0.4288 J-0.0989
G2 X1.7212 Y-0.2097 I0.33 J-0.0765
G2 X1.7348 Y-0.1593 I1.2114 J-0.3003
G2 X1.7385 Y-0.1468 I0.3011 J-0.0809
G2 X1.7502 Y-0.1095 I1.0444 J-0.3084
G2 X1.8032 Y0.0171 I0.872 J-0.2909
G2 X1.833 Y0.0701 I0.6212 J-0.3134
G2 X1.8677 Y0.12 I0.457 J-0.2809
G2 X1.8751 Y0.1291 I1.1693 J-0.9373
G1 X1.8828 Y0.1381
G2 X1.8902 Y0.1459 I0.1457 J-0.1293
G2 X1.8979 Y0.1534 I0.0731 J-0.0682
G1 X1.9054 Y0.1598
G1 X1.913 Y0.166
G1 X1.9129 Y0.1661
G3 X1.93 Y0.1844 I-0.081 J0.0929
G3 X1.9413 Y0.2087 I-0.0652 J0.0451
G3 X1.9454 Y0.2372 I-0.0947 J0.0281
G3 X1.9361 Y0.2792 I-0.0987 J0.0003
G3 X1.9118 Y0.3091 I-0.0686 J-0.0311
G3 X1.8775 Y0.3204 I-0.0354 J-0.0493
G3 X1.8751 I-0.0006 J-0.0301
G3 X1.8727 Y0.3202 I0.0015 J-0.0418
G1 X1.8704 Y0.32
G1 X1.8703 Y0.3203
G3 X1.8576 Y0.3174 I0.0735 J-0.3464
G3 X1.8465 Y0.3147 I0.0401 J-0.1953
G3 X1.8367 Y0.3124 I0.0314 J-0.1511
G3 X1.8029 Y0.3034 I0.1234 J-0.532
G3 X1.7862 Y0.2982 I0.0708 J-0.2588
G1 X1.7697 Y0.2925
G3 X1.6773 Y0.2444 I0.1522 J-0.4048
G3 X1.6343 Y0.2114 I0.3304 J-0.4765
G3 X1.5934 Y0.1759 I0.9626 J-1.1501
G3 X1.553 Y0.1316 I0.7708 J-0.7429
G1 X1.5433 Y0.1198
G3 X1.5159 Y0.0827 I0.4216 J-0.34
G3 X1.4986 Y0.0562 I0.5811 J-0.3971
G1 X1.482 Y0.0292
G1 X1.7943 Y0.8654
G1 X1.6331
G1 X1.1517 Y-0.5386
G1 X1.1316 Y0.8654
G1 X0.8405
G1 X0.358 Y-0.5386
G1 X0.3379 Y0.8721
G3 X0.3078 Y0.8746 I-0.0703 J-0.6692
G3 X0.2772 Y0.8761 I-0.1199 J-2.1328
G3 X0.2461 Y0.8766 I-0.0397 J-1.4903
G3 X0.0585 Y0.8562 I0.0013 J-0.8847
G3 X-0.1236 Y0.795 I0.1842 J-0.8495
G3 X-0.2135 Y0.7468 I0.4673 J-0.9798
G1 X-0.2354 Y0.7336
G1 X-0.2517 Y0.7236
G1 X-0.276 Y0.7083
G1 X-0.3002 Y0.693
G3 X-0.3093 Y0.6859 I0.3084 J-0.409
G3 X-0.3173 Y0.6798 I0.1714 J-0.2293
G3 X-0.3242 Y0.6743 I0.132 J-0.1763
G3 X-0.3363 Y0.6648 I0.1527 J-0.2053
G3 X-0.3453 Y0.6575 I0.1315 J-0.1718
G3 X-0.3586 Y0.6464 I0.1844 J-0.235
G1 X-0.3717 Y0.635
G3 X-0.4338 Y0.5718 I0.4614 J-0.5154
G3 X-0.4478 Y0.5553 I0.2759 J-0.2479
G3 X-0.4866 Y0.5032 I0.4922 J-0.4073
G3 X-0.5267 Y0.431 I0.3766 J-0.2564
G3 X-0.5508 Y0.3569 I0.3618 J-0.1585
G3 X-0.5588 Y0.2809 I0.3921 J-0.0798
G3 X-0.5571 Y0.2414 I0.3555 J-0.0042
G3 X-0.5519 Y0.2063 I0.3191 J0.0295
G1 X-0.5502 Y0.1985
G3 X-0.5432 Y0.1757 I0.1198 J0.0246
G3 X-0.5414 Y0.1719 I0.0415 J0.0164
G1 X-0.5395 Y0.1682
G2 X-0.5376 Y0.1644 I-0.141 J-0.0744
G1 X-0.5584 Y0.1309
G2 X-0.5791 Y0.1016 I-1.4481 J1.0005
G2 X-0.6016 Y0.0737 I-0.3668 J0.2723
G1 X-0.6067 Y0.0681
G2 X-0.6475 Y0.0349 I-0.136 J0.1252
G2 X-0.6713 Y0.0235 I-0.0888 J0.1557
G1 X-0.6775 Y0.0211
G1 X-0.6961 Y0.0145
G3 X-0.6983 Y0.0327 I-0.3859 J-0.0373
G3 X-0.708 Y0.0961 I-0.7653 J-0.0839
G3 X-0.725 Y0.1579 I-0.4085 J-0.0792
G3 X-0.7513 Y0.2114 I-0.2737 J-0.1015
G3 X-0.7899 Y0.2569 I-0.1789 J-0.1127
G3 X-0.8012 Y0.2659 I-0.0746 J-0.0819
G3 X-0.8446 Y0.2914 I-0.1584 J-0.2202
G1 X-0.8503 Y0.2941
G1 X-0.8705 Y0.303
G1 X-0.8806 Y0.3073
G1 X-0.8908 Y0.3115
G1 X-0.8909 Y0.3117
G3 X-0.8934 Y0.3121 I-0.006 J-0.0309
G3 X-0.896 Y0.3123 I-0.0087 J-0.0798
G3 X-0.8987 Y0.3124 I-0.0035 J-0.0719
G3 X-0.9266 Y0.3023 I0.0015 J-0.0481
G3 X-0.9465 Y0.2759 I0.0406 J-0.0512
G3 X-0.9541 Y0.2386 I0.087 J-0.0371
G3 X-0.9503 Y0.2116 I0.0948 J-0.0003
G3 X-0.9398 Y0.1891 I0.0688 J0.0184
G3 X-0.924 Y0.173 I0.0848 J0.0671
G1 X-0.9241 Y0.1729
G2 X-0.9204 Y0.1706 I-0.0196 J-0.0342
G2 X-0.9169 Y0.168 I-0.0202 J-0.0319
G2 X-0.9106 Y0.1622 I-0.054 J-0.064
G2 X-0.9055 Y0.1555 I-0.0343 J-0.032
G2 X-0.8943 Y0.1313 I-0.0828 J-0.0529
G2 X-0.8861 Y0.0973 I-0.2401 J-0.076
G1 X-0.8844 Y0.0864
G2 X-0.8809 Y0.0537 I-1.9054 J-0.2244
G1 X-0.8904 Y0.0479
G3 X-0.9044 Y0.0385 I0.0878 J-0.1454
G3 X-0.9169 Y0.0274 I0.0615 J-0.0821
G3 X-0.9386 Y-0.0113 I0.0766 J-0.0683
G3 X-0.9441 Y-0.0365 I0.1293 J-0.0417
G3 X-0.9458 Y-0.0622 I0.1678 J-0.0238
G3 X-0.9397 Y-0.1122 I0.1728 J-0.0043
G3 X-0.9326 Y-0.131 I0.0919 J0.0237
G3 X-0.9214 Y-0.1478 I0.0615 J0.029
G3 X-0.907 Y-0.1597 I0.0592 J0.0573
G3 X-0.8909 Y-0.1691 I0.1182 J0.1821
G2 X-0.8935 Y-0.1852 I-0.7891 J0.116
G2 X-0.8957 Y-0.1992 I-0.4448 J0.0637
G2 X-0.8977 Y-0.2115 I-0.3437 J0.0496
G2 X-0.914 Y-0.297 I-1.4444 J0.2314
G2 X-0.9474 Y-0.4102 I-0.9568 J0.2206
G2 X-0.957 Y-0.4355 I-0.5563 J0.198
G2 X-0.9911 Y-0.509 I-0.7171 J0.2879
G2 X-1.0147 Y-0.5486 I-0.378 J0.198
G1 X-1.0212 Y-0.5581
G1 X-1.0263 Y-0.565
G1 X-1.0343 Y-0.5753
G1 X-1.0427 Y-0.5851
G2 X-1.069 Y-0.6107 I-0.1941 J0.1733
G2 X-1.0996 Y-0.6309 I-0.1104 J0.1344
G2 X-1.1618 Y-0.6461 I-0.0648 J0.13
G2 X-1.1951 Y-0.6419 I-0.0019 J0.1194
G2 X-1.2218 Y-0.6294 I0.0228 J0.0833
G2 X-1.2419 Y-0.6086 I0.0436 J0.0621
G2 X-1.2559 Y-0.5739 I0.0967 J0.0592
G1 X-1.2588 Y-0.5606
G2 X-1.2598 Y-0.5556 I0.0523 J0.0123
G2 X-1.2612 Y-0.5467 I0.0907 J0.0192
G2 X-1.2643 Y-0.52 I0.6922 J0.0929
G1 X-1.2657 Y-0.5017
G2 X-1.2671 Y-0.4468 I0.8101 J0.0482
G2 X-1.2663 Y-0.4207 I0.4382 J-0.0006
G2 X-1.2645 Y-0.3947 I0.543 J-0.0244
G1 X-1.2629 Y-0.3794
G2 X-1.2566 Y-0.3338 I0.9534 J-0.109
G2 X-1.2504 Y-0.299 I0.8851 J-0.1405
G1 X-1.2436 Y-0.2643
G2 X-1.2389 Y-0.2454 I0.7663 J-0.1805
G2 X-1.2347 Y-0.2289 I0.4302 J-0.0992
G2 X-1.231 Y-0.2144 I0.3312 J-0.0768
G2 X-1.2174 Y-0.164 I1.2429 J-0.3087
G2 X-1.2138 Y-0.1515 I0.3037 J-0.0816
G2 X-1.202 Y-0.1142 I1.0904 J-0.3228
G2 X-1.149 Y0.0124 I0.8597 J-0.2857
G2 X-1.0846 Y0.1152 I0.5653 J-0.2824
G2 X-1.0772 Y0.1244 I0.7698 J-0.6137
G1 X-1.0695 Y0.1334
G2 X-1.0621 Y0.1412 I0.1454 J-0.1289
G2 X-1.0543 Y0.1487 I0.0724 J-0.0675
G1 X-1.0469 Y0.1551
G1 X-1.0393 Y0.1613
G1 Y0.1615
G3 X-1.0223 Y0.1797 I-0.0809 J0.0928
G3 X-1.011 Y0.204 I-0.0652 J0.0451
G3 X-1.0069 Y0.2325 I-0.0947 J0.0281
G3 X-1.0162 Y0.2745 I-0.0987 J0.0003
G3 X-1.0405 Y0.3044 I-0.0686 J-0.0311
G3 X-1.0748 Y0.3157 I-0.0354 J-0.0493
G3 X-1.0772 I-0.0006 J-0.0298
G3 X-1.0795 Y0.3155 I0.0015 J-0.0417
G1 X-1.0819 Y0.3153
G1 Y0.3156
G3 X-1.0947 Y0.3126 I0.0737 J-0.3471
G3 X-1.1058 Y0.31 I0.0401 J-0.1954
G3 X-1.1155 Y0.3077 I0.0314 J-0.1512
G3 X-1.1493 Y0.2987 I0.1236 J-0.5329
G3 X-1.1661 Y0.2935 I0.0708 J-0.2588
G1 X-1.1826 Y0.2877
G3 X-1.2749 Y0.2396 I0.1524 J-0.4051
G3 X-1.318 Y0.2067 I0.3302 J-0.4764
G3 X-1.3589 Y0.1712 I0.9562 J-1.1432
G3 X-1.3689 Y0.16 I0.3495 J-0.3217
G3 X-1.4035 Y0.1201 I1.065 J-0.9592
G3 X-1.436 Y0.0785 I0.5944 J-0.4982
G3 X-1.5002 Y-0.0323 I0.5461 J-0.3902
G3 X-1.5272 Y-0.0962 I1.0348 J-0.4749
G1 X-1.5395 Y-0.1287
G1 X-1.5514 Y-0.1613
G3 X-1.5562 Y-0.1762 I0.6789 J-0.2235
G3 X-1.5631 Y-0.1987 I0.4919 J-0.1649
G3 X-1.5697 Y-0.2212 I0.6243 J-0.1949
G1 X-1.5737 Y-0.2358
G1 X-1.5792 Y-0.2578
G1 X-1.5843 Y-0.28
G3 X-1.5901 Y-0.3087 I0.5873 J-0.135
G3 X-1.5951 Y-0.3376 I0.6988 J-0.1344
G3 X-1.5974 Y-0.3542 I2.308 J-0.3357
G3 X-1.5985 Y-0.3625 I0.1941 J-0.0297
G3 X-1.5996 Y-0.3708 I0.1394 J-0.0221
G1 X-1.6016 Y-0.3873
G3 X-1.6031 Y-0.4038 I0.2878 J-0.0343
G1 X-1.6035 Y-0.4109
G1 X-1.6042 Y-0.4216
G2 X-1.6055 Y-0.4323 I-0.1933 J0.0196
G2 X-1.6118 Y-0.4527 I-0.0895 J0.0161
G1 X-1.6139 Y-0.4577
G1 X-1.6174 Y-0.4649
G2 X-1.6211 Y-0.4721 I-0.0608 J0.0268
G2 X-1.6552 Y-0.5275 I-0.4416 J0.2337
G2 X-1.6741 Y-0.5529 I-0.3938 J0.2728
G2 X-1.6843 Y-0.5651 I-0.1553 J0.1197
G2 X-1.695 Y-0.5767 I-0.2207 J0.1941
G2 X-1.7345 Y-0.609 I-0.1624 J0.1581
G2 X-1.7761 Y-0.6284 I-0.0911 J0.1411
G2 X-1.8199 Y-0.6349 I-0.0457 J0.158
G2 X-1.8462 Y-0.6335 I-0.0061 J0.1318
G2 X-1.8715 Y-0.6263 I0.014 J0.0977
G2 X-1.9025 Y-0.6006 I0.0269 J0.0638
G2 X-1.9104 Y-0.5798 I0.0542 J0.0327
G2 X-1.9128 Y-0.5577 I0.1269 J0.0247
G2 X-1.9126 Y-0.5441 I0.1134 J0.0055
G2 X-1.9118 Y-0.5307 I0.1653 J-0.0036
G2 X-1.9088 Y-0.5034 I0.2918 J-0.0181
G2 X-1.9038 Y-0.4759 I0.4095 J-0.0599
G1 X-1.6407 Y0.7624
G1 X-1.9799 Y0.7165
G1 X-2.2251 Y-0.4323
G3 X-2.2289 Y-0.4511 I0.6923 J-0.1474
G3 X-2.2321 Y-0.4694 I1.2463 J-0.2296
G3 X-2.2349 Y-0.4873 I2.8964 J-0.4692
G2 X-2.2522 Y-0.5198 I-0.5 J0.2446
G2 X-2.2725 Y-0.5496 I-0.2176 J0.1263
G2 X-2.2962 Y-0.5767 I-0.2358 J0.1821
G2 X-2.3357 Y-0.609 I-0.162 J0.1577
G2 X-2.3773 Y-0.6284 I-0.0921 J0.1432
G2 X-2.421 Y-0.6349 I-0.0455 J0.1567
G2 X-2.4473 Y-0.6335 I-0.0061 J0.1324
G2 X-2.4726 Y-0.6263 I0.014 J0.0977
G2 X-2.5036 Y-0.6006 I0.0269 J0.0638
G2 X-2.5115 Y-0.5798 I0.0543 J0.0327
G2 X-2.5139 Y-0.5577 I0.127 J0.0247
G2 X-2.5137 Y-0.5441 I0.1133 J0.0055
G2 X-2.5129 Y-0.5307 I0.1658 J-0.0036
G2 X-2.5099 Y-0.5034 I0.2899 J-0.0179
G2 X-2.5049 Y-0.4759 I0.4155 J-0.0611
G1 X-2.2419 Y0.7624
G1 X-2.5811 Y0.7165
G1 X-2.8262 Y-0.4323
G3 X-2.8268 Y-0.4354 I0.1501 J-0.0313
G1 X-2.8274 Y-0.4385
G1 X-2.828 Y-0.4416
G2 X-2.8435 Y-0.4583 I-0.5465 J0.4913
G2 X-2.8551 Y-0.4707 I-0.3026 J0.2717
G2 X-2.864 Y-0.48 I-0.2378 J0.217
G2 X-2.8773 Y-0.4938 I-0.3052 J0.2825
G2 X-2.8909 Y-0.5074 I-0.6335 J0.6207
G1 X-2.9057 Y-0.5215
G2 X-2.9517 Y-0.562 I-0.6665 J0.7111
G2 X-3.0102 Y-0.6052 I-0.3684 J0.4377
G2 X-3.075 Y-0.6379 I-0.1968 J0.3098
G2 X-3.1491 Y-0.6575 I-0.1393 J0.3768
G2 X-3.2325 Y-0.664 I-0.0764 J0.4394
G2 X-3.2441 Y-0.6637 I0.0045 J0.3779
G2 X-3.2787 Y-0.6598 I0.0085 J0.2344
G2 X-3.3175 Y-0.6473 I0.0327 J0.1679
G2 X-3.3489 Y-0.6265 I0.047 J0.1047
G2 X-3.3719 Y-0.5926 I0.0785 J0.078
G2 X-3.3768 Y-0.5801 I0.1201 J0.054
G2 X-3.3857 Y-0.5409 I0.2274 J0.0725
G2 X-3.3903 Y-0.4714 I0.4293 J0.0633
G2 X-3.3897 Y-0.4493 I0.5254 J-0.0036
G1 X-3.3878 Y-0.4187
G2 X-3.3864 Y-0.3991 I0.6613 J-0.0371
G2 X-3.3847 Y-0.3796 I0.3837 J-0.0241
G1 X-3.383 Y-0.365
G1 X-3.3811 Y-0.3505
G2 X-3.378 Y-0.3299 I0.5562 J-0.0728
G2 X-3.3745 Y-0.3094 I0.534 J-0.08
G1 X-3.3708 Y-0.2896
G1 X-3.3668 Y-0.2699
G2 X-3.3636 Y-0.2554 I0.6878 J-0.1448
G2 X-3.3608 Y-0.2428 I0.3859 J-0.0795
G2 X-3.3583 Y-0.2317 I0.2956 J-0.0611
G2 X-3.356 Y-0.222 I0.2494 J-0.0523
G2 X-3.3541 Y-0.2136 I0.221 J-0.0473
G2 X-3.3388 Y-0.1548 I1.1752 J-0.273
G2 X-3.3011 Y-0.0467 I1.0228 J-0.2962
G2 X-3.2537 Y0.0542 I0.9154 J-0.3682
G2 X-3.2009 Y0.1356 I0.4963 J-0.2643
G2 X-3.1763 Y0.1631 I0.1989 J-0.1529
G2 X-3.1468 Y0.1851 I0.0928 J-0.0941
G2 X-3.1335 Y0.1911 I0.0467 J-0.0859
G2 X-3.1126 Y0.1976 I0.0776 J-0.2116
G1 X-3.0914 Y0.2026
G2 X-3.0873 Y0.202 I-0.0021 J-0.0294
G2 X-3.0801 Y0.2008 I-0.0162 J-0.1225
G2 X-3.0748 Y0.1997 I-0.0033 J-0.0285
G2 X-3.0597 Y0.1934 I-0.0093 J-0.0435
G2 X-3.048 Y0.181 I-0.0268 J-0.0369
G2 X-3.0407 Y0.1658 I-0.0594 J-0.0382
G2 X-3.0355 Y0.143 I-0.109 J-0.0365
G2 X-3.0346 Y0.1314 I-0.1362 J-0.0167
G1 X-3.0343 Y0.1197
G2 X-3.0437 Y0.0218 I-0.4925 J-0.0022
G2 X-3.0557 Y-0.0242 I-0.4287 J0.0876
G2 X-3.0738 Y-0.0682 I-0.296 J0.0961
G2 X-3.099 Y-0.1099 I-0.3153 J0.1621
G2 X-3.1132 Y-0.1297 I-0.5548 J0.3811
G1 X-3.1278 Y-0.1492
G2 X-3.1354 Y-0.1581 I-0.2343 J0.1948
G2 X-3.1596 Y-0.1836 I-0.2581 J0.2199
G2 X-3.1992 Y-0.2123 I-0.1234 J0.1287
G2 X-3.2122 Y-0.2185 I-0.087 J0.1669
G1 X-3.2323 Y-0.2266
G1 X-3.2423 Y-0.2306
G1 X-3.2523 Y-0.2349
G3 X-3.2784 Y-0.2504 I0.0473 J-0.1096
G3 X-3.2982 Y-0.2736 I0.0449 J-0.0584
G3 X-3.3063 Y-0.2976 I0.0655 J-0.0356
G3 X-3.3067 Y-0.3104 I0.0507 J-0.0078
G3 X-3.3027 Y-0.3227 I0.028 J0.0023
G3 X-3.2922 Y-0.3323 I0.0234 J0.0151
G3 X-3.272 Y-0.3387 I0.0282 J0.0537
G3 X-3.2667 Y-0.3394 I0.0082 J0.0403
G3 X-3.2509 Y-0.3403 I0.0134 J0.1042
G3 X-3.2101 Y-0.3352 I-0.0002 J0.169
G3 X-3.2076 Y-0.3346 I-0.0025 J0.0155
G3 X-3.171 Y-0.3225 I-0.0849 J0.3183
G1 X-3.1613 Y-0.3188
G3 X-3.0954 Y-0.2882 I-0.1756 J0.464
G3 X-3.09 Y-0.285 I-0.0292 J0.0566
G3 X-3.0513 Y-0.2588 I-0.2494 J0.4107
G3 X-3.0153 Y-0.229 I-0.3629 J0.4754
G3 X-2.9912 Y-0.2065 I-0.6952 J0.7677
G3 X-2.9276 Y-0.1311 I-0.3497 J0.3594
G3 X-2.875 Y-0.02 I-0.3455 J0.2317
G3 X-2.8574 Y0.1041 I-0.4033 J0.1203
G3 X-2.8638 Y0.1661 I-0.2961 J0.001
G3 X-2.8828 Y0.2192 I-0.2166 J-0.0475
G3 X-2.9145 Y0.2636 I-0.1537 J-0.0765
G3 X-2.9639 Y0.2969 I-0.1168 J-0.12
G3 X-2.9682 Y0.2987 I-0.02 J-0.04
G3 X-3.0015 Y0.3098 I-0.0988 J-0.241
G3 X-3.0359 Y0.3168 I-0.0803 J-0.3068
G3 X-3.1306 Y0.3235 I-0.0861 J-0.5485
G3 X-3.1948 Y0.3188 I0.0066 J-0.5277
G3 X-3.2575 Y0.3046 I0.0539 J-0.384
G3 X-3.273 Y0.2993 I0.0907 J-0.2916
G1 X-3.2845 Y0.295
G1 X-3.3016 Y0.2881
G1 X-3.3187 Y0.2809
G3 X-3.3327 Y0.2735 I0.1559 J-0.3092
G1 X-3.3571 Y0.2602
G3 X-3.3931 Y0.2392 I0.4948 J-0.8905
G3 X-3.4019 Y0.2337 I0.0657 J-0.1139
G3 X-3.4276 Y0.216 I0.2059 J-0.3275
G3 X-3.4766 Y0.1744 I0.2631 J-0.3593
G3 X-3.5202 Y0.1272 I0.4228 J-0.434
G3 X-3.5963 Y0.0145 I0.5416 J-0.4479
G3 X-3.6081 Y-0.0078 I0.6818 J-0.3743
G3 X-3.6192 Y-0.0301 I0.7552 J-0.3916
G1 X-3.6299 Y-0.0525
G1 X-3.4338 Y0.8721
G1 X-3.764
G1 X-3.9107 Y0.1891
G1 X-4.2476
G1 X-4.101 Y0.8721
G3 X-4.1311 Y0.8746 I-0.0705 J-0.6718
G3 X-4.1617 Y0.8761 I-0.1575 J-2.8999
G3 X-4.1928 Y0.8766 I-0.0338 J-1.128
G3 X-4.2894 Y0.871 I0.0013 J-0.86
G3 X-4.3376 Y0.864 I0.0827 J-0.7379
G3 X-4.3853 Y0.8542 I0.1153 J-0.6827
G3 X-4.4333 Y0.8414 I0.2536 J-1.0501
G3 X-4.4805 Y0.8262 I0.3066 J-1.0309
G3 X-4.6616 Y0.7435 I0.3451 J-0.995
G3 X-4.7387 Y0.6939 I0.4468 J-0.7806
G3 X-4.8094 Y0.6356 I0.3682 J-0.5179
G3 X-4.825 Y0.6202 I0.2836 J-0.3027
G3 X-4.876 Y0.5628 I0.6874 J-0.663
G1 X-4.8882 Y0.5479
G1 X-4.9061 Y0.5253
G1 X-4.9238 Y0.5026
G3 X-4.9292 Y0.4938 I0.2348 J-0.1509
G3 X-4.9339 Y0.4861 I0.1313 J-0.0856
G3 X-4.938 Y0.4794 I0.1014 J-0.0659
G3 X-4.9416 Y0.4734 I0.0868 J-0.0556
G3 X-4.9535 Y0.4524 I0.4388 J-0.2615
G3 X-4.9642 Y0.4307 I0.3777 J-0.2018
G3 X-4.9885 Y0.3568 I0.3151 J-0.1443
G3 X-4.9966 Y0.2809 I0.3781 J-0.0786
G3 X-4.9948 Y0.2414 I0.3732 J-0.0034
G3 X-4.9927 Y0.2238 I0.3088 J0.0283
G3 X-4.9896 Y0.2063 I0.2111 J0.0284
G3 X-4.9859 Y0.1908 I0.2652 J0.0563
G3 X-4.9809 Y0.1757 I0.1452 J0.0391
G3 X-4.936 Y0.1104 I0.1532 J0.0573
G3 X-4.9 Y0.0865 I0.1141 J0.1329
G3 X-4.8595 Y0.0712 I0.1035 J0.2128
G3 X-4.8329 Y0.0653 I0.0726 J0.2655
G3 X-4.7922 Y0.0605 I0.0642 J0.3647
G1 X-4.782 Y0.0597
G3 X-4.7514 Y0.0581 I0.0559 J0.7712
G3 X-4.7519 Y0.0629 I-0.0197 J0.0003
G1 X-4.7525 Y0.0655
G3 X-4.7534 Y0.0681 I-0.0401 J-0.0121
G3 X-4.7559 Y0.0738 I-0.0472 J-0.0171
G1 X-4.7642 Y0.0923
G2 X-4.7714 Y0.1113 I0.2338 J0.0997
G1 X-4.7747 Y0.1227
G2 X-4.7783 Y0.1402 I0.233 J0.0573
G2 X-4.7808 Y0.1579 I0.2962 J0.0501
G2 X-4.7839 Y0.2138 I0.5489 J0.0586
G2 X-4.7745 Y0.3304 I0.6521 J0.0062
G2 X-4.7463 Y0.4342 I0.5326 J-0.0889
G2 X-4.6994 Y0.525 I0.4374 J-0.1686
G2 X-4.6355 Y0.6025 I0.4108 J-0.2736
G2 X-4.617 Y0.62 I0.5427 J-0.5552
G2 X-4.5566 Y0.6663 I0.2999 J-0.3286
G2 X-4.5103 Y0.6928 I0.3139 J-0.4941
G2 X-4.4865 Y0.7048 I0.2459 J-0.4578
G1 X-4.4626 Y0.7165
G1 X-4.7951 Y-0.8431
G1 X-4.4648
G1 X-4.2812 Y0.019
G1 X-3.9443
G1 X-4.1278 Y-0.8431
G1 X-3.7976
G1 X-3.7287 Y-0.5183
G3 X-3.7276 Y-0.5316 I0.3478 J0.0206
G3 X-3.7267 Y-0.5432 I0.1964 J0.0104
G3 X-3.7258 Y-0.5534 I0.1531 J0.0086
G3 X-3.7217 Y-0.5889 I0.5693 J0.0477
G3 X-3.7153 Y-0.6241 I0.3786 J0.0507
G3 X-3.7023 Y-0.6676 I0.3673 J0.0854
G3 X-3.6831 Y-0.7088 I0.2385 J0.0863
G3 X-3.6321 Y-0.772 I0.2214 J0.1263
G3 X-3.5977 Y-0.7982 I0.1644 J0.1806
G3 X-3.5598 Y-0.819 I0.1904 J0.3016
G3 X-3.4729 Y-0.8472 I0.1628 J0.3542
G3 X-3.3713 Y-0.8566 I0.0973 J0.4983
G3 X-3.1788 Y-0.8258 I-0.0003 J0.6184
G3 X-3.0031 Y-0.7333 I-0.1908 J0.5761
G3 X-2.9603 Y-0.6981 I-0.3696 J0.4918
G1 X-2.945 Y-0.684
G3 X-2.8935 Y-0.6327 I-0.723 J0.7756
G1 X-2.881 Y-0.6194
G1 X-2.8625 Y-0.5994
G1 X-2.8441 Y-0.5793
G2 Y-0.5803 I-0.0219 J0.0
G1 Y-0.5813
G1 Y-0.5823
G3 X-2.8363 Y-0.6697 I0.439 J-0.0047
G3 X-2.8273 Y-0.7056 I0.2968 J0.0558
G3 X-2.8128 Y-0.7395 I0.174 J0.0541
G3 X-2.8042 Y-0.7534 I0.1076 J0.0571
G1 X-2.8007 Y-0.7584
G3 X-2.7736 Y-0.7916 I0.4066 J0.3034
G3 X-2.7676 Y-0.7965 I0.1107 J0.1316
G3 X-2.7463 Y-0.8129 I0.3521 J0.4343
G3 X-2.7408 Y-0.8168 I0.0458 J0.0585
G3 X-2.7237 Y-0.8277 I0.1702 J0.2478
G3 X-2.6696 Y-0.8494 I0.1039 J0.1814
G3 X-2.6113 Y-0.8566 I0.0624 J0.2652
G3 X-2.4662 Y-0.8352 I0.0094 J0.4384
G3 X-2.4009 Y-0.8085 I-0.1337 J0.4198
G3 X-2.3411 Y-0.7711 I-0.1687 J0.3367
G3 X-2.2857 Y-0.7205 I-0.2944 J0.3781
G1 X-2.2793 Y-0.7137
G3 X-2.2359 Y-0.6645 I-1.512 J1.3783
G3 X-2.2329 Y-0.6773 I0.2698 J0.056
G3 X-2.2305 Y-0.6869 I0.1643 J0.0351
G3 X-2.2221 Y-0.7152 I0.3166 J0.0786
G3 X-2.201 Y-0.7576 I0.1757 J0.0608
G3 X-2.1874 Y-0.7752 I0.139 J0.0941
G3 X-2.1725 Y-0.7916 I0.342 J0.2942
G3 X-2.1665 Y-0.7965 I0.1109 J0.1319
G3 X-2.1452 Y-0.8129 I0.3723 J0.4606
G3 X-2.1226 Y-0.8277 I0.1213 J0.1602
G3 X-2.0685 Y-0.8494 I0.1027 J0.1784
G3 X-2.0102 Y-0.8566 I0.0622 J0.2639
G3 X-1.8465 Y-0.8289 I0.0103 J0.4363
G3 X-1.7088 Y-0.7458 I-0.1494 J0.4035
G3 X-1.6488 Y-0.6798 I-0.3551 J0.3828
G3 X-1.6223 Y-0.644 I-0.8686 J0.6716
G1 X-1.5968 Y-0.6075
G3 X-1.5924 Y-0.6245 I0.9509 J0.2341
G3 X-1.5875 Y-0.6411 I0.2021 J0.0515
G1 X-1.5847 Y-0.6492
G1 X-1.5817 Y-0.6573
G3 X-1.5519 Y-0.7154 I0.2893 J0.1115
G3 X-1.51 Y-0.7655 I0.2281 J0.148
G3 X-1.4568 Y-0.8041 I0.1858 J0.2005
G3 X-1.3966 Y-0.8305 I0.1612 J0.286
G3 X-1.3199 Y-0.8478 I0.127 J0.3823
G3 X-1.2413 Y-0.8521 I0.0677 J0.5226
G3 X-1.1709 Y-0.8464 I-0.0097 J0.5605
G3 X-1.102 Y-0.8303 I-0.0604 J0.4138
G3 X-0.9781 Y-0.765 I-0.138 J0.412
G3 X-0.9482 Y-0.7407 I-0.3847 J0.505
G3 X-0.9068 Y-0.7004 I-0.4128 J0.4642
G3 X-0.8697 Y-0.6562 I-0.4098 J0.3824
G3 X-0.7832 Y-0.5111 I-0.6004 J0.4561
G3 X-0.7254 Y-0.3372 I-0.7862 J0.358
G3 X-0.7227 Y-0.3247 I-0.2124 J0.052
G3 X-0.714 Y-0.2774 I-1.0292 J0.2135
G1 X-0.7112 Y-0.2596
G1 X-0.7069 Y-0.2284
G1 X-0.704 Y-0.2049
G3 X-0.6961 Y-0.1344 I-3.301 J0.4017
G3 X-0.6868 Y-0.1283 I-0.1315 J0.2112
G3 X-0.6543 Y-0.1062 I-0.3518 J0.5519
G3 X-0.6464 Y-0.1004 I-0.054 J0.082
G3 X-0.6405 Y-0.0959 I-0.0534 J0.0763
G3 X-0.6235 Y-0.0819 I-0.1553 J0.2063
G3 X-0.5884 Y-0.0462 I-0.2482 J0.2794
G3 X-0.5578 Y-0.0065 I-0.3563 J0.3057
G3 X-0.5272 Y0.0419 I-0.6255 J0.4295
G1 X-0.513 Y0.0667
G1 X-0.4991 Y0.0917
G1 X-0.492 Y0.1064
G3 X-0.4863 Y0.1028 I0.0751 J0.111
G3 X-0.4813 Y0.0996 I0.0426 J0.0617
G3 X-0.445 Y0.0796 I0.1524 J0.234
G3 X-0.4159 Y0.0696 I0.0789 J0.1818
G3 X-0.3856 Y0.0635 I0.0793 J0.3159
G3 X-0.3497 Y0.0599 I0.0594 J0.4043
G3 X-0.3317 Y0.0589 I0.0414 J0.5922
G1 X-0.3137 Y0.0581
G1 X-0.3143 Y0.0629
G3 X-0.3162 Y0.0681 I-0.0168 J-0.0031
G3 X-0.3193 Y0.0738 I-0.0365 J-0.0161
G1 X-0.327 Y0.0918
G2 X-0.3336 Y0.1103 I0.2225 J0.0903
G2 X-0.3422 Y0.1569 I0.2403 J0.0683
G2 X-0.345 Y0.2138 I0.5412 J0.0557
G2 X-0.335 Y0.3344 I0.6644 J0.0056
G2 X-0.305 Y0.4412 I0.526 J-0.0905
G2 X-0.2549 Y0.534 I0.4337 J-0.1741
G2 X-0.1869 Y0.6122 I0.4023 J-0.2808
G2 X-0.1031 Y0.6753 I0.3332 J-0.3553
G2 X-0.0541 Y0.7008 I0.3068 J-0.5297
G2 X-0.0289 Y0.7122 I0.286 J-0.5989
G1 X-0.0036 Y0.7232
G1 X0.0334 Y-0.8431
G1 X0.3636
G1 X0.7991 Y0.3235
G1 X0.826 Y-0.8431
G1 X1.1562
G1 X1.3569 Y-0.3058
G1 X1.3548 Y-0.3165
G3 X1.3528 Y-0.3271 I0.5609 J-0.1115
G1 X1.351 Y-0.3376
G3 X1.3432 Y-0.3944 I1.2203 J-0.1959
G3 X1.3386 Y-0.4506 I1.3753 J-0.1424
G3 X1.3373 Y-0.4784 I0.7684 J-0.0481
G3 X1.337 Y-0.5061 I0.6255 J-0.021
G3 X1.3378 Y-0.533 I0.8236 J0.0115
G1 X1.3387 Y-0.5464
G1 X1.34 Y-0.5598
G3 X1.3489 Y-0.6101 I0.3294 J0.0326
G3 X1.3523 Y-0.6221 I0.4326 J0.1136
G1 X1.3579 Y-0.6397
G1 X1.3639 Y-0.6573
G3 X1.3677 Y-0.6645 I0.1502 J0.0745
G3 X1.3712 Y-0.6712 I0.0857 J0.0411
G3 X1.3998 Y-0.7208 I0.5152 J0.2639
G3 X1.4355 Y-0.7655 I0.2285 J0.1459
G3 X1.4885 Y-0.8045 I0.1698 J0.1756
G1 X1.4958 Y-0.8084
G3 X1.5087 Y-0.8147 I0.0753 J0.1371
G3 X1.549 Y-0.8305 I0.1556 J0.3385
G3 X1.6257 Y-0.8478 I0.1339 J0.4143
G3 X1.7042 Y-0.8521 I0.0678 J0.517
G3 X1.7729 Y-0.8466 I-0.0075 J0.5259
G3 X1.84 Y-0.8312 I-0.0638 J0.432
G3 X1.9624 Y-0.7685 I-0.136 J0.4163
G3 X1.9701 Y-0.7629 I-0.0748 J0.1096
G3 X2.0238 Y-0.7166 I-0.3373 J0.4454
G3 X2.0714 Y-0.664 I-0.4349 J0.4419
G3 X2.1596 Y-0.5247 I-0.5759 J0.4621
G3 X2.2197 Y-0.3575 I-0.7613 J0.368
G3 X2.2385 Y-0.2604 I-1.0734 J0.2581
G3 X2.2516 Y-0.1624 I-3.2298 J0.4845
G3 X2.272 Y-0.1585 I-0.1571 J0.8807
G3 X2.3327 Y-0.1457 I-0.2168 J1.1777
G1 X2.3515 Y-0.141
G3 X2.4073 Y-0.124 I-0.2133 J0.7983
G3 X2.4245 Y-0.1177 I-0.1789 J0.5179
G3 X2.4755 Y-0.0973 I-0.4621 J1.2278
G1 X2.3175 Y-0.8431
G1 X2.6477
G1 X2.8313 Y0.0279
G2 X2.8459 Y0.0414 I0.2825 J-0.2911
G2 X2.8608 Y0.0546 I0.2439 J-0.2597
G1 X2.8742 Y0.0657
G1 X2.888 Y0.0764
G2 X2.913 Y0.0934 I0.1485 J-0.1917
G2 X2.9382 Y0.1055 I0.0835 J-0.1412
G2 X2.9658 Y0.1128 I0.0565 J-0.1584
G2 X2.9959 Y0.1152 I0.0266 J-0.1418
G2 X3.0097 Y0.1133 I-0.0007 J-0.0563
G2 X3.02 Y0.1075 I-0.0077 J-0.0257
G2 X3.0267 Y0.0979 I-0.0221 J-0.0224
G2 X3.0312 Y0.0849 I-0.0804 J-0.0354
G2 X3.0333 Y0.0771 I-0.1728 J-0.0506
G2 X3.0351 Y0.0693 I-0.0762 J-0.0218
G1 X3.0368 Y0.0601
G1 X3.0384 Y0.0509
G3 X3.0431 Y0.0312 I0.1329 J0.0215
G1 X3.0449 Y0.0262
G3 X3.0514 Y0.0118 I0.2642 J0.1094
G3 X3.0631 Y-0.0073 I0.0952 J0.045
G3 X3.0812 Y-0.0232 I0.0507 J0.0397
G3 X3.1088 Y-0.0327 I0.0429 J0.0797
G3 X3.1459 Y-0.0359 I0.0328 J0.1655
G3 X3.1811 Y-0.0312 I-0.002 J0.1501
G3 X3.213 Y-0.0175 I-0.0291 J0.1115
G3 X3.2418 Y0.005 I-0.1204 J0.184
G1 X3.1485 Y-0.4323
G3 X3.1458 Y-0.4459 I0.5983 J-0.1237
G3 X3.142 Y-0.4663 I0.4339 J-0.092
G3 X3.1385 Y-0.4867 I0.649 J-0.1203
G1 X3.1367 Y-0.4992
G1 X3.1344 Y-0.5179
G1 X3.1326 Y-0.5367
G3 X3.1311 Y-0.5595 I0.438 J-0.0392
G3 X3.1307 Y-0.5709 I0.1991 J-0.0126
G3 X3.1306 Y-0.5823 I0.1767 J-0.0081
G3 X3.1384 Y-0.6697 I0.4349 J-0.0051
G3 X3.1474 Y-0.7056 I0.3471 J0.0681
G3 X3.1619 Y-0.7395 I0.1786 J0.0562
G3 X3.1802 Y-0.7666 I0.1969 J0.1133
G1 X3.1853 Y-0.773
G1 X3.2011 Y-0.7916
G3 X3.2071 Y-0.7965 I0.1111 J0.1321
G3 X3.2284 Y-0.8129 I0.3781 J0.4681
G3 X3.251 Y-0.8277 I0.1215 J0.1606
G3 X3.3051 Y-0.8494 I0.1026 J0.1781
G3 X3.3634 Y-0.8566 I0.0625 J0.2656
G3 X3.5285 Y-0.8283 I0.0104 J0.4356
G3 X3.6672 Y-0.7436 I-0.1494 J0.4006
G3 X3.7274 Y-0.6763 I-0.3577 J0.3808
G3 X3.754 Y-0.6398 I-0.9514 J0.7218
G1 X3.7796 Y-0.6026
G3 X3.784 Y-0.6226 I1.0178 J0.2142
G3 X3.7892 Y-0.642 I0.2267 J0.0502
G1 X3.7922 Y-0.6514
G1 X3.7954 Y-0.6607
G3 X3.8009 Y-0.6754 I0.1801 J0.0596
G3 X3.8249 Y-0.7248 I0.3524 J0.1406
G3 X3.8571 Y-0.7695 I0.2518 J0.1472
G3 X3.9466 Y-0.8348 I0.1909 J0.1678
G3 X4.0042 Y-0.8516 I0.1013 J0.2398
G3 X4.064 Y-0.8566 I0.0591 J0.3509
G3 X4.189 Y-0.8354 I0.0004 J0.3778
G3 X4.3014 Y-0.772 I-0.1277 J0.3573
G3 X4.3285 Y-0.7477 I-0.3155 J0.3795
G3 X4.3476 Y-0.7282 I-0.8239 J0.8257
G1 X4.3545 Y-0.7207
G1 X4.3664 Y-0.7073
G1 X4.3838 Y-0.6869
G1 X4.401 Y-0.6662
G3 X4.4031 Y-0.6738 I0.172 J0.0433
G3 X4.4205 Y-0.7255 I0.3565 J0.0916
G3 X4.4537 Y-0.7777 I0.2004 J0.0907
G3 X4.4764 Y-0.8012 I0.2173 J0.1867
G1 X4.4884 Y-0.8122
G1 X4.5006 Y-0.823
G3 X4.505 Y-0.8256 I0.0502 J0.08
G3 X4.5362 Y-0.8417 I0.1191 J0.1929
G3 X4.5477 Y-0.8456 I0.0416 J0.1018
G3 X4.5653 Y-0.8499 I0.0456 J0.1484
G3 X4.5832 Y-0.8528 I0.1238 J0.7024
G3 X4.6124 Y-0.8558 I0.0502 J0.3526
G3 X4.627 Y-0.8565 I0.0168 J0.2042
G1 X4.6417 Y-0.8566
G3 X4.7033 Y-0.8499 I-0.001 J0.2944
G3 X4.7596 Y-0.8297 I-0.0561 J0.2458
G3 X4.8107 Y-0.7961 I-0.1057 J0.2166
G3 X4.852 Y-0.7497 I-0.1419 J0.1679
G3 X4.8789 Y-0.6911 I-0.181 J0.1185
G3 X4.8866 Y-0.656 I-0.2537 J0.0736
G3 X4.8913 Y-0.6203 I-0.6518 J0.1057
G2 X4.8667 Y-0.6284 I-0.1597 J0.4445
G2 X4.8421 Y-0.6333 I-0.0416 J0.1461
G2 X4.8298 Y-0.6345 I-0.0297 J0.2444
G1 X4.8175 Y-0.6349
G2 X4.7907 Y-0.633 I-0.0016 J0.1626
G2 X4.7652 Y-0.6247 I0.013 J0.0837
G2 X4.7339 Y-0.5941 I0.0341 J0.0663
G2 X4.726 Y-0.5691 I0.0734 J0.0367
G1 X4.7255 Y-0.5659
G2 X4.7243 Y-0.5545 I0.1046 J0.0174
G1 X4.7238 Y-0.5488
G1 X4.7234 Y-0.5431
G2 X4.7238 Y-0.5321 I0.1635 J-0.0004
G2 X4.7245 Y-0.5212 I0.168 J-0.0056
G2 X4.7279 Y-0.4988 I0.2426 J-0.0249
G2 X4.7305 Y-0.4873 I0.2197 J-0.0445
G1 X4.7335 Y-0.4759
G0 Z90.0
