( Made using CamBam - http://www.cambam.co.uk )
( makerfaire2012 2012-03-14 2:23:34 PM )
( T0 : 0.1 )
G20 G90 G64 G40
G0 Z90.0
( T0 : 0.1 )
T0 M6
( Engrave1 )
G17
M3 S10000
G0 X-7.4547 Y1.0467
G1 F2.5 Z0.0
G1 X-8.1481 Y2.8362
G1 X-7.8917
G1 X-7.4266 Y1.5362
G2 X-7.3326 Y1.2432 I-3.8887 J-1.4092
G2 X-7.2362 Y1.5362 I3.5911 J-1.0197
G1 X-6.7528 Y2.8362
G1 X-6.5111
G1 X-7.2118 Y1.0467
G1 X-7.4547
G0 Z90.0
G0 X-7.5673 Y0.0437
G1 Z0.0
G1 X-7.0167 Y-1.6035
G2 X-6.9056 Y-1.9479 I-16.971 J-5.6646
G2 X-6.7818 Y-1.575 I15.9643 J-5.0918
G1 X-6.2248 Y0.0437
G1 X-5.8106
G1 Y-2.2827
G1 X-6.1074
G1 Y-0.3356
G1 X-6.7834 Y-2.2827
G1 X-7.0611
G1 X-7.734 Y-0.3023
G1 Y-2.2827
G1 X-8.0307
G1 Y0.0437
G1 X-7.5673
G0 Z90.0
G0 X-9.2312
G1 Z0.0
G1 Y3.5379
G1 X10.0681
G1 Y-3.5159
G1 X-9.2312
G1 Y0.0437
G0 Z90.0
G0 X-6.3743 Y1.2446
G1 Z0.0
G2 X-6.4012 Y1.3885 I0.3194 J0.1343
G2 X-6.3585 Y1.5618 I0.3555 J0.0043
G2 X-6.245 Y1.6888 I0.3216 J-0.1733
G2 X-6.0863 Y1.7608 I0.3006 J-0.4516
G2 X-5.891 Y1.7938 I0.3726 J-1.6125
G3 X-5.6933 Y1.8224 I-0.4118 J3.5414
G3 X-5.4991 Y1.8694 I-0.2146 J1.3094
G3 X-5.4979 Y1.9268 I-3.773 J0.109
G3 X-5.5095 Y2.0279 I-0.3958 J0.0058
G3 X-5.5602 Y2.116 I-0.1708 J-0.0395
G3 X-5.6786 Y2.1757 I-0.1824 J-0.2148
G3 X-5.8104 Y2.1905 I-0.1252 J-0.5208
G3 X-5.9293 Y2.1802 I-0.0062 J-0.6225
G3 X-6.0399 Y2.1356 I0.0458 J-0.2727
G3 X-6.1102 Y2.0488 I0.1498 J-0.1931
G3 X-6.1486 Y1.9439 I0.4521 J-0.2249
G1 X-6.3634 Y1.9732
G2 X-6.328 Y2.0898 I0.6521 J-0.1343
G2 X-6.267 Y2.1954 I0.4056 J-0.1641
G2 X-6.1792 Y2.2745 I0.2811 J-0.2236
G2 X-6.0729 Y2.326 I0.2727 J-0.4275
G2 X-5.7787 Y2.3724 I0.2791 J-0.8138
G2 X-5.6421 Y2.3645 I0.0055 J-1.0917
G2 X-5.5089 Y2.3333 I-0.068 J-0.5906
G2 X-5.4263 Y2.2937 I-0.1674 J-0.4555
G2 X-5.3563 Y2.2344 I-0.1407 J-0.2368
G2 X-5.288 Y2.0855 I-0.2682 J-0.2132
G2 X-5.2787 Y1.9844 I-0.7422 J-0.1191
G2 X-5.277 Y1.8829 I-2.6618 J-0.0956
G1 Y1.5899
G3 X-5.2752 Y1.3956 I9.0532 J-0.0132
G3 X-5.2636 Y1.2017 I1.8404 J0.013
G3 X-5.2074 Y1.0467 I0.4926 J0.0907
G1 X-5.4369
G2 X-5.4808 Y1.2066 I0.4221 J0.202
G2 X-5.7164 Y1.0601 I-0.5463 J0.6159
G2 X-5.9581 Y1.0174 I-0.2363 J0.6318
G2 X-6.1319 Y1.0388 I-0.0081 J0.6492
G2 X-6.2865 Y1.1212 I0.096 J0.3666
G2 X-6.3743 Y1.2446 I0.2316 J0.2577
G0 Z90.0
G0 X-4.9364
G1 Z0.0
G1 Y2.3431
G1 X-4.7387
G1 Y2.1588
G2 X-4.5609 Y2.3206 I0.3939 J-0.254
G2 X-4.3261 Y2.3724 I0.2249 J-0.4618
G2 X-4.1112 Y2.3296 I0.0061 J-0.5308
G2 X-4.0297 Y2.285 I-0.1585 J-0.3858
G2 X-3.9635 Y2.2198 I-0.1625 J-0.2313
G2 X-3.8951 Y2.0574 I-0.3491 J-0.2425
G2 X-3.8849 Y1.9509 I-0.7642 J-0.1274
G2 X-3.8829 Y1.8438 I-2.592 J-0.1005
G1 Y1.0467
G1 X-4.1027
G1 Y1.8353
G3 X-4.1072 Y1.9364 I-1.0075 J0.0052
G3 X-4.1283 Y2.0355 I-0.3947 J-0.0322
G3 X-4.2199 Y2.1417 I-0.1936 J-0.0744
G3 X-4.3724 Y2.1819 I-0.1458 J-0.2432
G3 X-4.6154 Y2.0928 I-0.0064 J-0.3583
G3 X-4.6697 Y2.0198 I0.1565 J-0.173
G3 X-4.7075 Y1.8898 I0.4071 J-0.1892
G3 X-4.7167 Y1.7547 I0.9036 J-0.1289
G1 Y1.0467
G1 X-4.9364
G1 Y1.2446
G0 Z90.0
G0 X-3.5964 Y1.498
G1 Z0.0
G2 X-3.6132 Y1.69 I0.9497 J0.1796
G2 X-3.5975 Y1.8773 I1.0687 J0.005
G2 X-3.5436 Y2.0574 I0.774 J-0.1337
G2 X-3.3324 Y2.293 I0.4454 J-0.1868
G2 X-3.0223 Y2.3724 I0.3056 J-0.5487
G2 X-2.8403 Y2.3485 I0.0067 J-0.6549
G2 X-2.6769 Y2.265 I-0.1263 J-0.4487
G2 X-2.563 Y2.1294 I-0.2731 J-0.3453
G2 X-2.5048 Y1.9622 I-0.505 J-0.2695
G1 X-2.7184 Y1.9293
G3 X-2.7568 Y2.0363 I-0.4445 J-0.0992
G3 X-2.827 Y2.1258 I-0.261 J-0.1324
G3 X-3.0138 Y2.1917 I-0.1797 J-0.2115
G3 X-3.1623 Y2.1626 I-0.005 J-0.3687
G3 X-3.2836 Y2.0721 I0.1371 J-0.31
G3 X-3.3679 Y1.893 I0.3136 J-0.257
G3 X-3.3873 Y1.6961 I0.8798 J-0.1863
G3 X-3.3688 Y1.498 I0.9557 J-0.0108
G3 X-3.3391 Y1.4022 I0.5116 J0.1065
G3 X-3.2872 Y1.3165 I0.3128 J0.1305
G3 X-3.026 Y1.1981 I0.2514 J0.2073
G3 X-2.9103 Y1.2168 I0.0036 J0.3442
G3 X-2.8099 Y1.2774 I-0.0977 J0.2752
G3 X-2.734 Y1.39 I-0.213 J0.2255
G3 X-2.7001 Y1.5215 I-0.5103 J0.2018
G1 X-2.484 Y1.4935
G2 X-2.5433 Y1.3019 I-0.6507 J0.0963
G2 X-2.6659 Y1.1431 I-0.4555 J0.2252
G2 X-2.8331 Y1.0471 I-0.327 J0.3756
G2 X-3.0236 Y1.0174 I-0.1848 J0.5602
G2 X-3.2565 Y1.0579 I-0.0086 J0.6412
G2 X-3.452 Y1.1907 I0.19 J0.4899
G2 X-3.5797 Y1.4252 I0.4251 J0.3834
G2 X-3.5964 Y1.498 I0.9329 J0.2525
G0 Z90.0
G0 X-2.3745 Y1.6019
G1 Z0.0
G2 X-2.3778 Y1.6949 I0.9459 J0.0804
G2 X-2.3365 Y1.9837 I0.9252 J0.0148
G2 X-2.1776 Y2.2283 I0.5161 J-0.1612
G2 X-1.9871 Y2.3381 I0.3777 J-0.4353
G2 X-1.7699 Y2.3724 I0.211 J-0.6316
G2 X-1.5328 Y2.3307 I0.0081 J-0.6499
G2 X-1.3329 Y2.1966 I-0.2023 J-0.5175
G2 X-1.2 Y1.9718 I-0.4069 J-0.3922
G2 X-1.1632 Y1.7132 I-0.811 J-0.2474
G2 X-1.1782 Y1.5117 I-1.2445 J-0.0089
G2 X-1.2389 Y1.3189 I-0.6354 J0.0942
G2 X-1.4574 Y1.0967 I-0.4687 J0.2424
G2 X-1.7699 Y1.0174 I-0.3069 J0.5535
G2 X-2.0087 Y1.0581 I-0.0086 J0.6697
G2 X-2.2106 Y1.192 I0.1943 J0.5124
G2 X-2.343 Y1.4272 I0.4129 J0.3873
G2 X-2.3745 Y1.6019 I0.9144 J0.2551
G0 Z90.0
G0 X-0.9105
G1 Z0.0
G1 Y2.3431
G1 X-0.6908
G1 Y1.6241
G3 X-0.6888 Y1.5078 I2.9572 J-0.0071
G3 X-0.6774 Y1.3921 I0.7594 J0.0166
G3 X-0.5895 Y1.2554 I0.2267 J0.0491
G3 X-0.4235 Y1.2066 I0.1569 J0.2269
G3 X-0.2379 Y1.2567 I0.0011 J0.365
G3 X-0.1158 Y1.3946 I-0.1386 J0.2457
G3 X-0.086 Y1.5199 I-0.4505 J0.1734
G3 X-0.0792 Y1.6485 I-1.0935 J0.1223
G1 Y2.3431
G1 X0.1405
G1 Y1.0467
G1 X-0.056
G1 Y1.2371
G2 X-0.2329 Y1.0732 I-0.4258 J0.2821
G2 X-0.4674 Y1.0174 I-0.2265 J0.4308
G2 X-0.6823 Y1.0613 I-0.0038 J0.5286
G2 X-0.7632 Y1.1068 I0.1841 J0.4224
G2 X-0.83 Y1.1712 I0.1709 J0.2441
G2 X-0.8971 Y1.3348 I0.3528 J0.2404
G2 X-0.9082 Y1.437 I0.7097 J0.1291
G2 X-0.9105 Y1.5399 I2.0781 J0.0975
G1 Y1.6019
G0 Z90.0
G0 X0.4384 Y2.1151
G1 Z0.0
G1 X0.3517 Y2.3431
G1 X0.5836
G1 X0.8619 Y1.5667
G2 X0.9449 Y1.3055 I-3.5633 J-1.2761
G2 X1.0267 Y1.5521 I3.6467 J-1.0727
G1 X1.3148 Y2.3431
G1 X1.5406
G1 X1.0499 Y1.0467
G1 X0.8448
G1 X0.4384 Y2.1151
G0 Z90.0
G0 X1.6786 Y1.8757
G1 Z0.0
G2 X1.6972 Y1.9539 I0.931 J-0.1797
G2 X1.83 Y2.1917 I0.5682 J-0.1613
G2 X2.0289 Y2.3294 I0.4044 J-0.3716
G2 X2.267 Y2.3724 I0.2299 J-0.5929
G2 X2.4986 Y2.33 I0.0078 J-0.6119
G2 X2.6918 Y2.1954 I-0.2041 J-0.4987
G2 X2.8217 Y1.9621 I-0.4271 J-0.3908
G2 X2.8566 Y1.6973 I-0.898 J-0.2528
G2 X2.8553 Y1.6387 I-2.1931 J0.0164
G1 X1.8885
G3 X1.9198 Y1.4644 I0.6709 J0.0304
G3 X2.0094 Y1.3116 I0.3838 J0.1223
G3 X2.2804 Y1.1981 I0.2624 J0.2461
G3 X2.4867 Y1.2615 I0.0093 J0.3369
G3 X2.5692 Y1.353 I-0.2042 J0.2671
G3 X2.6222 Y1.4642 I-0.4834 J0.2987
G1 X2.8492 Y1.4361
G2 X2.776 Y1.2647 I-0.6085 J0.1586
G2 X2.6503 Y1.1273 I-0.4347 J0.2714
G2 X2.4738 Y1.0417 I-0.3094 J0.4135
G2 X2.2792 Y1.0174 I-0.1876 J0.7106
G2 X2.0349 Y1.057 I-0.0098 J0.7134
G2 X1.8275 Y1.192 I0.1818 J0.5062
G2 X1.6969 Y1.4219 I0.4192 J0.3902
G2 X1.6615 Y1.6839 I0.8658 J0.2504
G2 X1.6786 Y1.8757 I0.9481 J0.0122
G0 Z90.0
G0 X3.1227
G1 Z0.0
G1 Y2.3431
G1 X3.3204
G1 Y2.1465
G2 X3.3809 Y2.2445 I0.8805 J-0.4759
G2 X3.4596 Y2.3284 I0.2942 J-0.1969
G2 X3.6012 Y2.3724 I0.1406 J-0.2029
G2 X3.827 Y2.3016 I-0.011 J-0.4307
G1 X3.7513 Y2.0977
G3 X3.5902 Y2.1453 I-0.1667 J-0.2677
G3 X3.4608 Y2.1014 I-0.0017 J-0.2074
G3 X3.379 Y1.9817 I0.1409 J-0.1841
G3 X3.3424 Y1.7254 I0.821 J-0.2481
G1 Y1.0467
G1 X3.1227
G1 Y1.8757
G0 Z90.0
G0 X4.7031
G1 Z0.0
G1 Y2.8362
G1 X5.0595
G1 X5.4831 Y1.5692
G2 X5.5686 Y1.3043 I-13.0546 J-4.3574
G2 X5.6638 Y1.5911 I12.2802 J-3.9168
G1 X6.0922 Y2.8362
G1 X6.4109
G1 Y1.0467
G1 X6.1826
G1 Y2.5445
G1 X5.6626 Y1.0467
G1 X5.4489
G1 X4.9314 Y2.5701
G1 Y1.0467
G1 X4.7031
G1 Y1.8757
G0 Z90.0
G0 X6.7661
G1 Z0.0
G1 Y2.3431
G1 X6.9858
G1 Y1.0467
G1 X6.7661
G1 Y1.8757
G0 Z90.0
G0 X7.3203
G1 Z0.0
G1 Y2.3431
G1 X7.518
G1 Y2.1588
G2 X7.6958 Y2.3206 I0.3939 J-0.254
G2 X7.9306 Y2.3724 I0.2249 J-0.4618
G2 X8.1455 Y2.3296 I0.0061 J-0.5308
G2 X8.227 Y2.285 I-0.1585 J-0.3858
G2 X8.2932 Y2.2198 I-0.1625 J-0.2313
G2 X8.3615 Y2.0574 I-0.3491 J-0.2425
G2 X8.3718 Y1.9509 I-0.7642 J-0.1274
G2 X8.3737 Y1.8438 I-2.592 J-0.1005
G1 Y1.0467
G1 X8.154
G1 Y1.8353
G3 X8.1495 Y1.9364 I-1.0075 J0.0052
G3 X8.1284 Y2.0355 I-0.3947 J-0.0322
G3 X8.0368 Y2.1417 I-0.1936 J-0.0744
G3 X7.8842 Y2.1819 I-0.1458 J-0.2432
G3 X7.6413 Y2.0928 I-0.0064 J-0.3583
G3 X7.587 Y2.0198 I0.1565 J-0.173
G3 X7.5491 Y1.8898 I0.4071 J-0.1892
G3 X7.54 Y1.7547 I0.9036 J-0.1289
G1 Y1.0467
G1 X7.3203
G1 Y1.8757
G0 Z90.0
G0 X6.9858 Y2.5836
G1 Z0.0
G1 X6.7661
G1 Y2.8362
G1 X6.9858
G1 Y2.5836
G0 Z90.0
G0 X8.7119
G1 Z0.0
G1 Y2.8362
G1 X8.9316
G1 Y2.5836
G1 X8.7119
G0 Z90.0
G0 Y2.3431
G1 Z0.0
G1 X8.9316
G1 Y1.0467
G1 X8.7119
G1 Y2.3431
G0 Z90.0
G0 X8.3194 Y-0.5664
G1 Z0.0
G2 X8.504 Y-0.6144 I-0.1064 J-0.7884
G2 X8.7551 Y-0.7894 I-0.2653 J-0.6483
G2 X8.9241 Y-1.0927 I-0.5552 J-0.508
G2 X8.9694 Y-1.4369 I-1.1674 J-0.3287
G2 X8.9678 Y-1.5131 I-2.8511 J0.0213
G1 X7.711
G3 X7.7516 Y-1.7397 I0.8721 J0.0396
G3 X7.8681 Y-1.9384 I0.499 J0.159
G3 X8.2204 Y-2.0859 I0.3411 J0.32
G3 X8.4885 Y-2.0034 I0.012 J0.4379
G3 X8.5958 Y-1.8845 I-0.2655 J0.3473
G3 X8.6647 Y-1.74 I-0.6284 J0.3883
G1 X8.9599 Y-1.7765
G2 X8.8647 Y-1.9993 I-0.791 J0.2062
G2 X8.7012 Y-2.178 I-0.5651 J0.3528
G2 X8.4718 Y-2.2892 I-0.4023 J0.5376
G2 X8.2188 Y-2.3208 I-0.2438 J0.9238
G2 X7.9012 Y-2.2694 I-0.0127 J0.9275
G2 X7.6316 Y-2.0939 I0.2364 J0.658
G2 X7.4618 Y-1.795 I0.5449 J0.5073
G2 X7.4158 Y-1.4544 I1.1255 J0.3255
G2 X7.4621 Y-1.1033 I1.2325 J0.0158
G2 X7.6348 Y-0.7942 I0.7386 J-0.2097
G2 X7.8934 Y-0.6152 I0.5257 J-0.4831
G2 X8.2029 Y-0.5593 I0.2988 J-0.7708
G2 X8.3194 Y-0.5664 I0.0101 J-0.7954
G0 Z90.0
G0 X7.3412 Y-0.6514
G1 Z0.0
G1 X7.2428 Y-0.9164
G3 X7.0333 Y-0.8545 I-0.2167 J-0.348
G3 X6.8651 Y-0.9116 I-0.0023 J-0.2696
G3 X6.7588 Y-1.0671 I0.1832 J-0.2394
G3 X6.7112 Y-1.4004 I1.0672 J-0.3225
G1 Y-2.2827
G1 X6.4256
G1 Y-0.5974
G1 X6.6826
G1 Y-0.8529
G2 X6.7612 Y-0.7256 I1.1447 J-0.6187
G2 X6.8635 Y-0.6165 I0.3824 J-0.256
G2 X7.0476 Y-0.5593 I0.1827 J-0.2637
G2 X7.3412 Y-0.6514 I-0.0143 J-0.5599
G0 Z90.0
G0 X5.9939
G1 Z0.0
G1 Y-2.2827
G1 X5.7083
G1 Y-0.5974
G1 X5.9939
G1 Y-0.6514
G0 Z90.0
G0 Y-0.2848
G1 Z0.0
G1 X5.7083
G1 Y0.0437
G1 X5.9939
G1 Y-0.2848
G0 Z90.0
G0 X5.1909 Y-0.7815
G1 Z0.0
G2 X5.2497 Y-0.9323 I-0.3788 J-0.2343
G2 X5.2617 Y-1.0637 I-0.9649 J-0.1548
G2 X5.2639 Y-1.1957 I-3.4604 J-0.1243
G1 Y-1.5765
G3 X5.2663 Y-1.8291 I11.7691 J-0.0172
G3 X5.2814 Y-2.0812 I2.3925 J0.017
G3 X5.3544 Y-2.2827 I0.6404 J0.118
G1 X5.056
G2 X4.9989 Y-2.0748 I0.5488 J0.2626
G2 X4.6926 Y-2.2653 I-0.7101 J0.8006
G2 X4.3784 Y-2.3208 I-0.3072 J0.8214
G2 X4.1525 Y-2.2929 I-0.0105 J0.844
G2 X3.9516 Y-2.1859 I0.1248 J0.4765
G2 X3.8024 Y-1.8384 I0.3011 J0.335
G2 X3.8579 Y-1.613 I0.4621 J0.0056
G2 X4.0055 Y-1.448 I0.4181 J-0.2253
G2 X4.2118 Y-1.3544 I0.3908 J-0.587
G2 X4.4657 Y-1.3115 I0.4843 J-2.0963
G3 X4.7227 Y-1.2743 I-0.5353 J4.6038
G3 X4.9751 Y-1.2131 I-0.279 J1.7022
G3 X4.9767 Y-1.1386 I-4.905 J0.1417
G3 X4.9617 Y-1.0072 I-0.5145 J0.0076
G3 X4.8958 Y-0.8926 I-0.222 J-0.0514
G3 X4.7418 Y-0.815 I-0.2372 J-0.2793
G3 X4.5705 Y-0.7958 I-0.1628 J-0.6771
G3 X4.4159 Y-0.8091 I-0.0081 J-0.8092
G3 X4.2721 Y-0.8672 I0.0596 J-0.3545
G3 X4.1808 Y-0.98 I0.1947 J-0.2511
G3 X4.1309 Y-1.1163 I0.5877 J-0.2923
G1 X3.8516 Y-1.0783
G2 X3.8976 Y-0.9266 I0.8477 J-0.1746
G2 X3.9769 Y-0.7894 I0.5273 J-0.2134
G2 X4.091 Y-0.6866 I0.3655 J-0.2906
G2 X4.2293 Y-0.6196 I0.3545 J-0.5558
G2 X4.6117 Y-0.5593 I0.3628 J-1.058
G2 X4.7893 Y-0.5696 I0.0072 J-1.4192
G2 X4.9624 Y-0.6101 I-0.0884 J-0.7677
G2 X5.0699 Y-0.6616 I-0.2176 J-0.5921
G2 X5.1608 Y-0.7387 I-0.1829 J-0.3079
G2 X5.1909 Y-0.7815 I-0.3486 J-0.2772
G0 Z90.0
G0 X3.5358 Y-0.2308
G1 Z0.0
G1 X2.2742
G1 Y-0.9513
G1 X3.366
G1 Y-1.2258
G1 X2.2742
G1 Y-2.2827
G1 X1.9663
G1 Y0.0437
G1 X3.5358
G1 Y-0.2308
G0 Z90.0
G0 X0.8021 Y-0.6514
G1 Z0.0
G1 X0.7037 Y-0.9164
G3 X0.4942 Y-0.8545 I-0.2167 J-0.348
G3 X0.326 Y-0.9116 I-0.0023 J-0.2696
G3 X0.2197 Y-1.0671 I0.1832 J-0.2394
G3 X0.172 Y-1.4004 I1.0672 J-0.3225
G1 Y-2.2827
G1 X-0.1136
G1 Y-0.5974
G1 X0.1435
G1 Y-0.8529
G2 X0.2221 Y-0.7256 I1.1447 J-0.6187
G2 X0.3244 Y-0.6165 I0.3824 J-0.256
G2 X0.5085 Y-0.5593 I0.1827 J-0.2637
G2 X0.8021 Y-0.6514 I-0.0143 J-0.5599
G0 Z90.0
G0 X-0.5119 Y-1.0693
G1 Z0.0
G2 X-0.5048 Y-1.0927 I-0.7171 J-0.2281
G2 X-0.4595 Y-1.4369 I-1.1674 J-0.3287
G2 X-0.4611 Y-1.5131 I-2.8511 J0.0213
G1 X-1.718
G3 X-1.6773 Y-1.7397 I0.8721 J0.0396
G3 X-1.5609 Y-1.9384 I0.499 J0.159
G3 X-1.2086 Y-2.0859 I0.3411 J0.32
G3 X-0.9404 Y-2.0034 I0.012 J0.4379
G3 X-0.8331 Y-1.8845 I-0.2655 J0.3473
G3 X-0.7642 Y-1.74 I-0.6284 J0.3883
G1 X-0.4691 Y-1.7765
G2 X-0.5642 Y-1.9993 I-0.791 J0.2062
G2 X-0.7277 Y-2.178 I-0.5651 J0.3528
G2 X-0.9572 Y-2.2892 I-0.4023 J0.5376
G2 X-1.2102 Y-2.3208 I-0.2438 J0.9238
G2 X-1.5277 Y-2.2694 I-0.0127 J0.9275
G2 X-1.7973 Y-2.0939 I0.2364 J0.658
G2 X-1.9671 Y-1.795 I0.5449 J0.5073
G2 X-2.0131 Y-1.4544 I1.1255 J0.3255
G2 X-1.9668 Y-1.1033 I1.2325 J0.0158
G2 X-1.7941 Y-0.7942 I0.7386 J-0.2097
G2 X-1.5355 Y-0.6152 I0.5257 J-0.4831
G2 X-1.226 Y-0.5593 I0.2988 J-0.7708
G2 X-0.9249 Y-0.6144 I0.0101 J-0.7954
G2 X-0.6738 Y-0.7894 I-0.2653 J-0.6483
G2 X-0.5119 Y-1.0693 I-0.5552 J-0.508
G0 Z90.0
G0 X-2.2099 Y-0.5974
G1 Z0.0
G1 X-2.8542 Y-1.2227
G1 X-2.1448 Y-2.2827
G1 X-2.4971
G1 X-3.0541 Y-1.421
G1 X-3.2557 Y-1.6146
G1 Y-2.2827
G1 X-3.5413
G1 Y0.0437
G1 X-3.2557
G1 Y-1.283
G1 X-2.5797 Y-0.5974
G1 X-2.2099
G0 Z90.0
G0 X-4.0 Y-0.9323
G1 Z0.0
G2 X-3.9879 Y-1.0637 I-0.9649 J-0.1548
G2 X-3.9857 Y-1.1957 I-3.4604 J-0.1243
G1 Y-1.5765
G3 X-3.9833 Y-1.8291 I11.7691 J-0.0172
G3 X-3.9682 Y-2.0812 I2.3925 J0.017
G3 X-3.8952 Y-2.2827 I0.6404 J0.118
G1 X-4.1936
G2 X-4.2507 Y-2.0748 I0.5488 J0.2626
G2 X-4.557 Y-2.2653 I-0.7101 J0.8006
G2 X-4.8712 Y-2.3208 I-0.3072 J0.8214
G2 X-5.0971 Y-2.2929 I-0.0105 J0.844
G2 X-5.298 Y-2.1859 I0.1248 J0.4765
G2 X-5.4472 Y-1.8384 I0.3011 J0.335
G2 X-5.3917 Y-1.613 I0.4621 J0.0056
G2 X-5.2441 Y-1.448 I0.4181 J-0.2253
G2 X-5.0378 Y-1.3544 I0.3908 J-0.587
G2 X-4.7839 Y-1.3115 I0.4843 J-2.0963
G3 X-4.5269 Y-1.2743 I-0.5353 J4.6038
G3 X-4.2745 Y-1.2131 I-0.279 J1.7022
G3 X-4.2729 Y-1.1386 I-4.905 J0.1417
G3 X-4.2879 Y-1.0072 I-0.5145 J0.0076
G3 X-4.3538 Y-0.8926 I-0.222 J-0.0514
G3 X-4.5078 Y-0.815 I-0.2372 J-0.2793
G3 X-4.6791 Y-0.7958 I-0.1628 J-0.6771
G3 X-4.8337 Y-0.8091 I-0.0081 J-0.8092
G3 X-4.9775 Y-0.8672 I0.0596 J-0.3545
G3 X-5.0688 Y-0.98 I0.1947 J-0.2511
G3 X-5.1187 Y-1.1163 I0.5877 J-0.2923
G1 X-5.398 Y-1.0783
G2 X-5.352 Y-0.9266 I0.8477 J-0.1746
G2 X-5.2727 Y-0.7894 I0.5273 J-0.2134
G2 X-5.1586 Y-0.6866 I0.3655 J-0.2906
G2 X-5.0203 Y-0.6196 I0.3545 J-0.5558
G2 X-4.6379 Y-0.5593 I0.3628 J-1.058
G2 X-4.4603 Y-0.5696 I0.0072 J-1.4192
G2 X-4.2872 Y-0.6101 I-0.0884 J-0.7677
G2 X-4.1797 Y-0.6616 I-0.2176 J-0.5921
G2 X-4.0888 Y-0.7387 I-0.1829 J-0.3079
G2 X-4.0 Y-0.9323 I-0.3486 J-0.2772
G0 Z90.0
G0 Y-4.0238
G1 Z0.0
G1 X-9.9084
G1 Y4.1022
G1 X10.6888
G1 Y-4.0238
G1 X-4.0
G0 Z90.0
G0 X-4.6138 Y-2.0698
G1 Z0.0
G3 X-4.5094 Y-2.0256 I-0.1784 J0.568
G3 X-4.3205 Y-1.8273 I-0.2155 J0.3942
G3 X-4.283 Y-1.6868 I-0.4416 J0.1933
G3 X-4.2745 Y-1.5416 I-1.1153 J0.138
G1 Y-1.4369
G2 X-4.5048 Y-1.5036 I-0.511 J1.3332
G2 X-4.741 Y-1.5448 I-0.7212 J3.4378
G3 X-4.8672 Y-1.5665 I0.2929 J-2.0815
G3 X-4.9902 Y-1.6019 I0.127 J-0.672
G3 X-5.1029 Y-1.6956 I0.0943 J-0.2281
G3 X-5.1425 Y-1.8305 I0.2004 J-0.1322
G3 X-5.0568 Y-2.0209 I0.2442 J-0.0046
G3 X-4.9367 Y-2.0817 I0.1886 J0.2237
G3 X-4.8029 Y-2.0971 I0.1273 J0.5176
G3 X-4.6138 Y-2.0698 I0.0107 J0.5953
G0 Z90.0
G0 X-1.7021 Y-1.2782
G1 Z0.0
G1 X-0.7611
G3 X-0.7916 Y-1.1108 I-0.8442 J-0.0675
G3 X-0.869 Y-0.9592 I-0.4116 J-0.1146
G3 X-1.2229 Y-0.7942 I-0.3426 J-0.2726
G3 X-1.5545 Y-0.9259 I-0.0107 J-0.4565
G3 X-1.6615 Y-1.0882 I0.3303 J-0.3341
G3 X-1.7021 Y-1.2782 I0.5792 J-0.2232
G0 Z90.0
G0 X-1.7561 Y1.1981
G1 Z0.0
G3 X-1.4977 Y1.3226 I-0.0076 J0.3462
G3 X-1.4101 Y1.5029 I-0.3245 J0.2691
G3 X-1.389 Y1.7022 I-0.8358 J0.1891
G3 X-1.4111 Y1.894 I-0.7644 J0.0094
G3 X-1.4989 Y2.066 I-0.3995 J-0.0957
G3 X-1.7699 Y2.1905 I-0.2654 J-0.2204
G3 X-2.0433 Y2.0672 I-0.0072 J-0.3489
G3 X-2.1307 Y1.8907 I0.3173 J-0.2669
G3 X-2.152 Y1.6949 I0.7985 J-0.1858
G3 X-2.1306 Y1.4985 I0.8222 J-0.0099
G3 X-2.0433 Y1.3213 I0.4097 J0.0917
G3 X-1.7699 Y1.1981 I0.2662 J0.2256
G3 X-1.7561 I0.0062 J0.3462
G0 Z90.0
G0 X1.9008 Y1.8194
G1 Z0.0
G1 X2.6246
G3 X2.6011 Y1.9482 I-0.6494 J-0.0519
G3 X2.5416 Y2.0648 I-0.3166 J-0.0882
G3 X2.2694 Y2.1917 I-0.2635 J-0.2097
G3 X2.0143 Y2.0904 I-0.0082 J-0.3511
G3 X1.932 Y1.9656 I0.254 J-0.257
G3 X1.9008 Y1.8194 I0.4456 J-0.1717
G0 Z90.0
G0 X4.216 Y-1.6252
G1 Z0.0
G3 X4.1467 Y-1.6956 I0.1377 J-0.2049
G3 X4.1071 Y-1.8305 I0.2004 J-0.1322
G3 X4.1928 Y-2.0209 I0.2442 J-0.0046
G3 X4.3129 Y-2.0817 I0.1886 J0.2237
G3 X4.4467 Y-2.0971 I0.1273 J0.5176
G3 X4.7403 Y-2.0256 I0.0107 J0.5953
G3 X4.9291 Y-1.8273 I-0.2155 J0.3942
G3 X4.9666 Y-1.6868 I-0.4416 J0.1933
G3 X4.9751 Y-1.5416 I-1.1153 J0.138
G1 Y-1.4369
G2 X4.7448 Y-1.5036 I-0.511 J1.3332
G2 X4.5086 Y-1.5448 I-0.7212 J3.4378
G3 X4.3824 Y-1.5665 I0.2929 J-2.0815
G3 X4.2594 Y-1.6019 I0.127 J-0.672
G3 X4.216 Y-1.6252 I0.0943 J-0.2281
G0 Z90.0
G0 X7.7268 Y-1.2782
G1 Z0.0
G1 X8.6679
G3 X8.6373 Y-1.1108 I-0.8442 J-0.0675
G3 X8.56 Y-0.9592 I-0.4116 J-0.1146
G3 X8.2061 Y-0.7942 I-0.3426 J-0.2726
G3 X7.8744 Y-0.9259 I-0.0107 J-0.4565
G3 X7.7675 Y-1.0882 I0.3303 J-0.3341
G3 X7.7268 Y-1.2782 I0.5792 J-0.2232
G0 Z90.0
G0 X-5.5112 Y1.4703
G1 Z0.0
G3 X-5.5057 Y1.5051 I-0.3631 J0.0754
G3 X-5.4991 Y1.6168 I-0.8579 J0.1061
G1 Y1.6973
G2 X-5.6763 Y1.646 I-0.3931 J1.0256
G2 X-5.858 Y1.6143 I-0.5548 J2.6445
G3 X-5.9551 Y1.5976 I0.2253 J-1.6012
G3 X-6.0497 Y1.5704 I0.0977 J-0.5169
G3 X-6.1364 Y1.4984 I0.0726 J-0.1755
G3 X-6.1669 Y1.3946 I0.1542 J-0.1017
G3 X-6.101 Y1.2481 I0.1878 J-0.0035
G3 X-6.0085 Y1.2014 I0.1451 J0.1721
G3 X-5.9056 Y1.1895 I0.0979 J0.3982
G3 X-5.6798 Y1.2444 I0.0082 J0.4579
G3 X-5.5346 Y1.397 I-0.1658 J0.3033
G3 X-5.5112 Y1.4703 I-0.3397 J0.1487
( Pocket1 )
S10000
G0 Z90.0
G0 X-9.5784 Y3.7722
G1 Z0.0
G1 X-9.4635
G3 X-9.5612 Y3.5379 I0.2323 J-0.2343
G1 Y-3.5159
G3 X-9.5091 Y-3.6938 I0.3299 J0.0
G1 X-9.5784
G1 Y3.7722
G1 Y3.8122
G1 X-9.3251
G3 X-9.5212 Y3.5379 I0.0939 J-0.2743
G1 Y-3.5159
G3 X-9.4225 Y-3.7338 I0.2899 J0.0
G1 X-9.6184
G1 Y3.8122
G1 X-9.5784
G0 Z90.0
G0 X10.3003 Y3.7722
G1 Z0.0
G1 X10.3588
G1 Y3.6939
G3 X10.3003 Y3.7722 I-0.2907 J-0.1559
G0 Z90.0
G0 X10.3588 Y-3.6719
G1 Z0.0
G1 Y-3.6938
G1 X10.3459
G3 X10.3588 Y-3.6719 I-0.2779 J0.1779
G1 X10.3988
G1 Y-3.7338
G1 X10.2593
G3 X10.358 Y-3.5159 I-0.1913 J0.2179
G1 Y3.5379
G3 X10.1619 Y3.8122 I-0.2899 J0.0
G1 X10.3988
G1 Y-3.6719
G0 Z90.0
G0 X10.1494 Y-3.5543
G1 Z0.0
G3 X10.158 Y-3.5159 I-0.0813 J0.0383
G1 Y3.5379
G3 X10.0681 Y3.6278 I-0.0899 J0.0
G1 X-9.2312
G3 X-9.3212 Y3.5379 I0.0 J-0.0899
G1 Y-3.5159
G3 X-9.2312 Y-3.6058 I0.0899 J0.0
G1 X10.0681
G3 X10.1494 Y-3.5543 I0.0 J0.0899
G1 X10.1133 Y-3.5372
G3 X10.1181 Y-3.5159 I-0.0452 J0.0213
G1 Y3.5379
G3 X10.0681 Y3.5879 I-0.05 J0.0
G1 X-9.2312
G3 X-9.2812 Y3.5379 I0.0 J-0.05
G1 Y-3.5159
G3 X-9.2312 Y-3.5659 I0.05 J0.0
G1 X10.0681
G3 X10.1133 Y-3.5372 I0.0 J0.05
G0 Z90.0
G0 X10.1856 Y-3.5713
G1 Z0.0
G2 X10.0681 Y-3.6458 I-0.1175 J0.0554
G1 X-9.2312
G2 X-9.3612 Y-3.5159 I0.0 J0.1299
G1 Y3.5379
G2 X-9.2312 Y3.6678 I0.1299 J0.0
G1 X10.0681
G2 X10.198 Y3.5379 I0.0 J-0.1299
G1 Y-3.5159
G2 X10.1856 Y-3.5713 I-0.1299 J0.0
G1 X10.2218 Y-3.5884
G2 X10.0681 Y-3.6858 I-0.1537 J0.0725
G1 X-9.2312
G2 X-9.4012 Y-3.5159 I0.0 J0.1699
G1 Y3.5379
G2 X-9.2312 Y3.7078 I0.1699 J0.0
G1 X10.0681
G2 X10.238 Y3.5379 I0.0 J-0.1699
G1 Y-3.5159
G2 X10.2218 Y-3.5884 I-0.1699 J0.0
G1 X10.2579 Y-3.6054
G2 X10.0681 Y-3.7258 I-0.1899 J0.0895
G1 X-9.2312
G2 X-9.4412 Y-3.5159 I0.0 J0.2099
G1 Y3.5379
G2 X-9.2312 Y3.7478 I0.2099 J0.0
G1 X10.0681
G2 X10.278 Y3.5379 I0.0 J-0.2099
G1 Y-3.5159
G2 X10.2579 Y-3.6054 I-0.2099 J0.0
G1 X10.2941 Y-3.6225
G2 X10.0681 Y-3.7658 I-0.2261 J0.1066
G1 X-9.2312
G2 X-9.4812 Y-3.5159 I0.0 J0.2499
G1 Y3.5379
G2 X-9.2312 Y3.7878 I0.2499 J0.0
G1 X10.0681
G2 X10.318 Y3.5379 I0.0 J-0.2499
G1 Y-3.5159
G2 X10.2941 Y-3.6225 I-0.2499 J0.0
G0 Z90.0
G0 X10.4388
G1 Z0.0
G1 Y-3.7738
G1 X-9.6584
G1 Y3.8522
G1 X10.4388
G1 Y-3.6225
G1 X10.4788
G1 Y-3.8138
G1 X-9.6984
G1 Y3.8922
G1 X10.4788
G1 Y-3.6225
G1 X10.5188
G1 Y-3.8538
G1 X-9.7384
G1 Y3.9322
G1 X10.5188
G1 Y-3.6225
G1 X10.5588
G1 Y-3.8938
G1 X-9.7784
G1 Y3.9722
G1 X10.5588
G1 Y-3.6225
G1 X10.5988
G1 Y-3.9338
G1 X-9.8184
G1 Y4.0122
G1 X10.5988
G1 Y-3.6225
G1 X10.6388
G1 Y-3.9738
G1 X-9.8584
G1 Y4.0522
G1 X10.6388
G1 Y-3.6225
( Pocket2 )
S10000
G0 Z90.0
G0 X-7.3931 Y1.1367
G1 Z0.0
G1 X-8.0167 Y2.7462
G1 X-7.9551
G1 X-7.5114 Y1.5059
G3 X-7.5113 Y1.5055 I0.0847 J0.0303
G2 X-7.4193 Y1.2189 I-3.8041 J-1.3785
G3 X-7.2461 Y1.2186 I0.0867 J0.0243
G2 X-7.152 Y1.5045 I3.5046 J-0.9951
G3 X-7.1519 Y1.5048 I-0.0843 J0.0316
G1 X-6.6903 Y2.7462
G1 X-6.643
G1 X-7.2732 Y1.1367
G1 X-7.3931
G1 X-7.4304 Y1.1222
G1 X-8.0751 Y2.7862
G1 X-7.9269
G1 X-7.4737 Y1.5194
G3 X-7.4736 Y1.5192 I0.0471 J0.0168
G2 X-7.3808 Y1.2297 I-3.8417 J-1.3922
G3 X-7.2845 Y1.2296 I0.0481 J0.0135
G2 X-7.1894 Y1.5186 I3.543 J-1.0061
G3 X-7.1893 Y1.5188 I-0.0468 J0.0176
G1 X-6.7181 Y2.7862
G1 X-6.5844
G1 X-7.2459 Y1.0967
G1 X-7.4205
G1 X-7.4304 Y1.1222
G0 Z90.0
G0 X-6.307 Y1.3318
G1 Z0.0
G2 X-6.3113 Y1.386 I0.2521 J0.047
G3 Y1.3896 I-0.09 J0.0025
G2 X-6.2793 Y1.519 I0.2655 J0.0032
G3 Y1.5191 I-0.0792 J0.0428
G2 X-6.1944 Y1.6143 I0.2424 J-0.1306
G2 X-6.0643 Y1.6735 I0.25 J-0.3771
G2 X-5.8814 Y1.7043 I0.3506 J-1.5252
G3 X-5.8806 Y1.7044 I-0.0096 J0.0895
G3 X-5.7842 Y1.7169 I-0.4222 J3.6308
G2 X-5.8705 Y1.7034 I-0.4469 J2.5736
G3 X-5.8706 I0.0124 J-0.0891
G3 X-5.9724 Y1.6859 I0.2379 J-1.6902
G3 X-6.0826 Y1.6541 I0.115 J-0.6051
G3 X-6.084 Y1.6535 I0.0329 J-0.0837
G3 X-6.2116 Y1.5476 I0.1069 J-0.2586
G3 X-6.2568 Y1.3949 I0.2294 J-0.151
G3 X-6.1593 Y1.1797 I0.2778 J-0.0039
G3 X-6.1589 Y1.1794 I0.0584 J0.0684
G3 X-6.0298 Y1.114 I0.2031 J0.2408
G3 X-6.0061 Y1.1088 I0.1192 J0.4856
G2 X-6.109 Y1.1259 I0.0398 J0.5579
G3 X-6.1091 I-0.023 J-0.087
G2 X-6.2267 Y1.1884 I0.0732 J0.2795
G2 X-6.307 Y1.3318 I0.1718 J0.1905
G0 Z90.0
G0 X-6.2111 Y2.0433
G1 Z0.0
G1 X-6.2477 Y2.0483
G2 X-6.2446 Y2.0559 I0.5364 J-0.2094
G3 Y2.0561 I-0.0834 J0.0339
G2 X-6.1963 Y2.1396 I0.3222 J-0.1304
G2 X-6.1308 Y2.1986 I0.2105 J-0.1678
G2 X-6.0435 Y2.2409 I0.2242 J-0.3517
G2 X-6.0099 Y2.2516 I0.2497 J-0.7288
G3 X-6.0908 Y2.2098 I0.1264 J-0.3441
G3 X-6.0951 Y2.2067 I0.0509 J-0.0742
G3 X-6.191 Y2.0884 I0.2049 J-0.2642
G3 X-6.2111 Y2.0433 I0.5329 J-0.2645
G0 Z90.0
G0 X-5.4049 Y1.3713
G1 Z0.0
G3 X-5.4028 Y1.3106 I1.9701 J0.0374
G3 X-5.4258 Y1.3244 I-0.0781 J-0.104
G3 X-5.4176 Y1.3404 I-0.4198 J0.2233
G3 X-5.4155 Y1.3449 I-0.1169 J0.0566
G3 X-5.4049 Y1.3713 I-0.4587 J0.2008
G1 X-5.4424 Y1.3852
G3 X-5.4164 Y1.4946 I-0.4319 J0.1605
G3 X-5.4092 Y1.617 I-0.9472 J0.1166
G1 Y1.6973
G3 X-5.4729 Y1.7833 I-0.0899 J0.0
G3 X-5.4714 Y1.7838 I-0.435 J1.3484
G3 X-5.4092 Y1.8668 I-0.0277 J0.0856
G3 X-5.4079 Y1.9255 I-3.863 J0.1116
G3 X-5.422 Y2.0489 I-0.4858 J0.0071
G3 X-5.4985 Y2.1816 I-0.2583 J-0.0605
G3 X-5.5019 Y2.1846 I-0.0617 J-0.0656
G3 X-5.6579 Y2.2633 I-0.2407 J-0.2834
G3 X-5.8105 Y2.2805 I-0.146 J-0.6084
G3 X-5.8787 Y2.2778 I-0.0061 J-0.7125
G2 X-5.7803 Y2.2824 I0.0849 J-0.7657
G3 X-5.7782 I0.0016 J0.09
G2 X-5.6529 Y2.2751 I0.0051 J-1.0017
G3 X-5.6524 I0.0108 J0.0893
G2 X-5.5397 Y2.2487 I-0.0577 J-0.5012
G2 X-5.4726 Y2.2166 I-0.1366 J-0.3709
G3 X-5.4722 Y2.2163 I0.0464 J0.0771
G2 X-5.426 Y2.1774 I-0.0947 J-0.1595
G2 X-5.3766 Y2.0699 I-0.1985 J-0.1562
G2 X-5.3687 Y1.9822 I-0.6536 J-0.1034
G3 X-5.3686 Y1.9812 I0.09 J0.0022
G2 X-5.367 Y1.8831 I-2.5719 J-0.0924
G3 Y1.8829 I0.09 J-0.0002
G1 Y1.59
G3 X-5.3652 Y1.3944 I9.1432 J-0.0133
G3 X-5.353 Y1.1916 I1.9304 J0.0143
G3 X-5.3521 Y1.1854 I0.0894 J0.0101
G3 X-5.3409 Y1.1367 I0.5811 J0.107
G1 X-5.3758
G2 X-5.3912 Y1.2147 I0.361 J0.112
G3 X-5.4901 Y1.2961 I-0.0896 J-0.0081
G3 X-5.4536 Y1.3578 I-0.3555 J0.2516
G3 X-5.4522 Y1.361 I-0.0809 J0.0392
G3 X-5.4424 Y1.3852 I-0.4221 J0.1847
G0 Z90.0
G0 X-5.3251 Y1.3866
G1 Z0.0
G3 X-5.3132 Y1.1961 I1.8903 J0.0221
G3 X-5.3127 Y1.1927 I0.0497 J0.0056
G3 X-5.2859 Y1.0967 I0.5418 J0.0998
G1 X-5.4041
G2 X-5.431 Y1.2111 I0.3894 J0.152
G3 X-5.514 Y1.244 I-0.0498 J-0.0045
G2 X-5.7346 Y1.1067 I-0.5131 J0.5785
G2 X-5.9577 Y1.0674 I-0.2181 J0.5853
G3 X-5.9588 I-0.0004 J-0.05
G2 X-6.1192 Y1.0872 I-0.0075 J0.5992
G1 X-6.1193
G2 X-6.2533 Y1.1585 I0.0833 J0.3182
G2 X-6.3513 Y1.3871 I0.1984 J0.2204
G3 Y1.3891 I-0.05 J0.0014
G2 X-6.3145 Y1.5381 I0.3055 J0.0037
G2 X-6.2169 Y1.6474 I0.2776 J-0.1496
G2 X-6.0741 Y1.7123 I0.2725 J-0.4102
G2 X-5.8856 Y1.744 I0.3604 J-1.564
G3 X-5.8852 Y1.7441 I-0.0054 J0.0497
G3 X-5.685 Y1.7731 I-0.4176 J3.5911
G3 X-5.4837 Y1.8219 I-0.2229 J1.3587
G3 X-5.4492 Y1.868 I-0.0154 J0.0476
G3 X-5.4479 Y1.9261 I-3.823 J0.1104
G3 X-5.4609 Y2.0395 I-0.4458 J0.0066
G3 X-5.5259 Y2.1524 I-0.2194 J-0.0512
G3 X-5.5278 Y2.1541 I-0.0343 J-0.0364
G3 X-5.6671 Y2.2243 I-0.2148 J-0.2529
G3 X-5.8105 Y2.2405 I-0.1368 J-0.5695
G3 X-5.938 Y2.2295 I-0.0062 J-0.6725
G3 X-6.0682 Y2.1768 I0.0545 J-0.322
G3 X-6.0706 Y2.1751 I0.0283 J-0.0412
G3 X-6.1551 Y2.0708 I0.1804 J-0.2326
G3 X-6.1846 Y1.9993 I0.497 J-0.2469
G1 X-6.3013 Y2.0152
G2 X-6.2817 Y2.071 I0.59 J-0.1763
G1 X-6.2816 Y2.0711
G2 X-6.2277 Y2.1644 I0.3592 J-0.1454
G2 X-6.1523 Y2.2323 I0.2419 J-0.1926
G2 X-6.0566 Y2.2787 I0.2458 J-0.3854
G2 X-5.7796 Y2.3224 I0.2628 J-0.7666
G3 X-5.7784 I0.0009 J0.05
G2 X-5.6481 Y2.3149 I0.0053 J-1.0417
G3 X-5.6478 Y2.3148 I0.006 J0.0496
G2 X-5.526 Y2.2863 I-0.0623 J-0.5409
G2 X-5.452 Y2.2509 I-0.1503 J-0.4085
G3 X-5.4518 Y2.2507 I0.0258 J0.0428
G2 X-5.395 Y2.2027 I-0.1151 J-0.1939
G2 X-5.3372 Y2.0768 I-0.2295 J-0.1816
G2 X-5.3287 Y1.9832 I-0.693 J-0.1104
G3 Y1.9826 I0.05 J0.0012
G2 X-5.327 Y1.883 I-2.6119 J-0.0938
G3 Y1.8829 I0.05 J-0.0001
G1 Y1.5899
G3 X-5.3252 Y1.395 I9.1032 J-0.0133
G3 X-5.3251 Y1.3866 I1.8904 J0.0137
G0 Z90.0
G0 X-5.4701 Y1.4286
G1 Z0.0
G3 X-5.456 Y1.4993 I-0.4042 J0.1171
G3 X-5.4491 Y1.6169 I-0.9075 J0.1119
G1 Y1.6973
G3 X-5.517 Y1.744 I-0.05 J0.0
G2 X-5.6862 Y1.695 I-0.3752 J0.9789
G3 X-5.6866 Y1.6949 I0.0098 J-0.049
G2 X-5.8649 Y1.6638 I-0.5445 J2.5956
G1 X-5.865
G3 X-5.9647 Y1.6467 I0.2323 J-1.6507
G3 X-6.068 Y1.6169 I0.1073 J-0.566
G3 X-6.0688 Y1.6166 I0.0183 J-0.0465
G3 X-6.1782 Y1.5257 I0.0917 J-0.2217
G3 X-6.2169 Y1.3948 I0.196 J-0.1291
G3 X-6.1334 Y1.2101 I0.2378 J-0.0037
G3 X-6.1332 Y1.2099 I0.0324 J0.038
G3 X-6.0204 Y1.1528 I0.1773 J0.2103
G3 X-5.9058 Y1.1395 I0.1098 J0.4468
G3 X-5.6561 Y1.2004 I0.0084 J0.5079
G3 X-5.6558 Y1.2006 I-0.0238 J0.044
G3 X-5.4896 Y1.3752 I-0.1898 J0.3471
G3 X-5.4887 Y1.377 I-0.045 J0.0218
G3 X-5.4701 Y1.4286 I-0.3855 J0.1687
G0 Z90.0
G0 X-4.8064 Y2.029
G1 Z0.0
G1 Y2.0478
G3 X-4.8005 Y2.0444 I0.0678 J0.1109
G3 X-4.8064 Y2.029 I0.538 J-0.2138
G1 X-4.7688 Y2.0153
G3 X-4.7967 Y1.9021 I0.5063 J-0.1847
G3 X-4.8067 Y1.7544 I0.9927 J-0.1412
G1 Y1.1367
G1 X-4.8464
G1 Y2.2531
G1 X-4.8287
G1 Y2.1588
G3 X-4.7457 Y2.069 I0.09 J0.0
G3 X-4.751 Y2.0584 I0.2868 J-0.1492
G3 X-4.7513 Y2.0577 I0.0813 J-0.0386
G3 X-4.7688 Y2.0153 I0.4887 J-0.2271
G0 Z90.0
G0 X-4.4544 Y2.2656
G1 Z0.0
G2 X-4.3278 Y2.2824 I0.1184 J-0.4068
G3 X-4.325 I0.0017 J0.09
G2 X-4.1466 Y2.2469 I0.0051 J-0.4408
G3 X-4.1454 Y2.2464 I0.0354 J0.0828
G2 X-4.0815 Y2.2114 I-0.1243 J-0.3025
G2 X-4.0369 Y2.1676 I-0.1108 J-0.1576
G2 X-3.9837 Y2.0415 I-0.2757 J-0.1904
G2 X-3.9748 Y1.9484 I-0.6756 J-0.1115
G3 Y1.9474 I0.09 J0.0024
G2 X-3.9729 Y1.844 I-2.5021 J-0.097
G3 Y1.8438 I0.09 J-0.0002
G1 Y1.1367
G1 X-4.0127
G1 Y1.835
G3 X-4.0176 Y1.9444 I-1.0975 J0.0054
G3 X-4.0434 Y2.0653 I-0.4844 J-0.0402
G3 X-4.0443 Y2.0677 I-0.0849 J-0.0298
G3 X-4.1745 Y2.2194 I-0.2777 J-0.1066
G3 X-4.3727 Y2.272 I-0.1911 J-0.321
G3 X-4.4544 Y2.2656 I-0.0061 J-0.4483
G1 X-4.4655 Y2.304
G2 X-4.327 Y2.3224 I0.1296 J-0.4452
G3 X-4.3255 I0.001 J0.05
G2 X-4.1309 Y2.2837 I0.0055 J-0.4808
G3 X-4.1302 Y2.2834 I0.0197 J0.046
G2 X-4.0585 Y2.2441 I-0.1395 J-0.3395
G2 X-4.0043 Y2.1908 I-0.1338 J-0.1904
G2 X-3.9444 Y2.0486 I-0.3083 J-0.2136
G2 X-3.9349 Y1.9495 I-0.715 J-0.1186
G3 X-3.9348 Y1.9489 I0.05 J0.0013
G2 X-3.9329 Y1.8439 I-2.5421 J-0.0985
G3 Y1.8438 I0.05 J-0.0001
G1 Y1.0967
G1 X-4.0527
G1 Y1.8351
G3 X-4.0574 Y1.9408 I-1.0575 J0.0053
G3 X-4.0811 Y2.052 I-0.4445 J-0.0366
G3 X-4.0816 Y2.0534 I-0.0472 J-0.0166
G3 X-4.1947 Y2.1849 I-0.2403 J-0.0923
G3 X-4.3726 Y2.232 I-0.171 J-0.2864
G3 X-4.6484 Y2.1304 I-0.0062 J-0.4083
G3 X-4.6489 Y2.1299 I0.033 J-0.0376
G3 X-4.7148 Y2.0412 I0.19 J-0.2101
G3 X-4.715 Y2.0409 I0.0452 J-0.0214
G3 X-4.7571 Y1.8966 I0.4525 J-0.2103
G3 X-4.7667 Y1.7545 I0.9531 J-0.1358
G1 Y1.0967
G1 X-4.8864
G1 Y2.2931
G1 X-4.7887
G1 Y2.1588
G3 X-4.6966 Y2.1317 I0.05 J0.0
G2 X-4.5384 Y2.276 I0.3518 J-0.2269
G2 X-4.4655 Y2.304 I0.2024 J-0.4172
G0 Z90.0
G0 X-3.4817 Y1.9683
G1 Z0.0
G2 X-3.4611 Y2.0215 I0.6582 J-0.2246
G3 X-3.4606 Y2.0226 I-0.0825 J0.036
G2 X-3.2888 Y2.2143 I0.3624 J-0.152
G3 X-3.2886 Y2.2144 I-0.0436 J0.0787
G2 X-3.023 Y2.2824 I0.2618 J-0.47
G3 X-3.0214 I0.0006 J0.09
G2 X-2.8646 Y2.2618 I0.0058 J-0.5649
G2 X-2.7328 Y2.1944 I-0.1021 J-0.362
G3 X-2.7327 I0.0559 J0.0705
G2 X-2.6422 Y2.0868 I-0.2173 J-0.2747
G2 X-2.6187 Y2.0357 I-0.4257 J-0.2268
G1 X-2.6554 Y2.03
G3 X-2.6766 Y2.077 I-0.5074 J-0.2
G3 X-2.7684 Y2.194 I-0.3412 J-0.1732
G3 X-2.7688 Y2.1944 I-0.0587 J-0.0682
G3 X-3.0143 Y2.2817 I-0.2379 J-0.2801
G3 X-3.1974 Y2.2455 I-0.0045 J-0.4587
G3 X-3.1987 Y2.245 I0.035 J-0.0829
G3 X-3.3522 Y2.1303 I0.1735 J-0.3923
G3 X-3.3532 Y2.1291 I0.0686 J-0.0583
G3 X-3.4561 Y1.911 I0.3832 J-0.3141
G3 X-3.4773 Y1.6961 I0.968 J-0.2043
G3 X-3.4571 Y1.4803 I1.0457 J-0.0108
G3 X-3.457 Y1.4796 I0.0883 J0.0176
G3 X-3.4221 Y1.3675 I0.5997 J0.1249
G3 X-3.3566 Y1.2591 I0.3958 J0.1653
G3 X-3.0251 Y1.108 I0.3208 J0.2646
G3 X-2.881 Y1.1317 I0.0027 J0.4342
G3 X-2.8802 Y1.132 I-0.0293 J0.0851
G3 X-2.7489 Y1.2113 I-0.1278 J0.3601
G3 X-2.7481 Y1.212 I-0.061 J0.0661
G3 X-2.6503 Y1.3571 I-0.2748 J0.2909
G3 X-2.6287 Y1.4215 I-0.5941 J0.2347
G1 X-2.5939 Y1.417
G2 X-2.6241 Y1.3415 I-0.5409 J0.1728
G2 X-2.7249 Y1.2111 I-0.3747 J0.1855
G3 X-2.725 Y1.211 I0.059 J-0.068
G2 X-2.8616 Y1.1324 I-0.2679 J0.3077
G2 X-3.0227 Y1.1074 I-0.1562 J0.4748
G3 X-3.0248 I-0.0009 J-0.09
G2 X-3.2245 Y1.142 I-0.0074 J0.5512
G2 X-3.3856 Y1.2515 I0.158 J0.4058
G2 X-3.4928 Y1.4486 I0.3586 J0.3227
G1 Y1.4487
G2 X-3.5232 Y1.6889 I0.8461 J0.229
G3 Y1.6904 I-0.09 J0.0011
G2 X-3.5088 Y1.862 I0.9787 J0.0046
G2 X-3.4817 Y1.9683 I0.6854 J-0.1184
G1 X-3.5196 Y1.9812
G2 X-3.4977 Y2.0375 I0.6961 J-0.2375
G3 X-3.4975 Y2.0381 I-0.0458 J0.02
G2 X-3.3082 Y2.2493 I0.3993 J-0.1675
G1 X-3.3081
G2 X-3.0227 Y2.3224 I0.2813 J-0.505
G3 X-3.0218 I0.0004 J0.05
G2 X-2.8538 Y2.3004 I0.0062 J-0.6049
G2 X-2.708 Y2.2258 I-0.1128 J-0.4006
G1 X-2.7079 Y2.2257
G2 X-2.607 Y2.1057 I-0.2421 J-0.3061
G2 X-2.5656 Y2.0034 I-0.461 J-0.2458
G1 X-2.6819 Y1.9855
G3 X-2.7123 Y2.0589 I-0.4809 J-0.1554
G3 X-2.7944 Y2.1637 I-0.3056 J-0.1551
G3 X-2.7947 Y2.1639 I-0.0326 J-0.0379
G3 X-3.0141 Y2.2417 I-0.212 J-0.2496
G3 X-3.1818 Y2.2087 I-0.0047 J-0.4187
G3 X-3.1825 Y2.2084 I0.0195 J-0.0461
G3 X-3.3217 Y2.1044 I0.1573 J-0.3557
G3 X-3.3222 Y2.1038 I0.0381 J-0.0324
G3 X-3.4169 Y1.903 I0.3523 J-0.2887
G3 X-3.4373 Y1.6961 I0.9288 J-0.1963
G3 X-3.4179 Y1.4882 I1.0057 J-0.0108
G3 X-3.4178 Y1.4878 I0.049 J0.0098
G3 X-3.3852 Y1.3829 I0.5605 J0.1167
G3 X-3.3258 Y1.2846 I0.3589 J0.1499
G3 X-3.0255 Y1.1481 I0.2899 J0.2391
G3 X-2.894 Y1.1695 I0.0031 J0.3942
G3 X-2.8936 Y1.1697 I-0.0163 J0.0473
G3 X-2.776 Y1.2407 I-0.1145 J0.3224
G3 X-2.7756 Y1.2411 I-0.0339 J0.0367
G3 X-2.6875 Y1.3717 I-0.2473 J0.2618
G3 X-2.659 Y1.4658 I-0.5568 J0.2201
G1 X-2.543 Y1.4507
G2 X-2.5882 Y1.3239 I-0.5917 J0.1391
G2 X-2.6987 Y1.1809 I-0.4106 J0.2031
G3 Y1.1808 I0.0328 J-0.0378
G2 X-2.8489 Y1.0945 I-0.2942 J0.3379
G2 X-3.0231 Y1.0674 I-0.1689 J0.5127
G3 X-3.0242 I-0.0005 J-0.05
G2 X-3.2387 Y1.1046 I-0.0079 J0.5912
G2 X-3.4151 Y1.2245 I0.1722 J0.4432
G2 X-3.5314 Y1.4382 I0.3882 J0.3497
G2 X-3.5632 Y1.6894 I0.8847 J0.2394
G3 Y1.6902 I-0.05 J0.0006
G2 X-3.5482 Y1.8688 I1.0187 J0.0048
G2 X-3.5196 Y1.9812 I0.7248 J-0.1252
G0 Z90.0
G0 X-2.3205 Y1.8237
G1 Z0.0
G2 X-2.2887 Y1.9688 I0.8679 J-0.114
G2 X-2.1447 Y2.1907 I0.4684 J-0.1463
G2 X-1.9711 Y2.2907 I0.3448 J-0.3977
G2 X-1.7704 Y2.3224 I0.1949 J-0.5843
G3 X-1.7693 I0.0005 J0.05
G2 X-1.5507 Y2.284 I0.0074 J-0.5999
G2 X-1.3691 Y2.1621 I-0.1844 J-0.4708
G3 X-1.3689 Y2.1619 I0.0362 J0.0345
G2 X-1.2478 Y1.9571 I-0.3709 J-0.3575
G2 X-1.2132 Y1.7139 I-0.7632 J-0.2327
G3 Y1.7128 I0.05 J-0.0007
G2 X-1.2276 Y1.5194 I-1.1945 J-0.0086
G3 Y1.519 I0.0494 J-0.0077
G2 X-1.2835 Y1.3416 I-0.5859 J0.0869
G2 X-1.4811 Y1.1408 I-0.4241 J0.2197
G3 X-1.4816 Y1.1405 I0.0237 J-0.044
G2 X-1.7695 Y1.0674 I-0.2826 J0.5098
G3 X-1.7705 I-0.0004 J-0.05
G2 X-1.9912 Y1.105 I-0.008 J0.6197
G2 X-2.1743 Y1.2263 I0.1769 J0.4655
G2 X-2.2948 Y1.4406 I0.3765 J0.3529
G2 X-2.3278 Y1.6942 I0.8662 J0.2417
G3 Y1.6957 I-0.05 J0.0007
G2 X-2.3205 Y1.8237 I0.8752 J0.014
G0 Z90.0
G0 X-2.2355 Y1.8135
G1 Z0.0
G3 X-2.2419 Y1.6949 I0.9033 J-0.1086
G3 X-2.2183 Y1.4785 I0.9121 J-0.0099
G3 X-2.1124 Y1.2638 I0.4973 J0.1118
G3 X-2.1119 Y1.2632 I0.0691 J0.0576
G3 X-1.7698 Y1.1081 I0.3348 J0.2838
G3 X-1.4286 Y1.265 I0.0061 J0.4361
G3 X-1.4285 Y1.2652 I-0.0691 J0.0576
G3 X-1.3223 Y1.4835 I-0.3937 J0.3264
G3 X-1.2991 Y1.7022 I-0.9236 J0.2085
G3 X-1.3237 Y1.9152 I-0.8543 J0.0095
G3 X-1.4302 Y2.124 I-0.4868 J-0.1169
G3 X-1.7697 Y2.2804 I-0.3341 J-0.2785
G3 X-2.1119 Y2.1253 I-0.0074 J-0.4388
G3 X-2.1121 Y2.1251 I0.0686 J-0.0581
G3 X-2.2184 Y1.9107 I0.3861 J-0.3248
G3 X-2.2355 Y1.8135 I0.8862 J-0.2058
G1 X-2.1958 Y1.8087
G3 X-2.202 Y1.6949 I0.8637 J-0.1039
G3 X-2.1794 Y1.4874 I0.8722 J-0.0099
G3 X-2.0817 Y1.2893 I0.4584 J0.1029
G3 X-2.0815 Y1.289 I0.0384 J0.032
G3 X-1.7698 Y1.148 I0.3044 J0.2579
G3 X-1.4593 Y1.2906 I0.0062 J0.3962
G3 X-1.4592 Y1.2907 I-0.0384 J0.032
G3 X-1.3613 Y1.4921 I-0.363 J0.301
G3 X-1.339 Y1.7022 I-0.8847 J0.1999
G3 X-1.3625 Y1.9058 I-0.8144 J0.0094
G3 X-1.4607 Y2.0982 I-0.4481 J-0.1075
G3 X-1.7698 Y2.2405 I-0.3036 J-0.2527
G3 X-2.0815 Y2.0995 I-0.0073 J-0.3989
G3 X-2.0816 Y2.0994 I0.0381 J-0.0323
G3 X-2.1794 Y1.9018 I0.3555 J-0.2991
G3 X-2.1958 Y1.8087 I0.8473 J-0.197
G0 Z90.0
G0 X-2.2806 Y1.82
G1 Z0.0
G3 X-2.2878 Y1.6963 I0.828 J-0.1103
G2 Y1.6937 I-0.09 J-0.0014
G3 X-2.2563 Y1.4514 I0.8592 J-0.0114
G3 X-2.1452 Y1.2538 I0.4586 J0.1278
G3 X-1.9772 Y1.1425 I0.3309 J0.3167
G3 X-1.7711 Y1.1074 I0.1987 J0.5446
G2 X-1.7691 I0.0012 J-0.09
G3 X-1.501 Y1.1755 I0.0048 J0.5428
G2 X-1.5001 Y1.176 I0.0436 J-0.0787
G3 X-1.3191 Y1.3597 I-0.2075 J0.3853
G3 X-1.2672 Y1.5249 I-0.4944 J0.2462
G2 X-1.2671 Y1.5256 I0.089 J-0.0132
G3 X-1.2532 Y1.7125 I-1.1406 J0.1787
G2 Y1.7144 I0.09 J0.0006
G3 X-1.286 Y1.9453 I-0.7578 J0.01
G3 X-1.3977 Y2.1341 I-0.4538 J-0.1409
G2 X-1.398 Y2.1345 I0.0648 J0.0625
G3 X-1.565 Y2.2467 I-0.337 J-0.3212
G3 X-1.7688 Y2.2824 I-0.1968 J-0.5242
G2 X-1.7707 I-0.0011 J0.09
G3 X-1.9582 Y2.2529 I-0.0054 J-0.5759
G3 X-2.1184 Y2.1606 I0.1583 J-0.4599
G3 X-2.2505 Y1.9569 I0.2981 J-0.3381
G3 X-2.2806 Y1.82 I0.7979 J-0.2472
G0 Z90.0
G0 X-0.8205
G1 Z0.0
G1 Y2.2531
G1 X-0.7808
G1 Y1.6242
G3 X-0.7788 Y1.5052 I3.0472 J-0.0072
G3 X-0.766 Y1.3765 I0.8493 J0.0192
G3 X-0.7653 Y1.3731 I0.0886 J0.0157
G3 X-0.6433 Y1.1833 I0.3147 J0.0682
G3 X-0.6407 Y1.1814 I0.0539 J0.0721
G3 X-0.4221 Y1.1166 I0.2081 J0.301
G3 X-0.3524 Y1.122 I-0.0003 J0.455
G2 X-0.4659 Y1.1074 I-0.107 J0.382
G3 X-0.4681 I-0.0015 J-0.09
G2 X-0.6463 Y1.1438 I-0.0031 J0.4386
G2 X-0.7114 Y1.1804 I0.1481 J0.3399
G3 X-0.7115 Y1.1805 I-0.0518 J-0.0736
G2 X-0.7569 Y1.2238 I0.1193 J0.1704
G2 X-0.8086 Y1.3509 I0.2797 J0.1878
G2 X-0.8183 Y1.4404 I0.6211 J0.113
G3 Y1.4412 I-0.0899 J-0.0034
G2 X-0.8205 Y1.5396 I1.9882 J0.0933
G3 Y1.5399 I-0.09 J0.0002
G1 Y1.82
G0 Z90.0
G0 X0.0105 Y1.3614
G1 Z0.0
G1 Y1.3488
G3 X0.0067 Y1.351 I-0.0665 J-0.1117
G3 X0.0105 Y1.3614 I-0.573 J0.217
G1 X0.0505
G1 Y1.1367
G1 X0.034
G1 Y1.2371
G3 X-0.0485 Y1.3268 I-0.09 J0.0
G3 X-0.0327 Y1.3602 I-0.3281 J0.1755
G3 X-0.0319 Y1.3623 I-0.0832 J0.0344
G3 X0.0035 Y1.5104 I-0.5344 J0.2057
G3 X0.0108 Y1.6487 I-1.183 J0.1318
G1 Y2.2531
G1 X0.0505
G1 Y1.3614
G1 X0.0905
G1 Y1.0967
G1 X-0.006
G1 Y1.2371
G3 X-0.0977 Y1.2647 I-0.05 J0.0
G2 X-0.2567 Y1.1172 I-0.3841 J0.2545
G2 X-0.4666 Y1.0674 I-0.2027 J0.3868
G3 X-0.4678 I-0.0008 J-0.05
G2 X-0.6623 Y1.1072 I-0.0034 J0.4786
G2 X-0.7344 Y1.1477 I0.1641 J0.3765
G1 X-0.7345 Y1.1478
G2 X-0.7893 Y1.2004 I0.1422 J0.2031
G2 X-0.8479 Y1.3437 I0.3122 J0.2112
G2 X-0.8583 Y1.4389 I0.6605 J0.1201
G3 Y1.4394 I-0.05 J-0.0019
G2 X-0.8605 Y1.5397 I2.0281 J0.0952
G3 Y1.5399 I-0.05 J0.0001
G1 Y2.2931
G1 X-0.7408
G1 Y1.6241
G3 X-0.7388 Y1.5064 I3.0072 J-0.0072
G3 X-0.7266 Y1.3834 I0.8094 J0.018
G3 X-0.7262 Y1.3816 I0.0492 J0.0087
G3 X-0.6194 Y1.2154 I0.2756 J0.0597
G3 X-0.6179 Y1.2143 I0.0299 J0.0401
G3 X-0.4227 Y1.1566 I0.1854 J0.2681
G3 X-0.213 Y1.2133 I0.0003 J0.415
G3 X-0.0696 Y1.3755 I-0.1636 J0.289
G3 X-0.0692 Y1.3766 I-0.0462 J0.0191
G3 X-0.0363 Y1.5146 I-0.4971 J0.1913
G3 X-0.0292 Y1.6486 I-1.1432 J0.1276
G1 Y2.2931
G1 X0.0905
G1 Y1.3614
G0 Z90.0
G0 X0.729 Y1.6043
G1 Z0.0
G1 X0.4822 Y2.2531
G1 X0.5203
G1 X0.7772 Y1.5364
G2 X0.8582 Y1.2813 I-3.4786 J-1.2457
G3 X1.0313 Y1.2801 I0.0867 J0.0241
G2 X1.1111 Y1.5208 I3.5604 J-1.0473
G3 X1.1113 Y1.5213 I-0.0844 J0.0312
G1 X1.3778 Y2.2531
G1 X1.4103
G1 X0.9878 Y1.1367
G1 X0.9069
G1 X0.729 Y1.6043
G1 X0.6916 Y1.5901
G1 X0.4242 Y2.2931
G1 X0.5484
G1 X0.8149 Y1.5498
G2 X0.8968 Y1.2921 I-3.5163 J-1.2592
G3 X0.9929 Y1.2914 I0.0482 J0.0134
G2 X1.0736 Y1.5347 I3.5988 J-1.0586
G3 X1.0737 Y1.535 I-0.0469 J0.0174
G1 X1.3498 Y2.2931
G1 X1.4683
G1 X1.0154 Y1.0967
G1 X0.8793
G1 X0.6916 Y1.5901
G0 Z90.0
G0 X1.792 Y1.7257
G1 Z0.0
G2 X1.793 Y1.7468 I0.8176 J-0.0297
G3 X1.8016 Y1.7354 I0.1078 J0.0726
G3 X1.792 Y1.7257 I0.0869 J-0.0967
G1 X1.8326 Y1.7607
G3 X1.9008 Y1.7295 I0.0681 J0.0587
G1 X2.6246
G3 X2.7143 Y1.8266 I0.0 J0.0899
G3 X2.6876 Y1.9727 I-0.739 J-0.0591
G3 X2.612 Y2.1208 I-0.4031 J-0.1127
G3 X2.2693 Y2.2817 I-0.3339 J-0.2657
G3 X1.9511 Y2.1543 I-0.0081 J-0.4411
G3 X1.8483 Y1.9985 I0.3173 J-0.3209
G3 X1.8481 Y1.9979 I0.0837 J-0.0329
G3 X1.811 Y1.8242 I0.5295 J-0.204
G3 X1.8326 Y1.7607 I0.0898 J-0.0048
G1 X1.8629 Y1.7868
G3 X1.9008 Y1.7694 I0.0379 J0.0326
G1 X2.6246
G3 X2.6745 Y1.8234 I0.0 J0.05
G3 X2.6492 Y1.9618 I-0.6992 J-0.0559
G3 X2.5807 Y2.0959 I-0.3647 J-0.1018
G3 X2.2693 Y2.2417 I-0.3026 J-0.2408
G3 X1.9791 Y2.126 I-0.0082 J-0.4011
G1 Y2.1259
G3 X1.8855 Y1.9839 I0.2892 J-0.2925
G3 X1.8854 Y1.9836 I0.0465 J-0.0183
G3 X1.8508 Y1.8221 I0.4922 J-0.1897
G3 X1.8629 Y1.7868 I0.0499 J-0.0027
G1 X1.8732 Y1.7274
G3 X1.7986 Y1.6347 I0.0154 J-0.0887
G3 X1.8341 Y1.437 I0.7608 J0.0345
G3 X1.9437 Y1.2501 I0.4696 J0.1497
G3 X1.9438 Y1.25 I0.0657 J0.0615
G3 X2.2802 Y1.108 I0.328 J0.3077
G3 X2.5393 Y1.1885 I0.0094 J0.4269
G3 X2.5414 Y1.19 I-0.0526 J0.073
G3 X2.6458 Y1.3058 I-0.2589 J0.3386
G3 X2.679 Y1.3665 I-0.56 J0.3458
G1 X2.7261 Y1.3606
G2 X2.6996 Y1.3122 I-0.4853 J0.2341
G2 X2.5962 Y1.1992 I-0.3582 J0.224
G2 X2.4507 Y1.1287 I-0.2554 J0.3416
G2 X2.28 Y1.1074 I-0.1645 J0.6236
G3 X2.2779 I-0.0009 J-0.09
G2 X2.0649 Y1.1418 I-0.0085 J0.6234
G2 X1.893 Y1.2537 I0.1518 J0.4213
G2 X1.7833 Y1.447 I0.3536 J0.3285
G2 X1.7515 Y1.6827 I0.7794 J0.2253
G3 Y1.6851 I-0.09 J0.0012
G2 X1.7837 Y1.9294 I0.8581 J0.011
G2 X1.8963 Y2.1309 I0.4816 J-0.1368
G2 X2.062 Y2.2457 I0.3381 J-0.3107
G2 X2.2658 Y2.2824 I0.1968 J-0.5092
G3 X2.2681 I0.0012 J0.09
G2 X2.4651 Y2.2465 I0.0066 J-0.5219
G2 X2.6254 Y2.1346 I-0.1706 J-0.4152
G2 X2.7351 Y1.9376 I-0.3607 J-0.33
G2 X2.7664 Y1.7287 I-0.8114 J-0.2284
G1 X1.8885
G3 X1.8732 Y1.7274 I0.0 J-0.09
G1 X1.88 Y1.688
G3 X1.8386 Y1.6365 I0.0085 J-0.0493
G3 X1.8722 Y1.4492 I0.7208 J0.0327
G3 X1.9729 Y1.2774 I0.4314 J0.1375
G3 X2.2803 Y1.148 I0.2988 J0.2803
G3 X2.5159 Y1.221 I0.0094 J0.3869
G3 X2.5171 Y1.2218 I-0.0292 J0.0406
G3 X2.6118 Y1.3268 I-0.2346 J0.3069
G3 X2.6547 Y1.4098 I-0.5259 J0.3249
G1 X2.7836 Y1.3938
G2 X2.7336 Y1.2911 I-0.5428 J0.2009
G2 X2.6202 Y1.1672 I-0.3922 J0.245
G2 X2.461 Y1.09 I-0.2794 J0.3735
G2 X2.2796 Y1.0674 I-0.1748 J0.6623
G3 X2.2785 I-0.0005 J-0.05
G2 X2.0516 Y1.1041 I-0.0091 J0.6634
G2 X1.8639 Y1.2262 I0.1652 J0.459
G2 X1.7449 Y1.4358 I0.3828 J0.3559
G2 X1.7115 Y1.6832 I0.8178 J0.2364
G3 Y1.6845 I-0.05 J0.0006
G2 X1.7453 Y1.9403 I0.8981 J0.0115
G2 X1.8668 Y2.1579 I0.5201 J-0.1477
G2 X2.0473 Y2.2829 I0.3675 J-0.3378
G2 X2.2663 Y2.3224 I0.2115 J-0.5464
G3 X2.2676 I0.0006 J0.05
G2 X2.48 Y2.2836 I0.0071 J-0.5619
G2 X2.6549 Y2.1616 I-0.1855 J-0.4523
G2 X2.7736 Y1.9485 I-0.3902 J-0.357
G2 X2.8066 Y1.698 I-0.8499 J-0.2392
G3 Y1.6977 I0.05 J-0.0006
G2 X2.8065 Y1.6887 I-2.1431 J0.016
G1 X1.8885
G3 X1.88 Y1.688 I0.0 J-0.05
G0 Z90.0
G0 X3.2527 Y2.013
G1 Z0.0
G1 Y2.0356
G3 X3.2586 Y2.0322 I0.0678 J0.1109
G3 X3.2544 Y2.0187 I0.3431 J-0.1149
G3 X3.2527 Y2.013 I0.9456 J-0.285
G1 X3.291 Y2.0017
G3 X3.2524 Y1.725 I0.9089 J-0.268
G1 Y1.1367
G1 X3.2127
G1 Y2.2531
G1 X3.2304
G1 Y2.1465
G3 X3.3118 Y2.057 I0.09 J0.0
G3 X3.2927 Y2.0073 I0.29 J-0.1397
G3 X3.291 Y2.0017 I0.9073 J-0.2736
G0 Z90.0
G0 X3.4662 Y2.209
G1 Z0.0
G2 X3.5126 Y2.2556 I0.2089 J-0.1615
G2 X3.5999 Y2.2824 I0.0876 J-0.1301
G2 X3.7151 Y2.2588 I-0.0097 J-0.3407
G1 X3.7002 Y2.2186
G3 X3.5918 Y2.2353 I-0.1156 J-0.3885
G3 X3.591 I-0.0016 J-0.09
G3 X3.4662 Y2.209 I-0.0025 J-0.2974
G1 X3.4826 Y2.1726
G3 X3.4302 Y2.1409 I0.1058 J-0.2346
G3 X3.3311 Y1.9959 I0.1715 J-0.2237
G3 X3.2924 Y1.7252 I0.8689 J-0.2623
G1 Y1.0967
G1 X3.1727
G1 Y2.2931
G1 X3.2704
G1 Y2.1465
G3 X3.3644 Y2.1228 I0.05 J0.0
G2 X3.4218 Y2.2158 I0.8365 J-0.4521
G3 X3.4224 Y2.2167 I-0.041 J0.0287
G2 X3.489 Y2.288 I0.2526 J-0.1691
G2 X3.6005 Y2.3224 I0.1111 J-0.1624
G2 X3.7656 Y2.2797 I-0.0103 J-0.3807
G1 X3.724 Y2.1678
G3 X3.5911 Y2.1953 I-0.1394 J-0.3377
G3 X3.5906 I-0.0009 J-0.05
G3 X3.4826 Y2.1726 I-0.0022 J-0.2574
G0 Z90.0
G0 X4.8331 Y2.6552
G1 Z0.0
G1 Y2.7062
G1 X4.9659
G1 X4.9699 Y2.6943
G3 X4.8331 Y2.6552 I-0.0386 J-0.1241
G0 Z90.0
G0 X6.174 Y2.6742
G1 Z0.0
G1 X6.185 Y2.7062
G1 X6.2809
G1 Y2.6296
G3 X6.174 Y2.6742 I-0.0983 J-0.0851
G1 X6.1766 Y2.6343
G3 X6.0976 Y2.574 I0.006 J-0.0898
G1 X6.0559 Y2.454
G1 X6.1565 Y2.7462
G1 X6.3209
G1 Y1.1367
G1 X6.2726
G1 Y2.5445
G3 X6.1766 Y2.6343 I-0.09 J0.0
G0 Z90.0
G0 X5.5435 Y1.1767
G1 Z0.0
G1 X5.5421
G1 X5.542 Y1.177
G3 X5.5435 Y1.1767 I0.0266 J0.1272
G1 Y1.1367
G1 X5.5134
G1 X5.0166 Y2.5991
G3 X4.8414 Y2.5701 I-0.0852 J-0.029
G1 Y1.1367
G1 X4.7931
G1 Y2.7462
G1 X4.9947
G1 X5.3978 Y1.5406
G2 X5.4826 Y1.2775 I-12.9693 J-4.3289
G3 X5.636 Y1.2447 I0.0859 J0.0268
G1 X5.5985 Y1.1367
G1 X5.5435
G1 Y1.0967
G1 X5.4848
G1 X4.9787 Y2.5862
G3 X4.8814 Y2.5701 I-0.0473 J-0.0161
G1 Y1.0967
G1 X4.7531
G1 Y2.7862
G1 X5.0235
G1 X5.4357 Y1.5533
G2 X5.5208 Y1.2894 I-13.0072 J-4.3416
G3 X5.6162 Y1.2891 I0.0477 J0.0149
G2 X5.711 Y1.5748 I12.2326 J-3.9016
G1 X5.7111 Y1.5749
G1 X6.1279 Y2.7862
G1 X6.3609
G1 Y1.0967
G1 X6.2326
G1 Y2.5445
G3 X6.1353 Y2.5609 I-0.05 J0.0
G1 X5.627 Y1.0967
G1 X5.5435
G0 Z90.0
G0 X5.8383 Y-0.0863
G1 Z0.0
G1 X5.8639
G1 Y-0.1548
G1 X5.8383
G1 Y-0.0863
G1 Y-0.0463
G1 X5.9039
G1 Y-0.1948
G1 X5.7983
G1 Y-0.0463
G1 X5.8383
G1 Y-0.0063
G1 X5.9439
G1 Y-0.2348
G1 X5.7583
G1 Y-0.0063
G1 X5.8383
G0 Z90.0
G0 Y-0.7274
G1 Z0.0
G1 X5.8639
G1 Y-2.1527
G1 X5.8383
G1 Y-0.7274
G1 Y-0.6874
G1 X5.9039
G1 Y-2.1927
G1 X5.7983
G1 Y-0.6874
G1 X5.8383
G1 Y-0.6474
G1 X5.9439
G1 Y-2.2327
G1 X5.7583
G1 Y-0.6474
G1 X5.8383
G0 Z90.0
G0 X6.5956 Y-0.9989
G1 Z0.0
G3 X6.6011 Y-1.0021 I0.0871 J0.146
G3 X6.5958 Y-1.0188 I0.4473 J-0.1489
G3 X6.5956 Y-1.0197 I1.2302 J-0.3708
G1 Y-0.9989
G1 X6.5556
G1 Y-0.8803
G3 X6.6525 Y-0.9794 I0.1271 J0.0274
G3 X6.6342 Y-1.0302 I0.3958 J-0.1716
G3 X6.5812 Y-1.401 I1.1919 J-0.3594
G1 Y-2.1527
G1 X6.5556
G1 Y-0.9989
G1 X6.5156
G1 Y-0.6874
G1 X6.5926
G1 Y-0.8529
G3 X6.723 Y-0.9334 I0.09 J0.0
G3 X6.6725 Y-1.0416 I0.3254 J-0.2176
G3 X6.6212 Y-1.4008 I1.1535 J-0.348
G1 Y-2.1927
G1 X6.5156
G1 Y-0.9989
G0 Z90.0
G0 X6.9175 Y-0.741
G1 Z0.0
G2 X6.9401 Y-0.7216 I0.2261 J-0.2406
G2 X7.0458 Y-0.6893 I0.1062 J-0.1585
G2 X7.1791 Y-0.7146 I-0.0125 J-0.4299
G1 X7.1683 Y-0.7435
G3 X7.0356 Y-0.7245 I-0.1422 J-0.5209
G3 X7.0344 I-0.0023 J-0.13
G3 X6.9175 Y-0.741 I-0.0033 J-0.3996
G1 X6.8901 Y-0.7118
G2 X6.9166 Y-0.6892 I0.2535 J-0.2698
G2 X7.0463 Y-0.6493 I0.1297 J-0.1909
G2 X7.23 Y-0.6923 I-0.013 J-0.4699
G1 X7.1926 Y-0.793
G3 X7.0349 Y-0.7645 I-0.1665 J-0.4714
G3 X7.0341 I-0.0016 J-0.09
G3 X6.8101 Y-0.8404 I-0.003 J-0.3596
G3 X6.7765 Y-0.8694 I0.2383 J-0.3106
G2 X6.835 Y-0.7772 I1.0509 J-0.6022
G3 X6.836 Y-0.7757 I-0.0737 J0.0516
G2 X6.8901 Y-0.7118 I0.3076 J-0.2059
G1 X6.8628 Y-0.6827
G2 X6.893 Y-0.6569 I0.2809 J-0.2989
G2 X7.0469 Y-0.6093 I0.1533 J-0.2233
G2 X7.2799 Y-0.6727 I-0.0136 J-0.5099
G1 X7.2158 Y-0.8454
G3 X7.0342 Y-0.8045 I-0.1897 J-0.419
G3 X7.0338 I-0.0009 J-0.05
G3 X6.8345 Y-0.8721 I-0.0027 J-0.3196
G3 X6.7109 Y-1.053 I0.2138 J-0.2789
G3 X6.6612 Y-1.4006 I1.1152 J-0.3367
G1 Y-2.2327
G1 X6.4756
G1 Y-0.6474
G1 X6.6326
G1 Y-0.8529
G3 X6.7266 Y-0.8767 I0.05 J0.0
G2 X6.8022 Y-0.7543 I1.1007 J-0.5949
G3 X6.8028 Y-0.7534 I-0.041 J0.0287
G2 X6.8628 Y-0.6827 I0.3409 J-0.2282
G0 Z90.0
G0 X7.5876 Y-1.3756
G1 Z0.0
G3 X7.5966 Y-1.3873 I0.1393 J0.0974
G3 X7.5865 Y-1.3973 I0.1144 J-0.1258
G2 X7.5876 Y-1.3756 I1.0618 J-0.0413
G1 X7.6203 Y-1.3526
G3 X7.6639 Y-1.3919 I0.1065 J0.0744
G3 X7.5811 Y-1.519 I0.047 J-0.1212
G3 X7.6278 Y-1.7793 I1.002 J0.0455
G3 X7.7731 Y-2.0271 I0.6228 J0.1985
G3 X7.7732 Y-2.0273 I0.095 J0.0888
G3 X7.8909 Y-2.1243 I0.4359 J0.4089
G2 X7.7262 Y-2.0047 I0.2467 J0.513
G2 X7.5866 Y-1.7588 I0.4503 J0.4181
G2 X7.5458 Y-1.456 I1.0007 J0.2892
G3 Y-1.4527 I-0.13 J0.0017
G2 X7.5872 Y-1.1388 I1.1025 J0.0141
G2 X7.7306 Y-0.8821 I0.6135 J-0.1743
G2 X7.7966 Y-0.8205 I0.4299 J-0.3952
G3 X7.7831 Y-0.8335 I0.3987 J-0.4301
G3 X7.6465 Y-1.0407 I0.4216 J-0.4265
G3 X7.6462 Y-1.0415 I0.1209 J-0.0475
G3 X7.5971 Y-1.2713 I0.7004 J-0.2699
G3 X7.6203 Y-1.3526 I0.1297 J-0.0069
G0 Z90.0
G0 X8.7446 Y-1.3831
G1 Z0.0
G3 X8.7974 Y-1.2679 I-0.0767 J0.1049
G3 X8.7623 Y-1.0753 I-0.9737 J-0.0778
G3 X8.6708 Y-0.8902 I-0.5366 J-0.1501
G2 X8.799 Y-1.128 I-0.4708 J-0.4073
G2 X8.8388 Y-1.3831 I-1.0423 J-0.2934
G1 X8.7446
G0 Z90.0
G0 X8.7462 Y-1.8811
G1 Z0.0
G1 X8.7799 Y-1.8852
G2 X8.7542 Y-1.9307 I-0.611 J0.3149
G2 X8.6231 Y-2.0741 I-0.4547 J0.2843
G2 X8.5429 Y-2.1238 I-0.3242 J0.4336
G3 X8.5646 Y-2.1089 I-0.3105 J0.4757
G3 X8.5675 Y-2.1067 I-0.076 J0.1055
G3 X8.7065 Y-1.9527 I-0.3445 J0.4506
G3 X8.7462 Y-1.8811 I-0.7391 J0.4564
G0 Z90.0
G0 X8.6795 Y-1.3674
G1 Z0.0
G3 X8.7575 Y-1.271 I-0.0116 J0.0892
G3 X8.7238 Y-1.0863 I-0.9338 J-0.0747
G3 X8.6303 Y-0.9032 I-0.4981 J-0.1391
G3 X8.206 Y-0.7043 I-0.4129 J-0.3286
G3 X7.8112 Y-0.862 I-0.0106 J-0.5464
G3 X7.6838 Y-1.0553 I0.3935 J-0.398
G3 X7.6836 Y-1.0558 I0.0837 J-0.0329
G3 X7.637 Y-1.2734 I0.6631 J-0.2555
G3 X7.7268 Y-1.3681 I0.0898 J-0.0048
G1 X8.6679
G3 X8.6795 Y-1.3674 I0.0 J0.0899
G1 X8.6743 Y-1.3278
G3 X8.7177 Y-1.2742 I-0.0064 J0.0496
G3 X8.6854 Y-1.0972 I-0.894 J-0.0715
G3 X8.5991 Y-0.9281 I-0.4597 J-0.1283
G3 X8.206 Y-0.7442 I-0.3817 J-0.3038
G3 X7.8393 Y-0.8904 I-0.0107 J-0.5065
G3 X7.7209 Y-1.0699 I0.3654 J-0.3696
G3 X7.7208 Y-1.0702 I0.0465 J-0.0183
G3 X7.6769 Y-1.2755 I0.6259 J-0.2412
G3 X7.7268 Y-1.3282 I0.0499 J-0.0027
G1 X8.6679
G3 X8.6743 Y-1.3278 I0.0 J0.05
G0 Z90.0
G0 Y-1.4231
G1 Z0.0
G1 X7.711
G3 X7.621 Y-1.5172 I0.0 J-0.09
G3 X7.6659 Y-1.7671 I0.962 J0.0437
G3 X7.8023 Y-1.9998 I0.5847 J0.1864
G3 X7.8024 Y-1.9999 I0.0657 J0.0615
G3 X8.2202 Y-2.176 I0.4067 J0.3815
G3 X8.5412 Y-2.0764 I0.0122 J0.5279
G3 X8.5432 Y-2.0749 I-0.0526 J0.073
G3 X8.6724 Y-1.9317 I-0.3202 J0.4188
G3 X8.7224 Y-1.8378 I-0.705 J0.4354
G1 X8.8394 Y-1.8523
G2 X8.7882 Y-1.9518 I-0.6706 J0.282
G2 X8.6471 Y-2.1061 I-0.4886 J0.3054
G2 X8.4487 Y-2.2022 I-0.3482 J0.4656
G2 X8.2196 Y-2.2308 I-0.2208 J0.8368
G3 X8.2175 I-0.0009 J-0.09
G2 X7.9312 Y-2.1845 I-0.0115 J0.8375
G2 X7.6971 Y-2.0322 I0.2064 J0.5732
G2 X7.5482 Y-1.7699 I0.4794 J0.4455
G2 X7.5058 Y-1.4555 I1.0391 J0.3004
G3 Y-1.4532 I-0.09 J0.0012
G2 X7.5487 Y-1.1279 I1.1425 J0.0147
G2 X7.7011 Y-0.8551 I0.652 J-0.1852
G2 X7.9265 Y-0.6989 I0.4594 J-0.4222
G2 X8.2017 Y-0.6493 I0.2657 J-0.6871
G3 X8.204 I0.0012 J0.09
G2 X8.4705 Y-0.6979 I0.009 J-0.7054
G2 X8.6888 Y-0.8502 I-0.2318 J-0.5648
G2 X8.8375 Y-1.1171 I-0.4888 J-0.4472
G2 X8.8795 Y-1.4231 I-1.0808 J-0.3042
G1 X8.6743
G1 Y-1.4631
G1 X7.711
G3 X7.661 Y-1.5153 I0.0 J-0.05
G3 X7.704 Y-1.7549 I0.9221 J0.0418
G3 X7.8315 Y-1.9725 I0.5466 J0.1742
G1 X7.8316 Y-1.9726
G3 X8.2203 Y-2.136 I0.3776 J0.3542
G3 X8.5178 Y-2.044 I0.0121 J0.4879
G3 X8.5189 Y-2.0431 I-0.0292 J0.0406
G3 X8.6384 Y-1.9107 I-0.2959 J0.387
G3 X8.6975 Y-1.7944 I-0.6709 J0.4145
G1 X8.8949 Y-1.8189
G2 X8.8222 Y-1.9729 I-0.7261 J0.2486
G2 X8.6711 Y-2.138 I-0.5226 J0.3265
G2 X8.459 Y-2.2409 I-0.3722 J0.4976
G2 X8.2192 Y-2.2708 I-0.231 J0.8755
G3 X8.2181 I-0.0005 J-0.05
G2 X7.9179 Y-2.2222 I-0.012 J0.8775
G2 X7.668 Y-2.0596 I0.2197 J0.6109
G2 X7.5098 Y-1.7811 I0.5085 J0.473
G2 X7.4658 Y-1.455 I1.0775 J0.3115
G3 Y-1.4537 I-0.05 J0.0006
G2 X7.5103 Y-1.117 I1.1825 J0.0152
G2 X7.6716 Y-0.828 I0.6905 J-0.1961
G2 X7.9118 Y-0.6617 I0.4889 J-0.4493
G2 X8.2023 Y-0.6093 I0.2805 J-0.7243
G3 X8.2035 I0.0006 J0.05
G2 X8.4854 Y-0.6608 I0.0095 J-0.7454
G2 X8.7183 Y-0.8232 I-0.2467 J-0.6019
G2 X8.876 Y-1.1063 I-0.5183 J-0.4742
G2 X8.9194 Y-1.4363 I-1.1193 J-0.3151
G3 Y-1.4365 I0.05 J-0.0006
G2 X8.9191 Y-1.4631 I-2.8011 J0.0209
G1 X8.6743
G0 Z90.0
G0 X8.8019 Y1.1367
G1 Z0.0
G1 Y2.2531
G1 X8.8416
G1 Y1.1367
G1 X8.8019
G1 Y1.0967
G1 X8.7619
G1 Y2.2931
G1 X8.8816
G1 Y1.0967
G1 X8.8019
G0 Z90.0
G0 X8.2837 Y1.1367
G1 Z0.0
G1 X8.244
G1 Y1.835
G3 X8.2391 Y1.9444 I-1.0975 J0.0054
G3 X8.2133 Y2.0653 I-0.4844 J-0.0402
G3 X8.2124 Y2.0677 I-0.0849 J-0.0298
G3 X8.0821 Y2.2194 I-0.2777 J-0.1066
G3 X7.884 Y2.272 I-0.1911 J-0.321
G3 X7.8023 Y2.2656 I-0.0061 J-0.4483
G2 X7.9289 Y2.2824 I0.1184 J-0.4068
G3 X7.9317 I0.0017 J0.09
G2 X8.1101 Y2.2469 I0.0051 J-0.4408
G3 X8.1113 Y2.2464 I0.0354 J0.0828
G2 X8.1752 Y2.2114 I-0.1243 J-0.3025
G2 X8.2198 Y2.1676 I-0.1108 J-0.1576
G2 X8.2729 Y2.0415 I-0.2757 J-0.1904
G2 X8.2818 Y1.9484 I-0.6756 J-0.1115
G3 X8.2819 Y1.9474 I0.09 J0.0024
G2 X8.2837 Y1.844 I-2.5021 J-0.097
G3 Y1.8438 I0.09 J-0.0002
G1 Y1.1367
G0 Z90.0
G0 X7.4503 Y2.029
G1 Z0.0
G1 Y2.0478
G3 X7.4562 Y2.0444 I0.0678 J0.1109
G3 X7.4503 Y2.029 I0.538 J-0.2138
G1 X7.4103
G1 Y2.2531
G1 X7.428
G1 Y2.1588
G3 X7.511 Y2.069 I0.09 J0.0
G3 X7.5057 Y2.0584 I0.2868 J-0.1492
G3 X7.5054 Y2.0577 I0.0813 J-0.0386
G3 X7.46 Y1.9021 I0.4887 J-0.2271
G3 X7.45 Y1.7544 I0.9927 J-0.1412
G1 Y1.1367
G1 X7.4103
G1 Y2.029
G1 X7.3703
G1 Y2.2931
G1 X7.468
G1 Y2.1588
G3 X7.56 Y2.1317 I0.05 J0.0
G2 X7.7183 Y2.276 I0.3518 J-0.2269
G2 X7.9297 Y2.3224 I0.2024 J-0.4172
G3 X7.9312 I0.001 J0.05
G2 X8.1258 Y2.2837 I0.0055 J-0.4808
G3 X8.1265 Y2.2834 I0.0197 J0.046
G2 X8.1982 Y2.2441 I-0.1395 J-0.3395
G2 X8.2524 Y2.1908 I-0.1338 J-0.1904
G2 X8.3123 Y2.0486 I-0.3083 J-0.2136
G2 X8.3218 Y1.9495 I-0.715 J-0.1186
G3 Y1.9489 I0.05 J0.0013
G2 X8.3237 Y1.8439 I-2.5421 J-0.0985
G3 Y1.8438 I0.05 J-0.0001
G1 Y1.0967
G1 X8.204
G1 Y1.8351
G3 X8.1993 Y1.9408 I-1.0575 J0.0053
G3 X8.1756 Y2.052 I-0.4445 J-0.0366
G3 X8.1751 Y2.0534 I-0.0472 J-0.0166
G3 X8.062 Y2.1849 I-0.2403 J-0.0923
G3 X7.8841 Y2.232 I-0.171 J-0.2864
G3 X7.6083 Y2.1304 I-0.0062 J-0.4083
G3 X7.6078 Y2.1299 I0.033 J-0.0376
G3 X7.5419 Y2.0412 I0.19 J-0.2101
G3 X7.5417 Y2.0409 I0.0452 J-0.0214
G3 X7.4996 Y1.8966 I0.4525 J-0.2103
G3 X7.49 Y1.7545 I0.9531 J-0.1358
G1 Y1.0967
G1 X7.3703
G1 Y2.029
G0 Z90.0
G0 X6.8958
G1 Z0.0
G1 Y1.1367
G1 X6.8561
G1 Y2.2531
G1 X6.8958
G1 Y2.029
G1 X6.9358
G1 Y1.0967
G1 X6.8161
G1 Y2.2931
G1 X6.9358
G1 Y2.029
G0 Z90.0
G0 X6.8958 Y2.6736
G1 Z0.0
G1 X6.8561
G1 Y2.7462
G1 X6.8958
G1 Y2.6736
G1 Y2.6336
G1 X6.8161
G1 Y2.7862
G1 X6.9358
G1 Y2.6336
G1 X6.8958
G0 Z90.0
G0 X8.8019 Y2.6736
G1 Z0.0
G1 Y2.7462
G1 X8.8416
G1 Y2.6736
G1 X8.8019
G1 Y2.6336
G1 X8.7619
G1 Y2.7862
G1 X8.8816
G1 Y2.6336
G1 X8.8019
G0 Z90.0
G0 X4.1449 Y-0.8071
G1 Z0.0
G3 X4.064 Y-0.9228 I0.3219 J-0.3112
G3 X4.0413 Y-0.9729 I0.7044 J-0.3496
G1 X4.0203 Y-0.9701
G2 X4.079 Y-0.87 I0.4046 J-0.1699
G2 X4.1449 Y-0.8071 I0.2634 J-0.2101
G0 Z90.0
G0 X4.1385 Y-1.5209
G1 Z0.0
G3 X4.0381 Y-1.6244 I0.2153 J-0.3092
G3 X3.9771 Y-1.8299 I0.3091 J-0.2034
G3 X4.1085 Y-2.1197 I0.3741 J-0.0051
G3 X4.109 Y-2.1202 I0.0843 J0.0988
G3 X4.169 Y-2.1625 I0.2724 J0.323
G2 X4.038 Y-2.0888 I0.1083 J0.3461
G2 X3.9323 Y-1.842 I0.2146 J0.2379
G3 X3.9324 Y-1.8368 I-0.1299 J0.0036
G2 X3.9723 Y-1.6749 I0.3321 J0.004
G3 X3.9724 Y-1.6747 I-0.1144 J0.0618
G2 X4.0786 Y-1.5555 I0.3036 J-0.1637
G2 X4.1385 Y-1.5209 I0.3177 J-0.4795
G0 Z90.0
G0 X5.0719 Y-1.9213
G1 Z0.0
G3 X5.082 Y-1.9014 I-0.5472 J0.2899
G3 X5.0848 Y-1.8954 I-0.1529 J0.0741
G3 X5.0968 Y-1.866 I-0.5973 J0.2614
G3 X5.0993 Y-1.9376 I2.562 J0.0539
G3 X5.0719 Y-1.9213 I-0.1004 J-0.1372
G1 X5.0366 Y-1.9026
G3 X5.046 Y-1.8839 I-0.5118 J0.2712
G3 X5.0481 Y-1.8794 I-0.1169 J0.0566
G3 X5.0957 Y-1.7019 I-0.5606 J0.2454
G3 X5.105 Y-1.5412 I-1.2443 J0.1531
G1 Y-1.4369
G3 X5.0412 Y-1.3251 I-0.1299 J0.0
G3 X5.1051 Y-1.2169 I-0.0661 J0.1119
G3 X5.1067 Y-1.1404 I-5.0349 J0.1454
G3 X5.0881 Y-0.9769 I-0.6445 J0.0094
G3 X4.9848 Y-0.7979 I-0.3484 J-0.0817
G3 X4.9799 Y-0.7935 I-0.0891 J-0.0947
G3 X4.8397 Y-0.7097 I-0.3213 J-0.3784
G2 X4.918 Y-0.7323 I-0.1388 J-0.6276
G2 X5.0029 Y-0.773 I-0.1732 J-0.4699
G3 X5.0035 Y-0.7734 I0.067 J0.1114
G2 X5.0602 Y-0.8211 I-0.1165 J-0.1961
G2 X5.1216 Y-0.9549 I-0.248 J-0.1948
G2 X5.1317 Y-1.0668 I-0.8368 J-0.1322
G3 X5.1318 Y-1.0684 I0.13 J0.0031
G2 X5.1339 Y-1.1954 I-3.3305 J-0.1196
G3 Y-1.1957 I0.13 J-0.0003
G1 Y-1.5765
G3 X5.1363 Y-1.8309 I11.8991 J-0.0173
G3 X5.1522 Y-2.0958 I2.5225 J0.0187
G3 X5.1535 Y-2.1047 I0.1292 J0.0146
G3 X5.164 Y-2.1527 I0.7682 J0.1415
G1 X5.1452
G2 X5.1284 Y-2.0631 I0.4596 J0.1326
G3 X5.0114 Y-1.9454 I-0.1295 J-0.0117
G3 X5.0366 Y-1.9026 I-0.4867 J0.314
G1 X5.0012 Y-1.8839
G3 X5.01 Y-1.8665 I-0.4765 J0.2524
G3 X5.0115 Y-1.8633 I-0.0809 J0.0392
G3 X5.0559 Y-1.6973 I-0.524 J0.2293
G3 X5.065 Y-1.5414 I-1.2046 J0.1484
G1 Y-1.4369
G3 X4.9429 Y-1.3529 I-0.0899 J0.0
G2 X4.7271 Y-1.4154 I-0.4788 J1.2493
G3 X4.7263 Y-1.4156 I0.0177 J-0.0882
G2 X4.4961 Y-1.4558 I-0.7028 J3.3498
G3 X4.496 I0.0124 J-0.0891
G3 X4.3651 Y-1.4783 I0.3055 J-2.1706
G3 X4.2265 Y-1.5182 I0.1443 J-0.7602
G3 X4.2251 Y-1.5188 I0.0329 J-0.0837
G3 X4.0715 Y-1.6463 I0.1287 J-0.3112
G3 X4.0171 Y-1.8301 I0.2757 J-0.1815
G3 X4.1344 Y-2.0893 I0.3341 J-0.005
G3 X4.1348 Y-2.0896 I0.0584 J0.0684
G3 X4.2916 Y-2.169 I0.2466 J0.2924
G3 X4.4464 Y-2.187 I0.1486 J0.605
G3 X4.783 Y-2.1048 I0.0109 J0.6852
G3 X4.7834 Y-2.1045 I-0.0427 J0.0791
G3 X5.0012 Y-1.8839 I-0.2586 J0.4731
G1 X4.9659 Y-1.8652
G3 X4.9741 Y-1.8491 I-0.4412 J0.2338
G3 X4.9749 Y-1.8473 I-0.045 J0.0218
G3 X5.0163 Y-1.6926 I-0.4874 J0.2133
G3 X5.0251 Y-1.5415 I-1.1649 J0.1438
G1 Y-1.4369
G3 X4.9572 Y-1.3902 I-0.05 J0.0
G2 X4.735 Y-1.4546 I-0.4931 J1.2866
G3 X4.7345 Y-1.4547 I0.0098 J-0.049
G2 X4.5017 Y-1.4953 I-0.711 J3.3889
G1 X4.5016
G3 X4.3728 Y-1.5174 I0.2999 J-2.131
G3 X4.2411 Y-1.5554 I0.1366 J-0.721
G3 X4.2403 Y-1.5557 I0.0183 J-0.0465
G3 X4.1049 Y-1.6682 I0.1134 J-0.2743
G3 X4.0571 Y-1.8303 I0.2423 J-0.1596
G3 X4.1603 Y-2.0589 I0.2942 J-0.0048
G3 X4.1605 Y-2.0591 I0.0324 J0.038
G3 X4.3011 Y-2.1302 I0.2208 J0.2619
G3 X4.4465 Y-2.1471 I0.1391 J0.5662
G3 X4.764 Y-2.0696 I0.0108 J0.6453
G3 X4.7642 Y-2.0695 I-0.0238 J0.044
G3 X4.9659 Y-1.8652 I-0.2395 J0.4381
G0 Z90.0
G0 X4.9849 Y-1.9859
G1 Z0.0
G3 X4.9392 Y-2.0075 I0.014 J-0.0889
G2 X4.6599 Y-2.1814 I-0.6504 J0.7333
G2 X4.3792 Y-2.2308 I-0.2745 J0.7375
G3 X4.3773 I-0.0007 J-0.09
G2 X4.1755 Y-2.2059 I-0.0094 J0.754
G3 X4.1753 I-0.023 J-0.087
G2 X4.0114 Y-2.1187 I0.102 J0.3895
G2 X3.8924 Y-1.8409 I0.2412 J0.2678
G3 Y-1.8373 I-0.09 J0.0025
G2 X3.9371 Y-1.6558 I0.3721 J0.0045
G3 X3.9372 Y-1.6557 I-0.0792 J0.0428
G2 X4.0561 Y-1.5225 I0.3388 J-0.1826
G2 X4.2338 Y-1.4417 I0.3402 J-0.5126
G2 X4.4754 Y-1.401 I0.4624 J-2.009
G3 X4.4761 Y-1.4009 I-0.0096 J0.0895
G3 X4.7377 Y-1.3631 I-0.5457 J4.6932
G3 X5.0028 Y-1.2988 I-0.294 J1.7909
G3 X5.0651 Y-1.2157 I-0.0277 J0.0856
G3 X5.0667 Y-1.1398 I-4.9949 J0.1443
G3 X5.0492 Y-0.9862 I-0.6045 J0.0089
G3 X4.9574 Y-0.827 I-0.3095 J-0.0724
G3 X4.954 Y-0.824 I-0.0617 J-0.0656
G3 X4.7625 Y-0.7275 I-0.2954 J-0.3479
G3 X4.5704 Y-0.7058 I-0.1836 J-0.7647
G3 X4.4003 Y-0.7205 I-0.008 J-0.8992
G3 X4.2212 Y-0.793 I0.0752 J-0.4432
G3 X4.217 Y-0.7961 I0.0509 J-0.0742
G3 X4.1 Y-0.9404 I0.2498 J-0.3222
G3 X4.0672 Y-1.0168 I0.6685 J-0.3319
G1 X3.9652 Y-1.0029
G2 X3.981 Y-0.9605 I0.7341 J-0.2499
G3 X3.9811 Y-0.9604 I-0.0834 J0.0339
G2 X4.0476 Y-0.8452 I0.4438 J-0.1796
G2 X4.1394 Y-0.7624 I0.2948 J-0.2349
G2 X4.2586 Y-0.7047 I0.3061 J-0.4799
G2 X4.6101 Y-0.6493 I0.3334 J-0.9729
G3 X4.6122 I0.0016 J0.09
G2 X4.7785 Y-0.6589 I0.0067 J-1.3292
G3 X4.779 Y-0.659 I0.0108 J0.0893
G2 X4.9317 Y-0.6947 I-0.0781 J-0.6783
G2 X5.0235 Y-0.7387 I-0.1869 J-0.5075
G3 X5.0239 Y-0.739 I0.0464 J0.0771
G2 X5.0912 Y-0.7957 I-0.1369 J-0.2305
G2 X5.161 Y-0.9479 I-0.279 J-0.2202
G2 X5.1717 Y-1.0659 I-0.8762 J-0.1392
G3 X5.1718 Y-1.0669 I0.09 J0.0022
G2 X5.1739 Y-1.1955 I-3.3705 J-0.1211
G3 Y-1.1957 I0.09 J-0.0002
G1 Y-1.5765
G3 X5.1763 Y-1.8303 I11.8591 J-0.0173
G3 X5.192 Y-2.0913 I2.4825 J0.0182
G3 X5.1929 Y-2.0975 I0.0894 J0.0101
G3 X5.217 Y-2.1927 I0.7289 J0.1343
G1 X5.116
G2 X5.0886 Y-2.0667 I0.4888 J0.1726
G3 X4.9849 Y-1.9859 I-0.0896 J-0.0081
G1 X4.9912 Y-2.0254
G3 X4.9657 Y-2.0374 I0.0078 J-0.0494
G2 X4.6745 Y-2.2187 I-0.677 J0.7632
G2 X4.3788 Y-2.2708 I-0.289 J0.7748
G3 X4.3778 I-0.0004 J-0.05
G2 X4.1653 Y-2.2446 I-0.0099 J0.794
G1 X4.1652
G2 X3.9848 Y-2.1486 I0.1122 J0.4282
G2 X3.8524 Y-1.8398 I0.2678 J0.2977
G3 Y-1.8378 I-0.05 J0.0014
G2 X3.9019 Y-1.6368 I0.4121 J0.005
G2 X4.0336 Y-1.4894 I0.374 J-0.2016
G2 X4.224 Y-1.4029 I0.3627 J-0.5457
G2 X4.4711 Y-1.3612 I0.4721 J-2.0478
G3 X4.4715 I-0.0054 J0.0497
G3 X4.7311 Y-1.3236 I-0.5411 J4.6535
G3 X4.9905 Y-1.2607 I-0.2873 J1.7515
G3 X5.0251 Y-1.2146 I-0.0154 J0.0476
G3 X5.0267 Y-1.1393 I-4.9549 J0.1431
G3 X5.0103 Y-0.9956 I-0.5645 J0.0083
G3 X4.93 Y-0.8562 I-0.2706 J-0.063
G3 X4.9281 Y-0.8545 I-0.0343 J-0.0364
G3 X4.7533 Y-0.7664 I-0.2695 J-0.3174
G3 X4.5704 Y-0.7458 I-0.1743 J-0.7258
G3 X4.4073 Y-0.7599 I-0.0081 J-0.8592
G3 X4.2438 Y-0.826 I0.0683 J-0.4038
G3 X4.2415 Y-0.8277 I0.0283 J-0.0412
G3 X4.1359 Y-0.958 I0.2253 J-0.2906
G3 X4.0945 Y-1.0609 I0.6326 J-0.3143
G1 X3.9131 Y-1.0362
G2 X3.9439 Y-0.9455 I0.7862 J-0.2167
G1 X3.944 Y-0.9454
G2 X4.0162 Y-0.8204 I0.4809 J-0.1946
G2 X4.1179 Y-0.7287 I0.3262 J-0.2597
G2 X4.2456 Y-0.6669 I0.3276 J-0.5136
G2 X4.6108 Y-0.6093 I0.3465 J-1.0107
G3 X4.612 I0.0009 J0.05
G2 X4.7833 Y-0.6192 I0.0069 J-1.3692
G3 X4.7835 Y-0.6193 I0.006 J0.0496
G2 X4.9453 Y-0.6571 I-0.0827 J-0.7181
G2 X5.0441 Y-0.7045 I-0.2005 J-0.5451
G3 X5.0444 Y-0.7046 I0.0258 J0.0428
G2 X5.1221 Y-0.7703 I-0.1573 J-0.2649
G2 X5.2004 Y-0.9409 I-0.3099 J-0.2455
G2 X5.2117 Y-1.0649 I-0.9156 J-0.1461
G3 Y-1.0655 I0.05 J0.0012
G2 X5.2139 Y-1.1956 I-3.4104 J-0.1225
G3 Y-1.1957 I0.05 J-0.0001
G1 Y-1.5765
G3 X5.2163 Y-1.8298 I11.8191 J-0.0173
G3 X5.2317 Y-2.0868 I2.4425 J0.0176
G3 X5.2322 Y-2.0902 I0.0497 J0.0056
G3 X5.2745 Y-2.2327 I0.6896 J0.127
G1 X5.0885
G2 X5.0487 Y-2.0703 I0.5163 J0.2126
G3 X4.9912 Y-2.0254 I-0.0498 J-0.0045
G0 Z90.0
G0 X2.1739 Y-1.0886
G1 Z0.0
G3 X2.1363 Y-1.1264 I0.1003 J-0.1373
G1 Y-1.0508
G3 X2.1739 Y-1.0886 I0.1379 J0.0995
G0 Z90.0
G0 X2.1363 Y-0.1314
G1 Z0.0
G1 Y-0.1263
G1 X2.1401
G3 X2.1363 Y-0.1314 I0.1341 J-0.1045
G1 X2.1688 Y-0.1548
G3 X2.1442 Y-0.2308 I0.1054 J-0.0761
G1 Y-0.9513
G3 X2.2742 Y-1.0813 I0.13 J0.0
G1 X3.236
G1 Y-1.0958
G1 X2.2742
G3 X2.1442 Y-1.2258 I0.0 J-0.13
G1 Y-2.1527
G1 X2.0963
G1 Y-0.0863
G1 X3.4058
G1 Y-0.1008
G1 X2.2742
G3 X2.1688 Y-0.1548 I0.0 J-0.13
G1 X2.2012 Y-0.1782
G3 X2.1842 Y-0.2308 I0.073 J-0.0527
G1 Y-0.9513
G3 X2.2742 Y-1.0413 I0.09 J0.0
G1 X3.276
G1 Y-1.1358
G1 X2.2742
G3 X2.1842 Y-1.2258 I0.0 J-0.09
G1 Y-2.1927
G1 X2.0563
G1 Y-0.0463
G1 X3.4458
G1 Y-0.1408
G1 X2.2742
G3 X2.2012 Y-0.1782 I0.0 J-0.09
G1 X2.2336 Y-0.2016
G3 X2.2242 Y-0.2308 I0.0405 J-0.0293
G1 Y-0.9513
G3 X2.2742 Y-1.0013 I0.05 J0.0
G1 X3.316
G1 Y-1.1758
G1 X2.2742
G3 X2.2242 Y-1.2258 I0.0 J-0.05
G1 Y-2.2327
G1 X2.0163
G1 Y-0.0063
G1 X3.4858
G1 Y-0.1808
G1 X2.2742
G3 X2.2336 Y-0.2016 I0.0 J-0.05
G0 Z90.0
G0 X0.6399 Y-0.7146
G1 Z0.0
G1 X0.6292 Y-0.7435
G3 X0.4965 Y-0.7245 I-0.1422 J-0.5209
G3 X0.4953 I-0.0023 J-0.13
G3 X0.3784 Y-0.741 I-0.0033 J-0.3996
G2 X0.4009 Y-0.7216 I0.2261 J-0.2406
G2 X0.5066 Y-0.6893 I0.1062 J-0.1585
G2 X0.6399 Y-0.7146 I-0.0125 J-0.4299
G1 X0.6774 Y-0.7285
G1 X0.6535 Y-0.793
G3 X0.4958 Y-0.7645 I-0.1665 J-0.4714
G3 X0.4949 I-0.0016 J-0.09
G3 X0.2709 Y-0.8404 I-0.003 J-0.3596
G3 X0.2373 Y-0.8694 I0.2383 J-0.3106
G2 X0.2958 Y-0.7772 I1.0509 J-0.6022
G3 X0.2969 Y-0.7757 I-0.0737 J0.0516
G2 X0.3774 Y-0.6892 I0.3076 J-0.2059
G2 X0.5072 Y-0.6493 I0.1297 J-0.1909
G2 X0.6909 Y-0.6923 I-0.013 J-0.4699
G1 X0.6774 Y-0.7285
G0 Z90.0
G0 X0.0619 Y-1.0021
G1 Z0.0
G3 X0.0567 Y-1.0188 I0.4473 J-0.1489
G3 X0.0564 Y-1.0197 I1.2302 J-0.3708
G1 Y-0.9989
G3 X0.0619 Y-1.0021 I0.0871 J0.146
G1 X0.0811 Y-0.967
G3 X0.1134 Y-0.9794 I0.0624 J0.1141
G3 X0.095 Y-1.0302 I0.3958 J-0.1716
G3 X0.042 Y-1.401 I1.1919 J-0.3594
G1 Y-2.1527
G1 X0.0164
G1 Y-0.8803
G3 X0.0811 Y-0.967 I0.1271 J0.0274
G1 X0.1003 Y-0.9319
G3 X0.1838 Y-0.9334 I0.0432 J0.079
G3 X0.1334 Y-1.0416 I0.3254 J-0.2176
G3 X0.082 Y-1.4008 I1.1535 J-0.348
G1 Y-2.1927
G1 X-0.0236
G1 Y-0.6874
G1 X0.0535
G1 Y-0.8529
G3 X0.1003 Y-0.9319 I0.09 J0.0
G1 X0.1195 Y-0.8968
G3 X0.1875 Y-0.8767 I0.024 J0.0439
G2 X0.263 Y-0.7543 I1.1007 J-0.5949
G3 X0.2636 Y-0.7534 I-0.041 J0.0287
G2 X0.3539 Y-0.6569 I0.3409 J-0.2282
G2 X0.5077 Y-0.6093 I0.1533 J-0.2233
G2 X0.7408 Y-0.6727 I-0.0136 J-0.5099
G1 X0.6767 Y-0.8454
G3 X0.4951 Y-0.8045 I-0.1897 J-0.419
G3 X0.4946 I-0.0009 J-0.05
G3 X0.2954 Y-0.8721 I-0.0027 J-0.3196
G3 X0.1717 Y-1.053 I0.2138 J-0.2789
G3 X0.122 Y-1.4006 I1.1152 J-0.3367
G1 Y-2.2327
G1 X-0.0636
G1 Y-0.6474
G1 X0.0935
G1 Y-0.8529
G3 X0.1195 Y-0.8968 I0.05 J0.0
G0 Z90.0
G0 X-0.6322 Y-1.1201
G1 Z0.0
G2 X-0.6299 Y-1.128 I-0.5967 J-0.1773
G2 X-0.5901 Y-1.3831 I-1.0423 J-0.2934
G1 X-0.6844
G3 X-0.6316 Y-1.2679 I-0.0767 J0.1049
G3 X-0.6666 Y-1.0753 I-0.9737 J-0.0778
G3 X-0.7582 Y-0.8902 I-0.5366 J-0.1501
G2 X-0.6322 Y-1.1201 I-0.4708 J-0.4073
G0 Z90.0
G0 X-0.6827 Y-1.8811
G1 Z0.0
G1 X-0.649 Y-1.8852
G2 X-0.6747 Y-1.9307 I-0.611 J0.3149
G2 X-0.8059 Y-2.0741 I-0.4547 J0.2843
G2 X-0.886 Y-2.1238 I-0.3242 J0.4336
G3 X-0.8644 Y-2.1089 I-0.3105 J0.4757
G3 X-0.8614 Y-2.1067 I-0.076 J0.1055
G3 X-0.7224 Y-1.9527 I-0.3445 J0.4506
G3 X-0.6827 Y-1.8811 I-0.7391 J0.4564
G0 Z90.0
G0 X-1.8324 Y-1.3873
G1 Z0.0
G3 X-1.8424 Y-1.3973 I0.1144 J-0.1258
G2 X-1.8414 Y-1.3756 I1.0618 J-0.0413
G3 X-1.8324 Y-1.3873 I0.1393 J0.0974
G1 X-1.8054 Y-1.4169
G3 X-1.8478 Y-1.519 I0.0875 J-0.0962
G3 X-1.8011 Y-1.7793 I1.002 J0.0455
G3 X-1.6558 Y-2.0271 I0.6228 J0.1985
G3 X-1.6557 Y-2.0273 I0.095 J0.0888
G3 X-1.538 Y-2.1243 I0.4359 J0.4089
G2 X-1.7027 Y-2.0047 I0.2467 J0.513
G2 X-1.8423 Y-1.7588 I0.4503 J0.4181
G2 X-1.8831 Y-1.456 I1.0007 J0.2892
G3 Y-1.4527 I-0.13 J0.0017
G2 X-1.8417 Y-1.1388 I1.1025 J0.0141
G2 X-1.6984 Y-0.8821 I0.6135 J-0.1743
G2 X-1.6323 Y-0.8205 I0.4299 J-0.3952
G3 X-1.6458 Y-0.8335 I0.3987 J-0.4301
G1 X-1.6459
G3 X-1.7824 Y-1.0407 I0.4216 J-0.4265
G3 X-1.7827 Y-1.0415 I0.1209 J-0.0475
G3 X-1.8318 Y-1.2713 I0.7004 J-0.2699
G3 X-1.765 Y-1.3919 I0.1297 J-0.0069
G3 X-1.8054 Y-1.4169 I0.047 J-0.1212
G0 Z90.0
G0 X-1.7558 Y-1.3503
G1 Z0.0
G3 X-1.7021 Y-1.3681 I0.0537 J0.0721
G1 X-0.7611
G3 X-0.6714 Y-1.271 I0.0 J0.0899
G3 X-0.7051 Y-1.0863 I-0.9338 J-0.0747
G3 X-0.7986 Y-0.9032 I-0.4981 J-0.1391
G3 X-1.223 Y-0.7043 I-0.4129 J-0.3286
G3 X-1.6177 Y-0.862 I-0.0106 J-0.5464
G3 X-1.7452 Y-1.0553 I0.3935 J-0.398
G3 X-1.7454 Y-1.0558 I0.0837 J-0.0329
G3 X-1.7919 Y-1.2734 I0.6631 J-0.2555
G3 X-1.7558 Y-1.3503 I0.0898 J-0.0048
G1 X-1.732 Y-1.3183
G3 X-1.7021 Y-1.3282 I0.0299 J0.0401
G1 X-0.7611
G3 X-0.7112 Y-1.2742 I0.0 J0.05
G3 X-0.7435 Y-1.0972 I-0.894 J-0.0715
G3 X-0.8299 Y-0.9281 I-0.4597 J-0.1283
G3 X-1.2229 Y-0.7442 I-0.3817 J-0.3038
G3 X-1.5897 Y-0.8904 I-0.0107 J-0.5065
G3 X-1.708 Y-1.0699 I0.3654 J-0.3696
G3 X-1.7081 Y-1.0702 I0.0465 J-0.0183
G3 X-1.752 Y-1.2755 I0.6259 J-0.2412
G3 X-1.732 Y-1.3183 I0.0499 J-0.0027
G0 Z90.0
G0 X-1.7244 Y-1.4233
G1 Z0.0
G3 X-1.8079 Y-1.5172 I0.0065 J-0.0898
G3 X-1.763 Y-1.7671 I0.962 J0.0437
G3 X-1.6266 Y-1.9998 I0.5847 J0.1864
G3 X-1.6265 Y-1.9999 I0.0657 J0.0615
G3 X-1.2087 Y-2.176 I0.4067 J0.3815
G3 X-0.8878 Y-2.0764 I0.0122 J0.5279
G3 X-0.8857 Y-2.0749 I-0.0526 J0.073
G3 X-0.7565 Y-1.9317 I-0.3202 J0.4188
G3 X-0.7065 Y-1.8378 I-0.705 J0.4354
G1 X-0.5895 Y-1.8523
G2 X-0.6407 Y-1.9518 I-0.6706 J0.282
G2 X-0.7818 Y-2.1061 I-0.4886 J0.3054
G2 X-0.9802 Y-2.2022 I-0.3482 J0.4656
G2 X-1.2093 Y-2.2308 I-0.2208 J0.8368
G3 X-1.2114 I-0.0009 J-0.09
G2 X-1.4977 Y-2.1845 I-0.0115 J0.8375
G2 X-1.7318 Y-2.0322 I0.2064 J0.5732
G2 X-1.8807 Y-1.7699 I0.4794 J0.4455
G2 X-1.9231 Y-1.4555 I1.0391 J0.3004
G3 Y-1.4532 I-0.09 J0.0012
G2 X-1.8802 Y-1.1279 I1.1425 J0.0147
G2 X-1.7278 Y-0.8551 I0.652 J-0.1852
G2 X-1.5024 Y-0.6989 I0.4594 J-0.4222
G2 X-1.2272 Y-0.6493 I0.2657 J-0.6871
G3 X-1.2249 I0.0012 J0.09
G2 X-0.9584 Y-0.6979 I0.009 J-0.7054
G2 X-0.7402 Y-0.8502 I-0.2318 J-0.5648
G2 X-0.5914 Y-1.1171 I-0.4888 J-0.4472
G2 X-0.5494 Y-1.4231 I-1.0808 J-0.3042
G1 X-1.718
G3 X-1.7244 Y-1.4233 I0.0 J-0.09
G1 X-1.7216 Y-1.4632
G3 X-1.7679 Y-1.5153 I0.0036 J-0.0499
G3 X-1.7249 Y-1.7549 I0.9221 J0.0418
G3 X-1.5974 Y-1.9725 I0.5466 J0.1742
G1 X-1.5973 Y-1.9726
G3 X-1.2087 Y-2.136 I0.3776 J0.3542
G3 X-0.9111 Y-2.044 I0.0121 J0.4879
G3 X-0.91 Y-2.0431 I-0.0292 J0.0406
G3 X-0.7906 Y-1.9107 I-0.2959 J0.387
G3 X-0.7314 Y-1.7944 I-0.6709 J0.4145
G1 X-0.534 Y-1.8189
G2 X-0.6067 Y-1.9729 I-0.7261 J0.2486
G2 X-0.7578 Y-2.138 I-0.5226 J0.3265
G2 X-0.97 Y-2.2409 I-0.3722 J0.4976
G2 X-1.2097 Y-2.2708 I-0.231 J0.8755
G3 X-1.2108 I-0.0005 J-0.05
G2 X-1.511 Y-2.2222 I-0.012 J0.8775
G2 X-1.7609 Y-2.0596 I0.2197 J0.6109
G2 X-1.9191 Y-1.7811 I0.5085 J0.473
G2 X-1.9631 Y-1.455 I1.0775 J0.3115
G3 Y-1.4537 I-0.05 J0.0006
G2 X-1.9187 Y-1.117 I1.1825 J0.0152
G2 X-1.7573 Y-0.828 I0.6905 J-0.1961
G2 X-1.5172 Y-0.6617 I0.4889 J-0.4493
G2 X-1.2267 Y-0.6093 I0.2805 J-0.7243
G3 X-1.2254 I0.0006 J0.05
G2 X-0.9435 Y-0.6608 I0.0095 J-0.7454
G2 X-0.7107 Y-0.8232 I-0.2467 J-0.6019
G2 X-0.553 Y-1.1063 I-0.5183 J-0.4742
G2 X-0.5095 Y-1.4363 I-1.1193 J-0.3151
G3 Y-1.4365 I0.05 J-0.0006
G2 X-0.5099 Y-1.4631 I-2.8011 J0.0209
G1 X-1.718
G3 X-1.7216 Y-1.4632 I0.0 J-0.05
G0 Z90.0
G0 X-2.5008 Y-1.9846
G1 Z0.0
G1 X-2.3883 Y-2.1527
G1 X-2.4264
G1 X-2.945 Y-1.3505
G3 X-3.0846 Y-1.2947 I-0.1092 J-0.0706
G1 X-2.9795 Y-1.188
G3 X-2.9622 Y-1.295 I0.1253 J-0.0346
G1 X-2.5008 Y-1.9846
G0 Z90.0
G0 X-3.3197 Y-1.4404
G1 Z0.0
G1 X-3.3713 Y-1.49
G1 Y-1.4076
G3 X-3.3197 Y-1.4404 I0.1156 J0.1246
G1 X-3.292 Y-1.4693
G1 X-3.3457 Y-1.5209
G3 X-3.3857 Y-1.6146 I0.0901 J-0.0938
G1 Y-2.1527
G1 X-3.4113
G1 Y-0.0863
G1 X-3.3857
G1 Y-1.283
G3 X-3.2309 Y-1.4106 I0.13 J0.0
G1 X-3.292 Y-1.4693
G1 X-3.2643 Y-1.4981
G1 X-3.318 Y-1.5497
G3 X-3.3457 Y-1.6146 I0.0623 J-0.0649
G1 Y-2.1927
G1 X-3.4513
G1 Y-0.0463
G1 X-3.3457
G1 Y-1.283
G3 X-3.1916 Y-1.3462 I0.09 J0.0
G1 X-2.542 Y-0.6874
G1 X-2.4319
G1 X-2.9169 Y-1.1581
G3 X-2.929 Y-1.2727 I0.0627 J-0.0646
G1 X-2.3134 Y-2.1927
G1 X-2.4482
G1 X-2.9786 Y-1.3722
G3 X-3.1165 Y-1.3561 I-0.0756 J-0.0489
G1 X-3.2643 Y-1.4981
G1 X-3.2366 Y-1.527
G1 X-3.2903 Y-1.5786
G3 X-3.3057 Y-1.6146 I0.0346 J-0.0361
G1 Y-2.2327
G1 X-3.4913
G1 Y-0.0063
G1 X-3.3057
G1 Y-1.283
G3 X-3.2201 Y-1.3181 I0.05 J0.0
G1 X-2.5587 Y-0.6474
G1 X-2.3332
G1 X-2.889 Y-1.1868
G3 X-2.8958 Y-1.2505 I0.0348 J-0.0359
G1 X-2.2385 Y-2.2327
G1 X-2.4699
G1 X-3.0122 Y-1.3939
G3 X-3.0888 Y-1.385 I-0.042 J-0.0271
G1 X-3.2366 Y-1.527
G0 Z90.0
G0 X-4.1528 Y-1.866
G1 Z0.0
G3 X-4.1503 Y-1.9376 I2.562 J0.0539
G3 X-4.1777 Y-1.9213 I-0.1004 J-0.1372
G3 X-4.1676 Y-1.9014 I-0.5472 J0.2899
G3 X-4.1648 Y-1.8954 I-0.1529 J0.0741
G3 X-4.1528 Y-1.866 I-0.5973 J0.2614
G1 X-4.1902 Y-1.8518
G3 X-4.1539 Y-1.7019 I-0.5719 J0.2178
G3 X-4.1446 Y-1.5412 I-1.2443 J0.1531
G1 Y-1.4369
G3 X-4.2084 Y-1.3251 I-0.1299 J0.0
G3 X-4.1445 Y-1.2169 I-0.0661 J0.1119
G3 X-4.1429 Y-1.1404 I-5.0349 J0.1454
G3 X-4.1615 Y-0.9769 I-0.6445 J0.0094
G3 X-4.2648 Y-0.7979 I-0.3484 J-0.0817
G3 X-4.2697 Y-0.7935 I-0.0891 J-0.0947
G3 X-4.4099 Y-0.7097 I-0.3213 J-0.3784
G2 X-4.3316 Y-0.7323 I-0.1388 J-0.6276
G2 X-4.2467 Y-0.773 I-0.1732 J-0.4699
G3 X-4.2461 Y-0.7734 I0.067 J0.1114
G2 X-4.1894 Y-0.8211 I-0.1165 J-0.1961
G2 X-4.128 Y-0.9549 I-0.248 J-0.1948
G2 X-4.1179 Y-1.0668 I-0.8368 J-0.1322
G3 X-4.1178 Y-1.0684 I0.13 J0.0031
G2 X-4.1157 Y-1.1954 I-3.3305 J-0.1196
G3 Y-1.1957 I0.13 J-0.0003
G1 Y-1.5765
G3 X-4.1133 Y-1.8309 I11.8991 J-0.0173
G3 X-4.0974 Y-2.0958 I2.5225 J0.0187
G3 X-4.0961 Y-2.1047 I0.1292 J0.0146
G3 X-4.0857 Y-2.1527 I0.7682 J0.1415
G1 X-4.1044
G2 X-4.1212 Y-2.0631 I0.4596 J0.1326
G3 X-4.2382 Y-1.9454 I-0.1295 J-0.0117
G3 X-4.2036 Y-1.8839 I-0.4867 J0.314
G3 X-4.2015 Y-1.8794 I-0.1169 J0.0566
G3 X-4.1902 Y-1.8518 I-0.5606 J0.2454
G0 Z90.0
G0 X-5.0806 Y-2.1625
G1 Z0.0
G2 X-5.2116 Y-2.0888 I0.1083 J0.3461
G2 X-5.3173 Y-1.842 I0.2146 J0.2379
G3 X-5.3172 Y-1.8368 I-0.1299 J0.0036
G2 X-5.2773 Y-1.6749 I0.3321 J0.004
G3 X-5.2772 Y-1.6747 I-0.1144 J0.0618
G2 X-5.171 Y-1.5555 I0.3036 J-0.1637
G2 X-5.1112 Y-1.5209 I0.3177 J-0.4795
G3 X-5.2116 Y-1.6244 I0.2153 J-0.3092
G3 X-5.2725 Y-1.8299 I0.3091 J-0.2034
G3 X-5.1411 Y-2.1197 I0.3741 J-0.0051
G3 X-5.1406 Y-2.1202 I0.0843 J0.0988
G3 X-5.0806 Y-2.1625 I0.2724 J0.323
G0 Z90.0
G0 X-5.2083 Y-0.9729
G1 Z0.0
G1 X-5.2293 Y-0.9701
G2 X-5.1706 Y-0.87 I0.4046 J-0.1699
G2 X-5.1047 Y-0.8071 I0.2634 J-0.2101
G3 X-5.1856 Y-0.9228 I0.3219 J-0.3112
G3 X-5.2083 Y-0.9729 I0.7044 J-0.3496
G0 Z90.0
G0 X-5.0086 Y-1.5127
G1 Z0.0
G3 X-5.0231 Y-1.5182 I0.2684 J-0.7257
G3 X-5.0245 Y-1.5188 I0.0329 J-0.0837
G3 X-5.1781 Y-1.6463 I0.1287 J-0.3112
G3 X-5.2325 Y-1.8301 I0.2757 J-0.1815
G3 X-5.1152 Y-2.0893 I0.3341 J-0.005
G3 X-5.1148 Y-2.0896 I0.0584 J0.0684
G3 X-4.958 Y-2.169 I0.2466 J0.2924
G3 X-4.8032 Y-2.187 I0.1486 J0.605
G3 X-4.4666 Y-2.1048 I0.0109 J0.6852
G3 X-4.4662 Y-2.1045 I-0.0427 J0.0791
G3 X-4.2396 Y-1.8665 I-0.2586 J0.4731
G3 X-4.2381 Y-1.8633 I-0.0809 J0.0392
G3 X-4.1937 Y-1.6973 I-0.524 J0.2293
G3 X-4.1846 Y-1.5414 I-1.2046 J0.1484
G1 Y-1.4369
G3 X-4.3067 Y-1.3529 I-0.0899 J0.0
G2 X-4.5225 Y-1.4154 I-0.4788 J1.2493
G3 X-4.5233 Y-1.4156 I0.0177 J-0.0882
G2 X-4.7535 Y-1.4558 I-0.7028 J3.3498
G3 X-4.7536 I0.0124 J-0.0891
G3 X-4.8845 Y-1.4783 I0.3055 J-2.1706
G3 X-5.0086 Y-1.5127 I0.1443 J-0.7602
G1 X-4.9948 Y-1.5502
G3 X-5.0085 Y-1.5554 I0.2546 J-0.6883
G3 X-5.0093 Y-1.5557 I0.0183 J-0.0465
G3 X-5.1447 Y-1.6682 I0.1134 J-0.2743
G3 X-5.1925 Y-1.8303 I0.2423 J-0.1596
G3 X-5.0893 Y-2.0589 I0.2942 J-0.0048
G3 X-5.0891 Y-2.0591 I0.0324 J0.038
G3 X-4.9485 Y-2.1302 I0.2208 J0.2619
G3 X-4.8031 Y-2.1471 I0.1391 J0.5662
G3 X-4.4856 Y-2.0696 I0.0108 J0.6453
G3 X-4.4854 Y-2.0695 I-0.0238 J0.044
G3 X-4.2755 Y-1.8491 I-0.2395 J0.4381
G3 X-4.2747 Y-1.8473 I-0.045 J0.0218
G3 X-4.2333 Y-1.6926 I-0.4874 J0.2133
G3 X-4.2245 Y-1.5415 I-1.1649 J0.1438
G1 Y-1.4369
G3 X-4.2924 Y-1.3902 I-0.05 J0.0
G2 X-4.5146 Y-1.4546 I-0.4931 J1.2866
G3 X-4.5151 Y-1.4547 I0.0098 J-0.049
G2 X-4.7479 Y-1.4953 I-0.711 J3.3889
G1 X-4.748
G3 X-4.8768 Y-1.5174 I0.2999 J-2.131
G3 X-4.9948 Y-1.5502 I0.1366 J-0.721
G0 Z90.0
G0 X-5.0256 Y-1.4444
G1 Z0.0
G2 X-5.0158 Y-1.4417 I0.1724 J-0.5906
G2 X-4.7742 Y-1.401 I0.4624 J-2.009
G3 X-4.7735 Y-1.4009 I-0.0096 J0.0895
G3 X-4.5119 Y-1.3631 I-0.5457 J4.6932
G3 X-4.2468 Y-1.2988 I-0.294 J1.7909
G3 X-4.1845 Y-1.2157 I-0.0277 J0.0856
G3 X-4.1829 Y-1.1398 I-4.9949 J0.1443
G3 X-4.2004 Y-0.9862 I-0.6045 J0.0089
G3 X-4.2922 Y-0.827 I-0.3095 J-0.0724
G3 X-4.2956 Y-0.824 I-0.0617 J-0.0656
G3 X-4.4871 Y-0.7275 I-0.2954 J-0.3479
G3 X-4.6792 Y-0.7058 I-0.1836 J-0.7647
G3 X-4.8493 Y-0.7205 I-0.008 J-0.8992
G3 X-5.0284 Y-0.793 I0.0752 J-0.4432
G3 X-5.0326 Y-0.7961 I0.0509 J-0.0742
G3 X-5.1496 Y-0.9404 I0.2498 J-0.3222
G3 X-5.1824 Y-1.0168 I0.6685 J-0.3319
G1 X-5.2844 Y-1.0029
G2 X-5.2686 Y-0.9605 I0.7341 J-0.2499
G3 Y-0.9604 I-0.0834 J0.0339
G2 X-5.202 Y-0.8452 I0.4438 J-0.1796
G2 X-5.1102 Y-0.7624 I0.2948 J-0.2349
G2 X-4.991 Y-0.7047 I0.3061 J-0.4799
G2 X-4.6395 Y-0.6493 I0.3334 J-0.9729
G3 X-4.6374 I0.0016 J0.09
G2 X-4.4711 Y-0.6589 I0.0067 J-1.3292
G3 X-4.4706 Y-0.659 I0.0108 J0.0893
G2 X-4.3179 Y-0.6947 I-0.0781 J-0.6783
G2 X-4.2261 Y-0.7387 I-0.1869 J-0.5075
G3 X-4.2257 Y-0.739 I0.0464 J0.0771
G2 X-4.1584 Y-0.7957 I-0.1369 J-0.2305
G2 X-4.0886 Y-0.9479 I-0.279 J-0.2202
G2 X-4.0779 Y-1.0659 I-0.8762 J-0.1392
G3 X-4.0778 Y-1.0669 I0.09 J0.0022
G2 X-4.0757 Y-1.1955 I-3.3705 J-0.1211
G3 Y-1.1957 I0.09 J-0.0002
G1 Y-1.5765
G3 X-4.0733 Y-1.8303 I11.8591 J-0.0173
G3 X-4.0576 Y-2.0913 I2.4825 J0.0182
G3 X-4.0567 Y-2.0975 I0.0894 J0.0101
G3 X-4.0326 Y-2.1927 I0.7289 J0.1343
G1 X-4.1336
G2 X-4.161 Y-2.0667 I0.4888 J0.1726
G3 X-4.3104 Y-2.0075 I-0.0896 J-0.0081
G2 X-4.5897 Y-2.1814 I-0.6504 J0.7333
G2 X-4.8704 Y-2.2308 I-0.2745 J0.7375
G3 X-4.8723 I-0.0007 J-0.09
G2 X-5.0741 Y-2.2059 I-0.0094 J0.754
G3 X-5.0743 I-0.023 J-0.087
G2 X-5.2382 Y-2.1187 I0.102 J0.3895
G2 X-5.3573 Y-1.8409 I0.2412 J0.2678
G3 X-5.3572 Y-1.8373 I-0.09 J0.0025
G2 X-5.3125 Y-1.6558 I0.3721 J0.0045
G3 Y-1.6557 I-0.0792 J0.0428
G2 X-5.1935 Y-1.5225 I0.3388 J-0.1826
G2 X-5.0256 Y-1.4444 I0.3402 J-0.5126
G1 X-5.0368 Y-1.406
G2 X-5.0256 Y-1.4029 I0.1836 J-0.629
G2 X-4.7785 Y-1.3612 I0.4721 J-2.0478
G3 X-4.7781 I-0.0054 J0.0497
G3 X-4.5186 Y-1.3236 I-0.5411 J4.6535
G3 X-4.2591 Y-1.2607 I-0.2873 J1.7515
G3 X-4.2245 Y-1.2146 I-0.0154 J0.0476
G3 X-4.2229 Y-1.1393 I-4.9549 J0.1431
G3 X-4.2393 Y-0.9956 I-0.5645 J0.0083
G3 X-4.3196 Y-0.8562 I-0.2706 J-0.063
G3 X-4.3215 Y-0.8545 I-0.0343 J-0.0364
G3 X-4.4963 Y-0.7664 I-0.2695 J-0.3174
G3 X-4.6792 Y-0.7458 I-0.1743 J-0.7258
G3 X-4.8424 Y-0.7599 I-0.0081 J-0.8592
G3 X-5.0058 Y-0.826 I0.0683 J-0.4038
G3 X-5.0081 Y-0.8277 I0.0283 J-0.0412
G3 X-5.1137 Y-0.958 I0.2253 J-0.2906
G3 X-5.1551 Y-1.0609 I0.6326 J-0.3143
G1 X-5.3365 Y-1.0362
G2 X-5.3057 Y-0.9455 I0.7862 J-0.2167
G1 X-5.3056 Y-0.9454
G2 X-5.2334 Y-0.8204 I0.4809 J-0.1946
G2 X-5.1317 Y-0.7287 I0.3262 J-0.2597
G2 X-5.004 Y-0.6669 I0.3276 J-0.5136
G2 X-4.6388 Y-0.6093 I0.3465 J-1.0107
G3 X-4.6376 I0.0009 J0.05
G2 X-4.4663 Y-0.6192 I0.0069 J-1.3692
G3 X-4.4661 Y-0.6193 I0.006 J0.0496
G2 X-4.3043 Y-0.6571 I-0.0827 J-0.7181
G2 X-4.2055 Y-0.7045 I-0.2005 J-0.5451
G3 X-4.2053 Y-0.7046 I0.0258 J0.0428
G2 X-4.1275 Y-0.7703 I-0.1573 J-0.2649
G2 X-4.0492 Y-0.9409 I-0.3099 J-0.2455
G2 X-4.0379 Y-1.0649 I-0.9156 J-0.1461
G3 Y-1.0655 I0.05 J0.0012
G2 X-4.0357 Y-1.1956 I-3.4104 J-0.1225
G3 Y-1.1957 I0.05 J-0.0001
G1 Y-1.5765
G3 X-4.0333 Y-1.8298 I11.8191 J-0.0173
G3 X-4.0179 Y-2.0868 I2.4425 J0.0176
G3 X-4.0174 Y-2.0902 I0.0497 J0.0056
G3 X-3.9751 Y-2.2327 I0.6896 J0.127
G1 X-4.1611
G2 X-4.2009 Y-2.0703 I0.5163 J0.2126
G3 X-4.2839 Y-2.0374 I-0.0498 J-0.0045
G2 X-4.5752 Y-2.2187 I-0.677 J0.7632
G2 X-4.8708 Y-2.2708 I-0.289 J0.7748
G3 X-4.8718 I-0.0004 J-0.05
G2 X-5.0843 Y-2.2446 I-0.0099 J0.794
G1 X-5.0844
G2 X-5.2648 Y-2.1486 I0.1122 J0.4282
G2 X-5.3972 Y-1.8398 I0.2678 J0.2977
G3 Y-1.8378 I-0.05 J0.0014
G2 X-5.3477 Y-1.6368 I0.4121 J0.005
G2 X-5.216 Y-1.4894 I0.374 J-0.2016
G2 X-5.0368 Y-1.406 I0.3627 J-0.5457
G0 Z90.0
G0 X-5.9806 Y-0.2223
G1 Z0.0
G3 X-6.1171 Y-0.1659 I-0.1268 J-0.1133
G1 X-6.1035 Y-0.1263
G1 X-5.9806
G1 Y-0.2223
G1 X-6.0104 Y-0.249
G3 X-6.181 Y-0.2284 I-0.0969 J-0.0866
G1 X-6.1321 Y-0.0863
G1 X-5.9406
G1 Y-2.1527
G1 X-5.9774
G1 Y-0.3356
G3 X-6.0104 Y-0.249 I-0.13 J0.0
G0 Z90.0
G0 X-7.6854 Y-0.1393
G1 Z0.0
G3 X-7.8607 Y-0.189 I-0.0486 J-0.1629
G1 Y-0.1263
G1 X-7.6898
G1 X-7.6854 Y-0.1393
G1 X-7.6475 Y-0.1267
G1 X-7.14 Y-1.6447
G2 X-7.1163 Y-1.7161 I-16.8477 J-5.6234
G1 X-7.6109 Y-0.2604
G3 X-7.864 Y-0.3023 I-0.1231 J-0.0418
G1 Y-2.1527
G1 X-7.9007
G1 Y-0.0863
G1 X-7.6609
G1 X-7.6475 Y-0.1267
G0 Z90.0
G0 X-7.0124 Y-2.022
G1 Z0.0
G3 X-6.8446 Y-2.0627 I0.1068 J0.0741
G1 X-6.8759 Y-2.1527
G1 X-6.968
G1 X-7.0124 Y-2.022
G1 X-7.0503 Y-2.0349
G1 X-7.6487 Y-0.2733
G3 X-7.824 Y-0.3023 I-0.0852 J-0.029
G1 Y-2.1927
G1 X-7.9407
G1 Y-0.0463
G1 X-7.6321
G1 X-7.102 Y-1.632
G2 X-6.9915 Y-1.9746 I-16.8856 J-5.6361
G3 X-6.8198 Y-1.9752 I0.0859 J0.0268
G2 X-6.6967 Y-1.6043 I15.8785 J-5.0644
G1 Y-1.6042
G1 X-6.1606 Y-0.0463
G1 X-5.9006
G1 Y-2.1927
G1 X-6.0174
G1 Y-0.3356
G3 X-6.1924 Y-0.3061 I-0.09 J0.0
G1 X-6.8474 Y-2.1927
G1 X-6.9966
G1 X-7.0503 Y-2.0349
G1 X-7.0881 Y-2.0477
G1 X-7.6866 Y-0.2862
G3 X-7.784 Y-0.3023 I-0.0473 J-0.0161
G1 Y-2.2327
G1 X-7.9807
G1 Y-0.0063
G1 X-7.6033
G1 X-7.0641 Y-1.6194
G2 X-6.9533 Y-1.9628 I-16.9236 J-5.6488
G3 X-6.858 Y-1.9631 I0.0477 J0.0149
G2 X-6.7345 Y-1.5913 I15.9166 J-5.0766
G1 Y-1.5912
G1 X-6.1891 Y-0.0063
G1 X-5.8606
G1 Y-2.2327
G1 X-6.0574
G1 Y-0.3356
G3 X-6.1546 Y-0.3192 I-0.05 J0.0
G1 X-6.819 Y-2.2327
G1 X-7.0253
G1 X-7.0881 Y-2.0477
G0 Z90.0
M5
M30
