( Made using CamBam - http://www.cambam.co.uk )
( reddit-small 2012-03-19 10:17:35 AM )
( T0 : 0.2 )
G20 G90 G64 G40
G0 Z90.0
( T0 : 0.2 )
T0 M6
( Pocket1 )
G17
M3 S1000
G0 X8.6096 Y0.5081
G1 F8.0 Z0.0
G1 X8.6095 Y0.4901
G1 X8.6093 Y0.4561
G1 X8.6086 Y0.4263
G2 X8.6058 Y0.3796 I-0.7009 J0.019
G2 X8.6015 Y0.3506 I-0.279 J0.0267
G2 X8.5894 Y0.3145 I-0.1709 J0.0367
G3 X8.5883 Y0.3118 I0.0909 J-0.0417
G3 X8.5877 Y0.3108 I0.0889 J-0.0459
G1 X8.5823 Y0.3
G1 X8.5786 Y0.293
G1 X8.5755 Y0.2873
G2 X8.5657 Y0.2704 I-0.6608 J0.3686
G3 X8.5654 Y0.2698 I0.086 J-0.0509
G2 X8.4651 Y0.1452 I-0.4632 J0.2701
G2 X8.2593 Y0.0341 I-0.3221 J0.3507
G2 X8.1418 Y0.0194 I-0.1195 J0.4765
G2 X8.0219 Y0.0321 I-0.0024 J0.55
G1 X8.0218
G2 X7.8579 Y0.1018 I0.1019 J0.4671
G2 X7.6834 Y0.3046 I0.2793 J0.4167
G1 Y0.3047
G2 X7.6438 Y0.4328 I0.4341 J0.2047
G2 X7.6421 Y0.5652 I0.4498 J0.072
G1 X7.6439 Y0.5775
G2 X7.6643 Y0.6646 I0.5699 J-0.0878
G3 X7.6644 Y0.6649 I-0.0953 J0.0303
G2 X7.7325 Y0.8024 I0.476 J-0.1502
G2 X7.904 Y0.9471 I0.3642 J-0.2576
G2 X8.0124 Y0.9838 I0.2068 J-0.433
G2 X8.1285 Y0.9953 I0.1109 J-0.5288
G3 X8.1287 I0.001 J0.1
G2 X8.1984 Y0.9914 I-0.0058 J-0.7324
G2 X8.3119 Y0.9664 I-0.0537 J-0.5149
G2 X8.4564 Y0.8814 I-0.1384 J-0.4004
G1 X8.4607 Y0.8775
G2 X8.5176 Y0.8159 I-0.3533 J-0.3834
G1 X8.5247 Y0.8067
G2 X8.5671 Y0.7432 I-0.5481 J-0.4118
G3 X8.5675 Y0.7426 I0.0861 J0.0508
G2 X8.5827 Y0.7155 I-0.4846 J-0.2906
G1 X8.5861 Y0.7088
G2 X8.6001 Y0.6717 I-0.1585 J-0.0809
G2 X8.6055 Y0.6393 I-0.2412 J-0.0568
G2 X8.6089 Y0.5773 I-0.7524 J-0.073
G3 X8.609 Y0.5769 I0.1 J0.0014
G1 X8.6093 Y0.5595
G1 X8.6094 Y0.5536
G1 X8.6096 Y0.5081
G1 X8.5156 Y0.5085
G3 X8.4723 Y0.6816 I-0.361 J0.0015
G3 X8.4059 Y0.7713 I-0.3475 J-0.1877
G3 X8.4058 Y0.7714 I-0.0712 J-0.0702
G3 X8.3212 Y0.838 I-0.3117 J-0.3087
G3 X8.2303 Y0.8782 I-0.1949 J-0.3181
G1 X8.2302
G3 X8.0556 Y0.8851 I-0.1013 J-0.3503
G3 X8.0555 I0.0201 J-0.098
G3 X7.8375 Y0.753 I0.0769 J-0.3731
G3 X7.8374 Y0.7529 I0.0774 J-0.0633
G3 X7.7524 Y0.5124 I0.2931 J-0.2388
G3 X7.7642 Y0.4143 I0.4019 J-0.0015
G3 X7.844 Y0.2577 I0.375 J0.0926
G3 X8.0736 Y0.1283 I0.288 J0.2427
G3 X8.0741 I0.0155 J0.0988
G3 X8.2102 Y0.1336 I0.0542 J0.3574
G3 X8.2106 Y0.1337 I-0.0227 J0.0974
G3 X8.3336 Y0.1875 I-0.086 J0.3637
G3 X8.4051 Y0.2467 I-0.2542 J0.3799
G3 X8.4054 Y0.247 I-0.0712 J0.0702
G3 X8.4579 Y0.3134 I-0.2913 J0.2844
G3 X8.5116 Y0.4561 I-0.3128 J0.1991
G3 Y0.4565 I-0.0988 J0.0152
G3 X8.5156 Y0.5085 I-0.357 J0.0535
G0 Z90.0
G0 X8.1446 Y-0.6105
G1 Z0.0
G2 X8.149 Y-0.6884 I-2.7989 J-0.196
G3 Y-0.6892 I0.2598 J0.0109
G1 X8.1495 Y-0.6999
G1 X8.1513 Y-0.7438
G1 X8.1529 Y-0.7871
G1 X8.1542 Y-0.8297
G1 X8.1565 Y-0.9146
G1 X8.1584 Y-0.9974
G3 X8.1586 Y-1.002 I0.2599 J0.0059
G3 Y-1.0068 I0.26 J0.0004
G2 X8.1636 Y-1.3265 I-35.5889 J-0.714
G2 X8.1673 Y-1.8875 I-57.719 J-0.6557
G1 X8.1674 Y-1.9929
G1 Y-2.0916
G1 X8.1673 Y-2.1842
G1 X8.1672 Y-2.2275
G1 X8.1671 Y-2.2694
G1 X8.1663 Y-2.4324
G1 X8.1659 Y-2.5036
G1 X8.1658 Y-2.5201
G1 X8.1647 Y-2.6519
G3 Y-2.6522 I0.26 J-0.0021
G2 X8.1635 Y-2.7659 I-17.5421 J0.127
G3 Y-2.7663 I0.26 J-0.0036
G1 X8.1629 Y-2.8166
G1 X8.1616 Y-2.9108
G1 X8.1602 Y-2.9934
G3 Y-2.9935 I0.26 J-0.0042
G2 X8.1535 Y-3.2795 I-18.0873 J0.2847
G3 Y-3.2798 I0.2599 J-0.0082
G2 X8.151 Y-3.3494 I-6.9205 J0.2095
G1 X8.1487 Y-3.4026
G1 X8.1478 Y-3.4222
G3 X8.1477 Y-3.4227 I0.2597 J-0.0128
G2 X8.1447 Y-3.4738 I-2.1179 J0.1001
G2 X8.1258 Y-3.4766 I-0.0192 J0.0649
G1 X8.125 Y-3.4574
G1 X8.1234 Y-3.4142
G1 X8.1222 Y-3.3722
G1 X8.1203 Y-3.289
G1 X8.1195 Y-3.2502
G1 X8.1183 Y-3.1742
G2 X8.1134 Y-2.6015 I53.7544 J0.743
G3 Y-2.6013 I-0.26 J-0.0008
G1 X8.1131 Y-2.5295
G1 X8.1128 Y-2.4038
G1 X8.1126 Y-2.3095
G1 X8.1124 Y-2.1681
G1 X8.1123 Y-2.0266
G1 X8.1124 Y-1.8329
G1 X8.1127 Y-1.494
G1 X8.1133 Y-1.2401
G1 X8.1137 Y-1.1449
G3 Y-1.1447 I-0.26 J0.0012
G2 X8.1171 Y-0.8144 I26.2396 J-0.1002
G1 X8.1179 Y-0.7735
G1 X8.1183 Y-0.7556
G3 Y-0.7548 I-0.2599 J0.0061
G2 X8.1202 Y-0.691 I3.3593 J-0.0682
G3 X8.1203 Y-0.689 I-0.2598 J0.0102
G2 X8.1244 Y-0.6093 I2.0253 J-0.0636
G2 X8.1446 Y-0.6105 I0.0059 J-0.0681
G1 X8.2245 Y-0.605
G2 X8.2289 Y-0.685 I-2.8787 J-0.2015
G3 X8.229 Y-0.6856 I0.1798 J0.0076
G1 X8.2295 Y-0.6965
G1 X8.2313 Y-0.7408
G1 X8.2328 Y-0.7844
G1 X8.2342 Y-0.8273
G1 X8.2365 Y-0.9126
G1 X8.2384 Y-0.9956
G3 X8.2385 Y-0.9994 I0.18 J0.0041
G2 X8.2386 Y-1.0011 I-0.0364 J-0.0016
G3 Y-1.0052 I0.18 J-0.0005
G2 X8.2436 Y-1.3256 I-35.6689 J-0.7156
G2 X8.2473 Y-1.8874 I-57.799 J-0.6566
G1 X8.2474 Y-1.9929
G1 Y-2.0917
G1 X8.2473 Y-2.1844
G1 X8.2472 Y-2.2278
G1 X8.2471 Y-2.2697
G1 X8.2463 Y-2.4329
G1 X8.2459 Y-2.5041
G1 X8.2458 Y-2.5207
G1 X8.2447 Y-2.6526
G3 Y-2.6527 I0.18 J-0.0015
G2 X8.2435 Y-2.767 I-17.6221 J0.1276
G3 Y-2.7673 I0.18 J-0.0025
G1 X8.2429 Y-2.8177
G1 X8.2416 Y-2.912
G1 X8.2402 Y-2.9947
G3 Y-2.9948 I0.18 J-0.0029
G2 X8.2334 Y-3.282 I-18.1673 J0.286
G3 Y-3.2823 I0.1799 J-0.0057
G2 X8.2309 Y-3.3527 I-7.0004 J0.2119
G1 X8.2286 Y-3.4063
G1 X8.2277 Y-3.4261
G3 X8.2276 Y-3.4265 I0.1798 J-0.0089
G2 X8.2235 Y-3.4924 I-2.1978 J0.1038
G3 Y-3.4928 I0.1795 J-0.0139
G2 X8.2213 Y-3.5177 I-0.8873 J0.0667
G3 X8.2212 Y-3.5178 I0.1398 J-0.1133
G2 X8.2101 Y-3.5289 I-0.0575 J0.0465
G2 X8.1776 Y-3.5471 I-0.0723 J0.0914
G3 X8.1767 Y-3.5474 I0.0616 J-0.1691
G2 X8.1134 Y-3.5561 I-0.0512 J0.1385
G2 X8.086 Y-3.5503 I0.0104 J0.1172
G2 X8.0675 Y-3.541 I0.0253 J0.0734
G2 X8.0609 Y-3.5355 I0.0373 J0.0513
G3 X8.0605 Y-3.5351 I-0.1246 J-0.1299
G2 X8.0482 Y-3.5218 I0.1025 J0.1074
G1 X8.047 Y-3.5024
G3 Y-3.502 I-0.1796 J-0.0113
G2 X8.0461 Y-3.4839 I0.6401 J0.0415
G3 X8.046 Y-3.4827 I-0.1799 J-0.0066
G1 X8.0451 Y-3.4605
G1 X8.0435 Y-3.4168
G1 X8.0423 Y-3.3743
G1 X8.0403 Y-3.2907
G1 X8.0396 Y-3.2517
G1 X8.0383 Y-3.1754
G2 X8.0334 Y-2.6018 I53.8343 J0.7442
G3 Y-2.6017 I-0.18 J-0.0006
G1 X8.0331 Y-2.5298
G1 X8.0328 Y-2.404
G1 X8.0326 Y-2.3097
G1 X8.0324 Y-2.1681
G1 X8.0323 Y-2.0266
G1 X8.0324 Y-1.8329
G1 X8.0327 Y-1.4939
G1 X8.0333 Y-1.2398
G1 X8.0337 Y-1.1445
G3 Y-1.1444 I-0.18 J0.0008
G2 X8.0371 Y-0.8129 I26.3196 J-0.1005
G1 X8.0379 Y-0.7717
G1 X8.0383 Y-0.7537
G3 Y-0.7531 I-0.18 J0.0042
G2 X8.0403 Y-0.6879 I3.4393 J-0.0698
G3 Y-0.6865 I-0.1799 J0.0071
G2 X8.0454 Y-0.5926 I2.1052 J-0.0661
G1 X8.0464 Y-0.5815
G1 X8.0468 Y-0.5768
G3 X8.0469 Y-0.5754 I-0.1792 J0.0175
G2 X8.049 Y-0.5587 I0.2689 J-0.0242
G2 X8.0544 Y-0.5534 I0.0466 J-0.0413
G2 X8.0714 Y-0.5419 I0.0532 J-0.0609
G3 X8.0719 Y-0.5417 I-0.0804 J0.1611
G2 X8.092 Y-0.5341 I0.0471 J-0.0937
G1 Y-0.534
G2 X8.1828 Y-0.5386 I0.0383 J-0.1433
G3 X8.1829 Y-0.5387 I0.0636 J0.1684
G2 X8.2133 Y-0.5571 I-0.034 J-0.0902
G2 X8.2212 Y-0.566 I-0.0385 J-0.042
G2 Y-0.5664 I-0.3091 J-0.0316
G1 X8.2222 Y-0.5765
G1 X8.224 Y-0.5979
G2 X8.2245 Y-0.605 I-2.8782 J-0.2086
G1 X8.3043 Y-0.5994
G2 X8.3089 Y-0.6817 I-2.9585 J-0.2071
G3 Y-0.682 I0.0999 J0.0042
G1 X8.3094 Y-0.6931
G1 X8.3112 Y-0.7377
G1 X8.3128 Y-0.7817
G1 X8.3142 Y-0.825
G1 X8.3165 Y-0.9106
G1 X8.3184 Y-0.9938
G3 X8.3185 Y-0.9959 I0.1 J0.0023
G2 X8.3186 Y-1.0013 I-0.1163 J-0.0051
G3 Y-1.0036 I0.1 J-0.0003
G2 X8.3236 Y-1.3247 I-35.7489 J-0.7172
G2 X8.3273 Y-1.8872 I-57.879 J-0.6576
G1 X8.3274 Y-1.9928
G1 Y-2.0917
G1 X8.3273 Y-2.1845
G1 X8.3272 Y-2.228
G1 X8.3271 Y-2.27
G1 X8.3263 Y-2.4333
G1 X8.3259 Y-2.5047
G1 X8.3258 Y-2.5213
G1 X8.3247 Y-2.6532
G1 Y-2.6533
G2 X8.3235 Y-2.7681 I-17.7021 J0.1282
G3 Y-2.7683 I0.1 J-0.0014
G1 X8.3229 Y-2.8187
G1 X8.3216 Y-2.9132
G1 X8.3202 Y-2.996
G1 Y-2.9961
G2 X8.3134 Y-3.2845 I-18.2473 J0.2873
G3 Y-3.2847 I0.1 J-0.0032
G2 X8.3109 Y-3.3561 I-7.0804 J0.2143
G1 X8.3085 Y-3.41
G1 X8.3076 Y-3.4301
G3 X8.3075 Y-3.4303 I0.0999 J-0.0049
G2 X8.3033 Y-3.4986 I-2.2777 J0.1076
G3 Y-3.4988 I0.0997 J-0.0077
G2 X8.3004 Y-3.5306 I-0.9671 J0.0727
G1 X8.2994 Y-3.5389
G3 X8.2993 Y-3.5393 I0.0993 J-0.012
G2 X8.2986 Y-3.5441 I-0.0945 J0.0109
G2 X8.2835 Y-3.568 I-0.1074 J0.0512
G3 X8.2834 Y-3.5682 I0.0776 J-0.0631
G2 X8.26 Y-3.5915 I-0.1197 J0.0968
G2 X8.205 Y-3.6222 I-0.1222 J0.1539
G3 X8.2045 Y-3.6224 I0.0342 J-0.094
G2 X8.1066 Y-3.6358 I-0.079 J0.2135
G2 X8.0601 Y-3.626 I0.0172 J0.1969
G2 X8.0213 Y-3.6063 I0.0512 J0.1491
G2 X8.0055 Y-3.5932 I0.0834 J0.1166
G3 X8.0053 Y-3.593 I-0.0692 J-0.0722
G2 X7.9806 Y-3.5652 I0.1577 J0.1653
G3 X7.9804 Y-3.565 I-0.0799 J-0.0602
G3 X7.9799 Y-3.5644 I-0.0807 J-0.0591
G2 X7.9713 Y-3.5514 I0.1211 J0.0901
G2 X7.9703 Y-3.5496 I0.042 J0.025
G2 X7.9686 Y-3.531 I0.3748 J0.0423
G1 X7.9672 Y-3.5074
G3 X7.9671 Y-3.5072 I-0.0998 J-0.0063
G2 X7.9661 Y-3.4868 I0.7199 J0.0467
G3 Y-3.4862 I-0.0999 J-0.0037
G1 X7.9651 Y-3.4637
G1 X7.9635 Y-3.4194
G1 X7.9623 Y-3.3764
G1 X7.9603 Y-3.2924
G1 X7.9596 Y-3.2531
G1 X7.9583 Y-3.1766
G2 X7.9534 Y-2.602 I53.9143 J0.7454
G1 X7.9531 Y-2.53
G1 X7.9528 Y-2.4042
G1 X7.9526 Y-2.3098
G1 X7.9524 Y-2.1682
G1 X7.9523 Y-2.0266
G1 X7.9524 Y-1.8328
G1 X7.9527 Y-1.4938
G1 X7.9533 Y-1.2395
G1 X7.9537 Y-1.1442
G1 Y-1.1441
G2 X7.9571 Y-0.8115 I26.3996 J-0.1008
G1 X7.9579 Y-0.77
G1 X7.9584 Y-0.7518
G3 Y-0.7515 I-0.1 J0.0023
G2 X7.9604 Y-0.6848 I3.5193 J-0.0714
G3 Y-0.684 I-0.0999 J0.0039
G2 X7.9657 Y-0.586 I2.1852 J-0.0686
G1 X7.9667 Y-0.5742
G1 X7.9672 Y-0.569
G3 X7.9673 Y-0.5683 I-0.0995 J0.0097
G2 X7.9716 Y-0.5367 I0.3486 J-0.0314
G1 X7.9731 Y-0.5295
G2 X7.9741 Y-0.5259 I0.0856 J-0.0225
G2 X8.0017 Y-0.4932 I0.1214 J-0.0742
G2 X8.0357 Y-0.4703 I0.1059 J-0.1211
G3 X8.036 Y-0.4702 I-0.0446 J0.0895
G2 X8.0713 Y-0.4568 I0.083 J-0.1652
G1 X8.0714
G2 X8.211 Y-0.4638 I0.059 J-0.2206
G3 X8.2111 I0.0354 J0.0935
G2 X8.267 Y-0.4978 I-0.0622 J-0.1651
G2 X8.2986 Y-0.5405 I-0.0922 J-0.1013
G2 Y-0.5406 I-0.1185 J-0.0187
G3 X8.2988 Y-0.5419 I0.0988 J0.0155
G2 X8.2996 Y-0.5475 I-0.0877 J-0.0149
G3 X8.2998 Y-0.5493 I0.0994 J0.0105
G2 X8.3008 Y-0.5586 I-0.3877 J-0.0484
G1 X8.3019 Y-0.5694
G1 X8.3037 Y-0.5917
G2 X8.3043 Y-0.5994 I-2.9579 J-0.2148
G0 Z90.0
G0 X9.7266 Y-0.6348
G1 Z0.0
G3 X9.7798 Y-0.5745 I-0.2867 J0.3069
G3 X9.8317 Y-0.6336 I0.3399 J0.2466
G3 X9.7785 Y-0.6933 I0.2854 J-0.3081
G3 X9.7266 Y-0.6348 I-0.3387 J-0.2484
G1 X9.6719 Y-0.5763
G3 X9.7798 Y-0.3338 I-0.2321 J0.2484
G3 X9.9722 Y-0.6342 I0.3399 J0.0059
G3 X9.7785 Y-0.9116 I0.145 J-0.3075
G3 X9.5862 Y-0.6348 I-0.3387 J-0.0301
G3 X9.6719 Y-0.5763 I-0.1463 J0.3069
G1 X9.6173 Y-0.5179
G3 X9.6998 Y-0.3279 I-0.1775 J0.19
G1 Y0.0556
G1 X9.7001 Y0.1689
G1 X9.7004 Y0.2108
G1 Y0.215
G1 Y0.2192
G1 X9.7009 Y0.2543
G1 X9.7016 Y0.2852
G1 Y0.2853
G2 X9.7022 Y0.308 I1.1955 J-0.0244
G1 X9.7032 Y0.3311
G1 X9.7033 Y0.3326
G2 X9.7056 Y0.3655 I0.9488 J-0.0492
G3 X9.7057 Y0.3668 I-0.259 J0.0225
G2 X9.7064 Y0.3736 I0.1651 J-0.0135
G3 X9.7073 Y0.3741 I-0.1142 J0.2336
G2 X9.7161 Y0.3777 I0.0315 J-0.0639
G2 X9.7413 Y0.3834 I0.048 J-0.1536
G2 X9.7774 Y0.3858 I0.0359 J-0.2741
G3 X9.779 I0.0001 J0.26
G2 X9.8167 Y0.3832 I0.0016 J-0.2582
G2 X9.829 Y0.3803 I-0.0127 J-0.081
G2 X9.8377 Y0.3758 I-0.0117 J-0.0332
G3 X9.8383 Y0.3753 I0.1509 J0.2117
G2 X9.8449 Y0.3703 I-0.0627 J-0.0885
G2 X9.848 Y0.3101 I-1.4555 J-0.1051
G3 Y0.3098 I0.2599 J0.008
G1 X9.849 Y0.2799
G2 X9.8532 Y0.0691 I-17.2025 J-0.4457
G3 Y0.0684 I0.26 J0.0035
G1 X9.8598 Y-0.3322
G3 X10.1197 Y-0.5879 I0.26 J0.0043
G1 X10.2454
G2 X10.2697 Y-0.5884 I-0.0048 J-0.8282
G2 X10.3044 Y-0.5914 I-0.0149 J-0.372
G1 X10.3125 Y-0.5927
G1 X10.3199 Y-0.594
G2 X10.3384 Y-0.5988 I-0.0386 J-0.1862
G2 X10.3409 Y-0.5997 I-0.0264 J-0.0765
G2 X10.3411 Y-0.6007 I-0.0382 J-0.0076
G3 X10.3413 Y-0.6019 I0.2563 J0.0439
G2 X10.3423 Y-0.6086 I-0.1704 J-0.03
G2 X10.3438 Y-0.6339 I-0.2199 J-0.0256
G1 Y-0.6402
G2 X10.3432 Y-0.6533 I-0.2374 J0.004
G1 X10.3422 Y-0.6633
G2 X10.3407 Y-0.672 I-0.1065 J0.0137
G2 X10.337 Y-0.6731 I-0.0302 J0.0894
G2 X10.3043 Y-0.6792 I-0.0556 J0.2074
G2 X10.2563 Y-0.6817 I-0.047 J0.442
G3 X10.2558 I-0.0006 J-0.26
G1 X10.1172
G3 X9.8572 Y-0.9417 I0.0 J-0.26
G1 Y-2.2509
G1 Y-3.4807
G1 X9.854 Y-3.4854
G2 X9.8361 Y-3.5043 I-0.0666 J0.0452
G3 X9.836 Y-3.5044 I0.1573 J-0.207
G2 X9.7896 Y-3.5256 I-0.0704 J0.0925
G3 X9.7884 Y-3.5259 I0.0539 J-0.2544
G2 X9.7403 Y-3.526 I-0.0244 J0.1128
G2 X9.7325 Y-3.5237 I0.021 J0.0841
G2 X9.7184 Y-3.5183 I0.0978 J0.2782
G2 X9.7175 Y-3.5106 I0.4114 J0.052
G1 X9.7155 Y-3.4921
G2 X9.7105 Y-3.4242 I1.7867 J0.1671
G3 X9.7104 Y-3.423 I-0.2596 J-0.0144
G2 X9.7073 Y-3.3555 I2.4622 J0.1476
G3 Y-3.3547 I-0.2599 J-0.0084
G1 X9.7067 Y-3.3378
G1 X9.7056 Y-3.3048
G1 X9.7041 Y-3.2395
G2 X9.7022 Y-3.1173 I13.1921 J0.2666
G1 X9.7019 Y-3.0903
G1 X9.701 Y-2.9849
G1 X9.7007 Y-2.9389
G1 X9.7006 Y-2.9175
G1 X9.7001 Y-2.7494
G1 X9.6999 Y-2.4969
G1 X9.6998 Y-2.4337
G1 Y-2.3389
G1 Y-2.2441
G1 Y-0.9417
G3 X9.4398 Y-0.6817 I-0.26 J0.0
G1 X9.3075
G3 X9.3058 I0.0 J-0.26
G2 X9.2878 Y-0.6813 I-0.0022 J0.3239
G1 X9.2759 Y-0.6806
G1 X9.2652 Y-0.6798
G2 X9.2356 Y-0.6754 I0.0265 J0.2829
G3 X9.2333 Y-0.675 I-0.0514 J-0.2549
G3 X9.2304 Y-0.6743 I-0.0619 J-0.2525
G2 X9.2211 Y-0.6718 I0.0375 J0.1608
G2 X9.2075 Y-0.6668 I0.0348 J0.1157
G2 X9.2056 Y-0.6659 I0.0151 J0.0334
G2 X9.2051 Y-0.664 I0.0235 J0.0069
G2 X9.2024 Y-0.6365 I0.1302 J0.0266
G3 Y-0.6338 I-0.26 J0.0017
G2 X9.2043 Y-0.6098 I0.1472 J0.0006
G2 X9.2057 Y-0.6037 I0.0609 J-0.0109
G3 X9.206 Y-0.6035 I-0.1234 J0.2289
G3 X9.2068 Y-0.6031 I-0.1107 J0.2353
G2 X9.2114 Y-0.6011 I0.0343 J-0.0723
G1 X9.2166 Y-0.5992
G2 X9.2317 Y-0.595 I0.0574 J-0.1775
G2 X9.2638 Y-0.59 I0.0599 J-0.2746
G1 X9.2763 Y-0.5889
G2 X9.3079 Y-0.5879 I0.0333 J-0.5453
G1 X9.4399
G3 X9.6173 Y-0.5179 I0.0 J0.26
G1 X9.5627 Y-0.4594
G3 X9.6198 Y-0.3279 I-0.1229 J0.1315
G1 Y0.0557
G1 X9.6201 Y0.1692
G1 X9.6204 Y0.2114
G1 Y0.2158
G1 Y0.2201
G1 X9.6209 Y0.2556
G1 X9.6216 Y0.2869
G2 X9.6223 Y0.3112 I1.2755 J-0.0261
G1 X9.6233 Y0.3348
G1 X9.6234 Y0.3366
G2 X9.6259 Y0.3724 I1.0287 J-0.0532
G3 Y0.3733 I-0.1793 J0.0156
G2 X9.6281 Y0.3915 I0.2448 J-0.02
G3 X9.6284 Y0.3935 I-0.1778 J0.028
G2 X9.6301 Y0.4023 I0.106 J-0.0155
G3 X9.6307 Y0.4049 I-0.1753 J0.0407
G2 X9.6308 Y0.4054 I0.0038 J-0.0008
G2 X9.6349 Y0.413 I0.0619 J-0.0286
G3 X9.6356 Y0.4141 I-0.1524 J0.0957
G2 X9.6526 Y0.4335 I0.0669 J-0.0413
G3 X9.6528 Y0.4337 I-0.114 J0.1393
G2 X9.6711 Y0.4454 I0.0592 J-0.0721
G3 X9.6719 Y0.4458 I-0.0789 J0.1618
G2 X9.6916 Y0.4539 I0.0669 J-0.1356
G2 X9.7305 Y0.4627 I0.0726 J-0.2297
G2 X9.7774 Y0.4658 I0.0468 J-0.3534
G3 X9.7785 I0.0001 J0.18
G2 X9.8284 Y0.4624 I0.002 J-0.3382
G2 X9.8543 Y0.4562 I-0.0244 J-0.1602
G2 X9.8841 Y0.4409 I-0.037 J-0.1091
G3 X9.8846 Y0.4406 I0.1045 J0.1466
G2 X9.9016 Y0.427 I-0.109 J-0.1538
G2 X9.9216 Y0.4074 I-0.2725 J-0.2975
G2 X9.924 Y0.3859 I-0.3246 J-0.0469
G3 Y0.3857 I0.1795 J0.0139
G2 X9.928 Y0.3126 I-1.5346 J-0.1205
G3 Y0.3123 I0.1799 J0.0055
G1 X9.929 Y0.2822
G2 X9.9332 Y0.0702 I-17.2825 J-0.448
G3 Y0.0697 I0.18 J0.0025
G1 X9.9397 Y-0.3308
G3 X10.1197 Y-0.5079 I0.18 J0.003
G1 X10.2456
G2 X10.2727 Y-0.5084 I-0.005 J-0.9082
G2 X10.3159 Y-0.5122 I-0.0179 J-0.4519
G1 X10.3258 Y-0.5138
G1 X10.3351 Y-0.5155
G2 X10.3634 Y-0.5228 I-0.0538 J-0.2647
G2 X10.3827 Y-0.5307 I-0.0513 J-0.1525
G3 X10.3829 Y-0.5308 I0.079 J0.1617
G2 X10.4006 Y-0.5432 I-0.0309 J-0.0634
G2 X10.4084 Y-0.5533 I-0.0392 J-0.0383
G2 X10.4111 Y-0.5584 I-0.0747 J-0.0428
G2 X10.4199 Y-0.5872 I-0.1085 J-0.0489
G3 X10.4201 Y-0.588 I0.1774 J0.0304
G2 X10.4217 Y-0.5986 I-0.2492 J-0.0438
G2 X10.4238 Y-0.6341 I-0.2993 J-0.0356
G1 Y-0.6412
G2 X10.4229 Y-0.6602 I-0.3174 J0.005
G1 X10.4217 Y-0.6722
G2 X10.416 Y-0.7008 I-0.186 J0.0225
G2 X10.4095 Y-0.7171 I-0.0883 J0.0257
G3 X10.4094 Y-0.7173 I0.1601 J-0.0822
G2 X10.3978 Y-0.7318 I-0.0413 J0.0211
G2 X10.3816 Y-0.7418 I-0.0453 J0.0554
G3 X10.3815 I0.0731 J-0.1645
G2 X10.3585 Y-0.7502 I-0.0709 J0.1593
G2 X10.3128 Y-0.7588 I-0.0772 J0.2845
G2 X10.2562 Y-0.7617 I-0.0555 J0.5216
G3 X10.2558 I-0.0004 J-0.18
G1 X10.1172
G3 X9.9372 Y-0.9417 I0.0 J-0.18
G1 Y-2.2509
G1 Y-3.5051
G1 X9.9203 Y-3.5302
G2 X9.8845 Y-3.568 I-0.1329 J0.09
G3 X9.8844 I0.1089 J-0.1433
G2 X9.8062 Y-3.6039 I-0.1189 J0.1562
G3 X9.8054 Y-3.6041 I0.0373 J-0.1761
G2 X9.7222 Y-3.604 I-0.0414 J0.191
G3 X9.7214 Y-3.6038 I-0.0438 J-0.1746
G2 X9.7059 Y-3.5992 I0.0398 J0.1619
G2 X9.6743 Y-3.5864 I0.1244 J0.3537
G3 X9.6733 Y-3.586 I-0.0749 J-0.1637
G2 X9.6618 Y-3.5803 I0.0769 J0.1708
G3 X9.6603 Y-3.5795 I-0.085 J-0.1587
G2 X9.6531 Y-3.5753 I0.0442 J0.0846
G1 X9.6484 Y-3.5722
G3 X9.6464 Y-3.571 I-0.0987 J-0.1505
G2 X9.6424 Y-3.5512 I0.232 J0.0573
G3 X9.6421 Y-3.5493 I-0.1778 J-0.0283
G2 X9.6379 Y-3.519 I0.4877 J0.083
G1 X9.6359 Y-3.5001
G2 X9.6306 Y-3.4286 I1.8663 J0.1751
G3 Y-3.4278 I-0.1797 J-0.0099
G2 X9.6273 Y-3.3581 I2.542 J0.1524
G3 Y-3.3576 I-0.1799 J-0.0058
G1 X9.6267 Y-3.3405
G1 X9.6257 Y-3.3071
G1 X9.6241 Y-3.2413
G2 X9.6222 Y-3.1182 I13.272 J0.2684
G1 X9.6219 Y-3.0911
G1 X9.621 Y-2.9855
G1 X9.6207 Y-2.9393
G1 X9.6206 Y-2.9178
G1 X9.6201 Y-2.7496
G1 X9.6199 Y-2.4969
G1 X9.6198 Y-2.4338
G1 Y-2.3389
G1 Y-2.2441
G1 Y-0.9417
G3 X9.4398 Y-0.7617 I-0.18 J0.0
G1 X9.3075
G3 X9.3063 I0.0 J-0.18
G2 X9.2836 Y-0.7612 I-0.0028 J0.4039
G1 X9.2705 Y-0.7605
G1 X9.2583 Y-0.7595
G2 X9.2198 Y-0.7539 I0.0333 J0.3626
G3 X9.2162 Y-0.7532 I-0.0356 J-0.1765
G3 X9.2122 Y-0.7522 I-0.0448 J-0.1743
G2 X9.1982 Y-0.7485 I0.0556 J0.2387
G2 X9.175 Y-0.74 I0.0576 J0.1924
G2 X9.1607 Y-0.7323 I0.0476 J0.1065
G3 X9.1599 Y-0.7318 I-0.0955 J-0.1526
G2 X9.1444 Y-0.7187 I0.0365 J0.059
G2 X9.1367 Y-0.7078 I0.0456 J0.0402
G2 X9.1267 Y-0.68 I0.0924 J0.0488
G2 X9.1224 Y-0.636 I0.2086 J0.0427
G3 Y-0.6341 I-0.18 J0.0012
G2 X9.1254 Y-0.5964 I0.2272 J0.0009
G2 X9.1322 Y-0.5713 I0.1398 J-0.0243
G2 X9.1468 Y-0.5482 I0.0622 J-0.0233
G2 X9.1667 Y-0.5338 I0.0606 J-0.0624
G3 X9.1685 Y-0.5328 I-0.0843 J0.159
G2 X9.1714 Y-0.5314 I0.0253 J-0.0464
G3 X9.1725 Y-0.5309 I-0.0761 J0.1631
G2 X9.1832 Y-0.5263 I0.0686 J-0.1446
G1 X9.1906 Y-0.5236
G2 X9.2141 Y-0.517 I0.0834 J-0.2532
G2 X9.2567 Y-0.5103 I0.0775 J-0.3526
G1 X9.2705 Y-0.5091
G2 X9.3078 Y-0.5079 I0.0391 J-0.6251
G1 X9.4399
G3 X9.5627 Y-0.4594 I0.0 J0.18
G1 X9.5081 Y-0.401
G3 X9.5398 Y-0.3279 I-0.0683 J0.0731
G1 Y0.0558
G1 X9.5401 Y0.1696
G1 X9.5404 Y0.2121
G1 Y0.2166
G1 X9.5405 Y0.2211
G1 X9.5409 Y0.257
G1 X9.5416 Y0.2885
G1 Y0.2886
G2 X9.5424 Y0.3145 I1.3554 J-0.0277
G1 X9.5434 Y0.3385
G1 X9.5435 Y0.3407
G2 X9.5462 Y0.3793 I1.1086 J-0.0573
G3 Y0.3798 I-0.0996 J0.0086
G2 X9.5491 Y0.404 I0.3245 J-0.0265
G3 X9.5493 Y0.4051 I-0.0988 J0.0156
G2 X9.5521 Y0.4204 I0.1851 J-0.027
G3 X9.5525 Y0.4218 I-0.0974 J0.0226
G2 X9.5573 Y0.4371 I0.082 J-0.0177
G2 X9.5672 Y0.4555 I0.1353 J-0.0603
G3 X9.5675 Y0.4561 I-0.0847 J0.0532
G2 X9.602 Y0.4954 I0.1349 J-0.0834
G3 X9.6021 Y0.4955 I-0.0634 J0.0774
G2 X9.6361 Y0.5173 I0.11 J-0.1339
G3 X9.6364 Y0.5175 I-0.0439 J0.0899
G2 X9.667 Y0.53 I0.1023 J-0.2074
G2 X9.7196 Y0.542 I0.0971 J-0.3059
G2 X9.7774 Y0.5458 I0.0576 J-0.4327
G3 X9.7781 I0.0 J0.1
G2 X9.84 Y0.5415 I0.0025 J-0.4182
G2 X9.8796 Y0.5321 I-0.0361 J-0.2393
G2 X9.9306 Y0.5061 I-0.0623 J-0.185
G3 X9.9308 Y0.5059 I0.0581 J0.0814
G2 X9.9554 Y0.4862 I-0.1552 J-0.2191
G2 X9.9809 Y0.4611 I-0.3262 J-0.3567
G3 X9.9814 Y0.4605 I0.0728 J0.0686
G2 X9.9944 Y0.4457 I-0.1531 J-0.1467
G2 X9.9951 Y0.4444 I-0.0052 J-0.0037
G3 Y0.4443 I0.0924 J0.0383
G2 X9.9962 Y0.4416 I-0.0365 J-0.0152
G2 X9.9992 Y0.4286 I-0.1467 J-0.0417
G2 X10.0037 Y0.3921 I-0.4023 J-0.0681
G1 X10.0038 Y0.392
G2 X10.008 Y0.315 I-1.6143 J-0.1268
G3 Y0.3149 I0.1 J0.0031
G1 X10.0089 Y0.2845
G2 X10.0132 Y0.0713 I-17.3624 J-0.4503
G3 Y0.071 I0.1 J0.0014
G1 X10.0197 Y-0.3295
G3 X10.1197 Y-0.4279 I0.1 J0.0016
G1 X10.2459
G2 X10.2757 Y-0.4285 I-0.0052 J-0.9882
G2 X10.3275 Y-0.4331 I-0.0209 J-0.5319
G1 X10.3391 Y-0.4349
G1 X10.3501 Y-0.4369
G2 X10.3882 Y-0.4468 I-0.0688 J-0.3433
G2 X10.4178 Y-0.4589 I-0.0762 J-0.2286
G3 X10.4179 I0.0439 J0.0898
G2 X10.4568 Y-0.4862 I-0.0659 J-0.1353
G2 X10.4774 Y-0.5128 I-0.0954 J-0.0952
G2 X10.4836 Y-0.5245 I-0.1437 J-0.0832
G2 X10.4988 Y-0.5737 I-0.1809 J-0.0828
G3 X10.4989 Y-0.5742 I0.0986 J0.0169
G2 X10.5011 Y-0.5887 I-0.328 J-0.0577
G2 X10.5038 Y-0.6344 I-0.3786 J-0.0456
G1 Y-0.6421
G2 X10.5026 Y-0.6672 I-0.3974 J0.0059
G1 X10.5013 Y-0.6809
G2 X10.4929 Y-0.7229 I-0.2655 J0.0312
G2 X10.4806 Y-0.7537 I-0.1652 J0.0477
G3 Y-0.7538 I0.089 J-0.0457
G2 X10.4488 Y-0.7934 I-0.1125 J0.0576
G2 X10.4141 Y-0.8149 I-0.0963 J0.117
G1 X10.414
G2 X10.38 Y-0.8273 I-0.1035 J0.2324
G2 X10.3213 Y-0.8383 I-0.0986 J0.3615
G2 X10.256 Y-0.8417 I-0.064 J0.6011
G3 X10.2558 I-0.0002 J-0.1
G1 X10.1172
G3 X10.0172 Y-0.9417 I0.0 J-0.1
G1 Y-2.2509
G1 Y-3.5296
G1 X9.9866 Y-3.575
G2 X9.9329 Y-3.6316 I-0.1992 J0.1348
G1 Y-3.6317
G2 X9.8228 Y-3.6822 I-0.1674 J0.2198
G3 X9.8223 I0.0207 J-0.0978
G2 X9.7037 Y-3.6818 I-0.0583 J0.2692
G3 X9.7024 Y-3.6815 I-0.0252 J-0.0968
G2 X9.6794 Y-3.6746 I0.0589 J0.2395
G2 X9.641 Y-3.6592 I0.1509 J0.4292
G3 X9.6405 Y-3.6589 I-0.0416 J-0.0909
G2 X9.624 Y-3.6508 I0.1097 J0.2437
G3 X9.6232 Y-3.6503 I-0.0472 J-0.0882
G2 X9.6095 Y-3.6424 I0.0813 J0.1555
G1 X9.6045 Y-3.6391
G3 X9.6031 Y-3.6382 I-0.0548 J-0.0836
G2 X9.589 Y-3.6286 I0.1175 J0.1863
G2 X9.5836 Y-3.6242 I0.0975 J0.1287
G2 X9.5783 Y-3.6177 I0.0147 J0.0173
G2 X9.5706 Y-3.5972 I0.0893 J0.0452
G3 X9.5703 Y-3.596 I-0.0969 J-0.0246
G2 X9.5634 Y-3.5638 I0.3082 J0.0823
G3 X9.5633 Y-3.5627 I-0.0988 J-0.0157
G2 X9.5584 Y-3.5275 I0.5666 J0.0964
G1 X9.5563 Y-3.508
G2 X9.5507 Y-3.433 I1.9459 J0.183
G3 Y-3.4326 I-0.0998 J-0.0055
G2 X9.5474 Y-3.3607 I2.6219 J0.1571
G3 Y-3.3604 I-0.0999 J-0.0032
G1 X9.5468 Y-3.3431
G1 X9.5457 Y-3.3093
G1 X9.5441 Y-3.2431
G2 X9.5422 Y-3.1191 I13.352 J0.2702
G1 X9.5419 Y-3.0918
G1 X9.541 Y-2.986
G1 X9.5407 Y-2.9398
G1 X9.5406 Y-2.9181
G1 X9.5401 Y-2.7497
G1 X9.5399 Y-2.497
G1 X9.5398 Y-2.4338
G1 Y-2.3389
G1 Y-2.2441
G1 Y-0.9417
G3 X9.4398 Y-0.8417 I-0.1 J0.0
G1 X9.3075
G3 X9.3069 I0.0 J-0.1
G2 X9.2794 Y-0.8411 I-0.0033 J0.4839
G1 X9.2651 Y-0.8403
G1 X9.2515 Y-0.8392
G2 X9.204 Y-0.8323 I0.0402 J0.4423
G3 X9.202 Y-0.8319 I-0.0198 J-0.098
G2 X9.1963 Y-0.8307 I0.0142 J0.0787
G3 X9.1941 Y-0.8301 I-0.0249 J-0.0969
G2 X9.1754 Y-0.8252 I0.0737 J0.3167
G2 X9.1426 Y-0.8131 I0.0804 J0.2691
G2 X9.1183 Y-0.8001 I0.08 J0.1796
G3 X9.1178 Y-0.7999 I-0.0531 J-0.0848
G2 X9.0844 Y-0.7717 I0.0785 J0.127
G2 X9.0662 Y-0.7457 I0.1056 J0.0931
G2 X9.0484 Y-0.6961 I0.1629 J0.0867
G2 X9.0424 Y-0.6354 I0.287 J0.0587
G3 Y-0.6344 I-0.1 J0.0006
G2 X9.0465 Y-0.5831 I0.3072 J0.0012
G2 X9.0572 Y-0.5434 I0.2186 J-0.0376
G2 X9.0903 Y-0.4916 I0.1372 J-0.0512
G2 X9.1292 Y-0.4631 I0.117 J-0.119
G3 X9.1302 Y-0.4626 I-0.0468 J0.0883
G2 X9.1376 Y-0.4589 I0.0636 J-0.1167
G3 X9.1382 Y-0.4586 I-0.0423 J0.0906
G2 X9.1552 Y-0.4513 I0.1029 J-0.2169
G1 X9.1644 Y-0.448
G2 X9.1965 Y-0.439 I0.1096 J-0.3288
G2 X9.2495 Y-0.4306 I0.095 J-0.4307
G1 X9.2647 Y-0.4293
G2 X9.3077 Y-0.4279 I0.0449 J-0.7049
G1 X9.4398
G3 X9.5081 Y-0.401 I0.0 J0.1
G0 Z90.0
G0 X6.7656 Y-0.9671
G1 Z0.0
G1 Y-1.126
G3 X6.7076 Y-1.0312 I-1.2596 J-0.7047
G3 X6.6929 Y-1.0095 I-1.0912 J-0.7234
G3 X6.7656 Y-0.9671 I-0.1743 J0.3821
G1 X6.8456
G1 Y-1.3227
G1 Y-1.5483
G3 X6.7689 Y-1.316 I-1.5799 J-0.3928
G3 X6.7282 Y-1.2267 I-1.311 J-0.5435
G3 X6.641 Y-1.0754 I-1.2222 J-0.6041
G3 X6.5585 Y-0.965 I-1.0246 J-0.6791
G3 X6.8456 Y-0.7208 I-0.0398 J0.3377
G1 Y-0.9671
G0 Z90.0
G0 X6.7656 Y-2.9574
G1 Z0.0
G1 Y-3.1675
G3 X6.6672 Y-3.1135 I-0.2496 J-0.3378
G3 X6.7047 Y-3.0592 I-1.054 J0.7676
G3 X6.7656 Y-2.9574 I-1.2385 J0.8098
G1 X6.6953 Y-2.9191
G3 X6.7076 Y-2.8961 I-1.2291 J0.6698
G3 X6.7081 Y-2.8951 I-0.3014 J0.157
G3 X6.7995 Y-2.6812 I-1.414 J0.7305
G3 X6.7997 Y-2.6807 I-0.3214 J0.1103
G3 X6.8249 Y-2.6011 I-1.8011 J0.6151
G3 X6.8251 Y-2.6006 I-0.3261 J0.0956
G3 X6.8456 Y-2.5241 I-1.7343 J0.5057
G1 Y-3.4218
G3 X6.5223 Y-3.1653 I-0.3296 J-0.0835
G3 X6.5381 Y-3.1475 I-0.8017 J0.7245
G3 X6.6378 Y-3.0154 I-0.9248 J0.8016
G3 X6.6953 Y-2.9191 I-1.1716 J0.7661
G0 Z90.0
G0 X4.7034 Y-2.7427
G1 Z0.0
G2 X4.6964 Y-2.7254 I1.2688 J0.5227
G3 Y-2.7252 I-0.3161 J-0.1252
G2 X4.6414 Y-2.5606 I1.4607 J0.5795
G1 X4.6367 Y-2.5432
G2 X4.5886 Y-2.2884 I1.8197 J0.4756
G1 Y-2.2883
G2 X4.5732 Y-2.022 I2.2013 J0.2606
G3 Y-2.0212 I-0.34 J0.0009
G2 X4.618 Y-1.6238 I1.7853 J0.0001
G2 X4.7099 Y-1.3413 I1.6108 J-0.3683
G2 X4.7425 Y-1.2707 I1.3639 J-0.5872
G3 X4.6999 Y-1.3802 I1.3896 J-0.6038
G3 X4.6577 Y-1.5195 I1.7724 J-0.6134
G3 X4.6571 Y-1.5219 I0.3288 J-0.0859
G1 X4.6507 Y-1.5472
G3 X4.6498 Y-1.5505 I0.3294 J-0.0835
G3 X4.6061 Y-1.7849 I2.1607 J-0.5249
G3 X4.5866 Y-2.1396 I2.2803 J-0.303
G3 X4.599 Y-2.3221 I1.9531 J0.0408
G3 X4.6309 Y-2.5094 I1.656 J0.1857
G3 X4.6311 Y-2.5101 I0.3312 J0.0761
G3 X4.7034 Y-2.7427 I1.608 J0.3728
G0 Z90.0
G0 X4.8523 Y-2.6841
G1 Z0.0
G3 X4.8655 Y-2.7163 I1.3868 J0.5467
G3 X4.8661 Y-2.7178 I0.1657 J0.0699
G1 X4.8745 Y-2.7372
G3 X4.875 Y-2.7384 I0.1651 J0.0713
G3 X4.9623 Y-2.9048 I1.2704 J0.5603
G3 X4.9625 Y-2.9051 I0.1532 J0.0941
G3 X5.045 Y-3.023 I1.0568 J0.652
G3 X5.0452 Y-3.0232 I0.1411 J0.1115
G3 X5.0629 Y-3.045 I0.7989 J0.6331
G3 X5.1337 Y-3.1216 I0.8141 J0.6814
G3 X5.1355 Y-3.1233 I0.1259 J0.1284
G1 X5.1473 Y-3.1346
G3 X5.1493 Y-3.1365 I0.1241 J0.1301
G1 X5.1549 Y-3.1417
G3 X5.2751 Y-3.2338 I0.556 J0.601
G3 X5.3457 Y-3.2725 I0.3604 J0.5723
G3 X5.3833 Y-3.289 I0.2756 J0.5799
G3 X5.3848 Y-3.2896 I0.0667 J0.167
G1 X5.3917 Y-3.2922
G3 X5.3953 Y-3.2936 I0.0652 J0.1676
G1 X5.4057 Y-3.2974
G3 X5.4102 Y-3.299 I0.0616 J0.169
G1 X5.4207 Y-3.3025
G3 X5.4232 Y-3.3033 I0.0571 J0.1705
G3 X5.4733 Y-3.3169 I0.1779 J0.5576
G3 X5.5592 Y-3.3314 I0.1746 J0.772
G1 X5.5664 Y-3.3322
G3 X5.5682 Y-3.3324 I0.0205 J0.1787
G3 X5.704 Y-3.3392 I0.1305 J1.25
G3 X5.9038 Y-3.3243 I-0.0043 J1.4082
G3 X6.0046 Y-3.3047 I-0.1593 J1.0867
G3 X6.0165 Y-3.3017 I-0.0564 J0.2471
G3 X6.063 Y-3.2881 I-0.2384 J0.9019
G3 X6.0774 Y-3.2832 I-0.1231 J0.3884
G3 X6.1002 Y-3.2747 I-0.1301 J0.3829
G1 X6.1068 Y-3.2721
G3 X6.1101 Y-3.2707 I-0.067 J0.1669
G1 X6.1172 Y-3.2677
G3 X6.1195 Y-3.2667 I-0.0703 J0.1655
G3 X6.2942 Y-3.1609 I-0.3213 J0.7275
G3 X6.4171 Y-3.0428 I-0.5736 J0.72
G3 X6.5038 Y-2.9278 I-0.8039 J0.6969
G3 X6.5657 Y-2.8222 I-1.0376 J0.6785
G3 X6.566 Y-2.8216 I-0.1595 J0.0831
G3 X6.6482 Y-2.6292 I-1.2719 J0.657
G3 X6.6483 Y-2.629 I-0.1701 J0.0584
G3 X6.6714 Y-2.5561 I-1.6497 J0.5634
G3 X6.6715 Y-2.5558 I-0.1726 J0.0506
G3 X6.7039 Y-2.425 I-1.5807 J0.4609
G3 X6.7334 Y-2.2291 I-1.8547 J0.3799
G3 X6.7358 Y-2.2031 I-1.011 J0.1051
G3 X6.7429 Y-2.0312 I-2.0274 J0.1706
G3 X6.7364 Y-1.87 I-1.9894 J0.0006
G3 X6.7356 Y-1.8603 I-0.2219 J-0.0137
G3 X6.7178 Y-1.719 I-1.744 J-0.1483
G3 X6.692 Y-1.594 I-1.6762 J-0.2799
G3 X6.6211 Y-1.3773 I-1.4264 J-0.3471
G3 X6.5849 Y-1.2978 I-1.1632 J-0.4821
G3 X6.5077 Y-1.164 I-1.0789 J-0.533
G3 X6.3553 Y-0.9818 I-0.8913 J-0.5906
G3 X6.3551 Y-0.9816 I-0.1243 J-0.13
G3 X6.1577 Y-0.8373 I-0.6492 J-0.681
G3 X6.157 Y-0.8369 I-0.0864 J-0.1577
G3 X6.0651 Y-0.7958 I-0.3152 J-0.5822
G3 X5.9105 Y-0.7554 I-0.3042 J-0.8481
G3 X5.6816 Y-0.741 I-0.1827 J-1.0762
G3 X5.5643 Y-0.753 I0.0399 J-0.9667
G3 X5.4445 Y-0.7821 I0.1314 J-0.8035
G3 X5.4421 Y-0.7829 I0.0555 J-0.1711
G3 X5.416 Y-0.7925 I0.1821 J-0.5357
G3 X5.3656 Y-0.8156 I0.1915 J-0.4837
G3 X5.2888 Y-0.8614 I0.3506 J-0.6749
G3 X5.2886 Y-0.8616 I0.1011 J-0.1488
G3 X5.1755 Y-0.9501 I0.6146 J-0.9015
G3 X5.0317 Y-1.101 I0.8694 J-0.9727
G3 X4.9989 Y-1.1435 I0.8295 J-0.6744
G3 X4.9759 Y-1.176 I0.866 J-0.6378
G3 X4.9116 Y-1.2858 I0.7158 J-0.4926
G3 X4.911 Y-1.287 I0.1614 J-0.0792
G3 X4.8511 Y-1.4325 I1.2211 J-0.5875
G3 X4.8125 Y-1.56 I1.6212 J-0.5611
G3 X4.8122 Y-1.5612 I0.174 J-0.0455
G1 X4.8058 Y-1.5866
G3 X4.8053 Y-1.5883 I0.1743 J-0.0442
G3 X4.7647 Y-1.8059 I2.0052 J-0.4871
G3 X4.7466 Y-2.1362 I2.1217 J-0.282
G3 X4.758 Y-2.304 I1.7932 J0.0374
G3 X4.7868 Y-2.4736 I1.497 J0.1677
G3 X4.7869 Y-2.474 I0.1753 J0.0403
G3 X4.8523 Y-2.6841 I1.4521 J0.3366
G1 X4.9266 Y-2.6548
G3 X4.939 Y-2.6853 I1.3125 J0.5174
G3 X4.9394 Y-2.6861 I0.0921 J0.0388
G1 X4.9477 Y-2.7055
G3 X4.9481 Y-2.7062 I0.0918 J0.0397
G3 X5.0303 Y-2.8631 I1.1973 J0.5281
G3 X5.0304 Y-2.8632 I0.0852 J0.0523
G3 X5.1077 Y-2.9735 I0.9889 J0.61
G3 Y-2.9737 I0.0785 J0.062
G3 X5.1241 Y-2.9937 I0.7363 J0.5835
G3 X5.1896 Y-3.0646 I0.7529 J0.6301
G3 X5.1906 Y-3.0655 I0.07 J0.0714
G1 X5.2024 Y-3.0768
G3 X5.2035 Y-3.0779 I0.069 J0.0724
G1 X5.2091 Y-3.083
G3 X5.3176 Y-3.1662 I0.5018 J0.5424
G3 X5.3799 Y-3.2004 I0.3178 J0.5048
G3 X5.4129 Y-3.2148 I0.2414 J0.5078
G3 X5.4137 Y-3.2151 I0.0371 J0.0929
G1 X5.4206 Y-3.2178
G3 X5.4226 Y-3.2186 I0.0362 J0.0932
G1 X5.4331 Y-3.2224
G3 X5.4356 Y-3.2233 I0.0342 J0.094
G1 X5.4461 Y-3.2268
G3 X5.4475 Y-3.2272 I0.0317 J0.0948
G3 X5.4908 Y-3.239 I0.1536 J0.4816
G3 X5.5682 Y-3.2521 I0.1571 J0.6941
G1 X5.5755 Y-3.2529
G3 X5.5765 Y-3.253 I0.0114 J0.0993
G3 X5.7037 Y-3.2594 I0.1222 J1.1705
G3 X5.8922 Y-3.2453 I-0.004 J1.3284
G3 X5.9863 Y-3.227 I-0.1477 J1.0077
G3 X5.9955 Y-3.2247 I-0.0381 J0.1694
G3 X6.0388 Y-3.212 I-0.2174 J0.8249
G3 X6.0511 Y-3.2078 I-0.0988 J0.3123
G3 X6.0702 Y-3.2007 I-0.1037 J0.3075
G1 X6.077 Y-3.198
G3 X6.0789 Y-3.1972 I-0.0373 J0.0928
G1 X6.086 Y-3.1942
G3 X6.0872 Y-3.1936 I-0.0391 J0.092
G3 X6.2444 Y-3.0984 I-0.2891 J0.6545
G3 X6.3567 Y-2.9905 I-0.5238 J0.6576
G3 X6.437 Y-2.8842 I-0.7435 J0.6447
G3 X6.4949 Y-2.7853 I-0.9708 J0.6348
G3 X6.4951 Y-2.785 I-0.0887 J0.0462
G3 X6.5727 Y-2.6033 I-1.2009 J0.6204
G3 Y-2.6032 I-0.0946 J0.0325
G3 X6.5948 Y-2.5336 I-1.5742 J0.5376
G3 Y-2.5335 I-0.096 J0.0281
G3 X6.6256 Y-2.409 I-1.5041 J0.4385
G3 X6.654 Y-2.2211 I-1.7765 J0.3639
G3 X6.6562 Y-2.1967 I-0.9316 J0.0971
G3 X6.6631 Y-2.0312 I-1.9478 J0.1641
G3 X6.6568 Y-1.8756 I-1.9096 J0.0006
G3 X6.6561 Y-1.868 I-0.1422 J-0.0081
G3 X6.639 Y-1.7321 I-1.6645 J-0.1407
G3 X6.6145 Y-1.6129 I-1.5975 J-0.2667
G3 X6.5474 Y-1.4079 I-1.3488 J-0.3281
G3 X6.5133 Y-1.3333 I-1.0894 J-0.4515
G3 X6.4412 Y-1.2081 I-1.0073 J-0.4975
G3 X6.3001 Y-1.0395 I-0.8248 J-0.5464
G3 X6.3 Y-1.0394 I-0.0691 J-0.0723
G3 X6.1194 Y-0.9073 I-0.5941 J-0.6232
G3 X6.119 Y-0.9071 I-0.048 J-0.0877
G3 X6.0382 Y-0.871 I-0.2772 J-0.512
G3 X5.8972 Y-0.8342 I-0.2772 J-0.773
G3 X5.6849 Y-0.8208 I-0.1694 J-0.9974
G3 X5.5773 Y-0.8318 I0.0365 J-0.887
G3 X5.4692 Y-0.858 I0.1185 J-0.7247
G3 X5.4678 Y-0.8585 I0.0309 J-0.0951
G3 X5.4454 Y-0.8667 I0.1564 J-0.4601
G3 X5.4026 Y-0.8864 I0.1621 J-0.4095
G3 X5.3337 Y-0.9275 I0.3136 J-0.6041
G3 X5.3336 Y-0.9276 I0.0562 J-0.0827
G3 X5.2288 Y-1.0096 I0.5696 J-0.8355
G3 X5.0937 Y-1.1513 I0.8162 J-0.9132
G3 X5.0632 Y-1.1908 I0.7675 J-0.624
G3 X5.0418 Y-1.2211 I0.8016 J-0.5905
G3 X4.9833 Y-1.321 I0.6499 J-0.4475
G3 X4.9829 Y-1.3217 I0.0898 J-0.0441
G3 X4.9266 Y-1.4586 I1.1492 J-0.5529
G3 X4.8897 Y-1.5802 I1.5458 J-0.5351
G3 X4.8896 Y-1.5809 I0.0968 J-0.0253
G1 X4.8831 Y-1.6062
G3 X4.8829 Y-1.6071 I0.0969 J-0.0246
G3 X4.8438 Y-1.8164 I1.9277 J-0.4683
G3 X4.8264 Y-2.1344 I2.0425 J-0.2715
G3 X4.8373 Y-2.295 I1.7133 J0.0356
G3 X4.8647 Y-2.4557 I1.4177 J0.1587
G3 Y-2.4559 I0.0975 J0.0224
G3 X4.9266 Y-2.6548 I1.3744 J0.3186
G0 Z90.0
G0 X4.7779 Y-2.7134
G1 Z0.0
G2 X4.709 Y-2.492 I1.4612 J0.5761
G2 X4.7089 Y-2.4915 I0.2531 J0.0587
G2 X4.6785 Y-2.313 I1.5461 J0.3552
G2 X4.6666 Y-2.1379 I1.8613 J0.2142
G2 X4.6854 Y-1.7954 I2.2198 J0.05
G2 X4.7276 Y-1.5694 I2.1252 J-0.28
G2 X4.7282 Y-1.5669 I0.2525 J-0.0613
G1 X4.7346 Y-1.5416
G2 X4.7351 Y-1.5397 I0.2519 J-0.0638
G2 X4.7755 Y-1.4064 I1.7373 J-0.4539
G2 X4.8389 Y-1.2524 I1.3566 J-0.4682
G2 X4.8398 Y-1.2505 I0.2341 J-0.1127
G2 X4.9099 Y-1.1308 I0.8518 J-0.4181
G2 X4.9344 Y-1.0962 I0.955 J-0.6505
G2 X4.9696 Y-1.0506 I0.9268 J-0.6792
G2 X5.1222 Y-0.8905 I1.0753 J-0.8722
G2 X5.2435 Y-0.7955 I0.781 J-0.8726
G2 X5.2439 Y-0.7952 I0.1464 J-0.2147
G2 X5.3286 Y-0.7447 I0.4723 J-0.6953
G2 X5.3866 Y-0.7181 I0.2789 J-0.5315
G2 X5.4164 Y-0.7071 I0.2377 J-0.6004
G2 X5.4198 Y-0.706 I0.0836 J-0.246
G2 X5.5514 Y-0.6741 I0.2759 J-0.8506
G2 X5.6782 Y-0.6611 I0.1701 J-1.0337
G2 X5.9239 Y-0.6766 I0.0496 J-1.1705
G2 X6.0921 Y-0.7205 I-0.163 J-0.9674
G2 X6.1951 Y-0.7665 I-0.2503 J-0.6985
G2 X6.1962 Y-0.7671 I-0.1237 J-0.2285
G2 X6.4103 Y-0.9237 I-0.4903 J-0.8955
G2 X6.4106 Y-0.9239 I-0.1793 J-0.1881
G2 X6.5743 Y-1.1197 I-0.7942 J-0.8306
G2 X6.6565 Y-1.2622 I-1.0683 J-0.711
G2 X6.695 Y-1.3467 I-1.1986 J-0.5972
G2 X6.7698 Y-1.575 I-1.4294 J-0.5944
G2 X6.7967 Y-1.7058 I-1.7282 J-0.4239
G2 X6.8153 Y-1.8528 I-1.8051 J-0.3029
G2 X6.8162 Y-1.8642 I-0.3007 J-0.0309
G2 X6.8229 Y-2.0312 I-2.0627 J-0.1664
G2 X6.8155 Y-2.2096 I-2.1146 J-0.0014
G2 X6.813 Y-2.2371 I-1.0931 J0.0856
G2 X6.7822 Y-2.4411 I-1.9639 J0.1919
G2 X6.7483 Y-2.5782 I-1.6915 J0.3462
G2 X6.7482 Y-2.5786 I-0.2495 J0.0727
G2 X6.724 Y-2.6548 I-1.7496 J0.5129
G2 X6.7238 Y-2.6552 I-0.2459 J0.084
G2 X6.6371 Y-2.8584 I-1.4297 J0.4906
G2 X6.6367 Y-2.8592 I-0.2309 J0.1193
G2 X6.5708 Y-2.9716 I-1.1704 J0.6099
G2 X6.4776 Y-3.0951 I-0.9576 J0.6258
G2 X6.344 Y-3.2234 I-0.757 J0.6543
G2 X6.1518 Y-3.3399 I-0.5458 J0.6843
G2 X6.1485 Y-3.3413 I-0.105 J0.2377
G1 X6.1414 Y-3.3443
G2 X6.1366 Y-3.3463 I-0.1016 J0.2392
G1 X6.1302 Y-3.3489
G2 X6.1038 Y-3.3588 I-0.1828 J0.4486
G2 X6.0873 Y-3.3643 I-0.1638 J0.459
G2 X6.0374 Y-3.3789 I-0.3092 J0.9645
G2 X6.023 Y-3.3825 I-0.0892 J0.3213
G2 X5.9154 Y-3.4035 I-0.2785 J1.1449
G1 X5.9153
G2 X5.7043 Y-3.4192 I-0.2157 J1.4725
G2 X5.5599 Y-3.412 I-0.0055 J1.3367
G2 X5.5572 Y-3.4117 I0.027 J0.2584
G1 X5.5502 Y-3.4109
G2 X5.4557 Y-3.3949 I0.0977 J0.866
G2 X5.3989 Y-3.3795 I0.1453 J0.6492
G2 X5.3953 Y-3.3784 I0.079 J0.2475
G1 X5.3848 Y-3.3748
G2 X5.3784 Y-3.3726 I0.0825 J0.2464
G1 X5.3679 Y-3.3688
G2 X5.3627 Y-3.3668 I0.089 J0.2441
G1 X5.3558 Y-3.3641
G2 X5.3536 Y-3.3633 I0.0942 J0.2422
G2 X5.3114 Y-3.3448 I0.2677 J0.6706
G2 X5.2325 Y-3.3015 I0.3241 J0.6834
G2 X5.1006 Y-3.2004 I0.4785 J0.7608
G1 X5.095 Y-3.1952
G2 X5.0921 Y-3.1925 I0.1764 J0.1908
G1 X5.0803 Y-3.1812
G2 X5.0777 Y-3.1787 I0.1794 J0.188
G2 X5.0015 Y-3.0963 I0.7992 J0.8151
G2 X4.9825 Y-3.0729 I0.8425 J0.7062
G2 X4.9822 Y-3.0726 I0.2036 J0.1614
G2 X4.8944 Y-2.9471 I1.0371 J0.8195
G2 X4.8941 Y-2.9467 I0.2211 J0.1364
G2 X4.8018 Y-2.7707 I1.2512 J0.7686
G2 X4.801 Y-2.7689 I0.2377 J0.1049
G1 X4.7926 Y-2.7495
G2 X4.7917 Y-2.7474 I0.2385 J0.103
G2 X4.7779 Y-2.7134 I1.4473 J0.6101
G0 Z90.0
G0 X4.63 Y-2.7745
G1 Z0.0
G2 X4.6221 Y-2.7549 I1.3423 J0.5544
G3 X4.622 Y-2.7547 I-0.2417 J-0.0957
G2 X4.5642 Y-2.5816 I1.535 J0.609
G1 X4.5594 Y-2.5638
G2 X4.5091 Y-2.2978 I1.897 J0.4961
G1 Y-2.2977
G2 X4.4932 Y-2.0218 I2.2808 J0.27
G3 Y-2.0212 I-0.26 J0.0007
G2 X4.54 Y-1.606 I1.8653 J0.0001
G2 X4.6364 Y-1.3097 I1.6888 J-0.3861
G2 X4.7431 Y-1.105 I1.4374 J-0.6188
G2 X4.8417 Y-0.966 I1.1742 J-0.7288
G3 X4.8419 Y-0.9657 I-0.2024 J0.1632
G2 X5.0173 Y-0.7889 I0.9354 J-0.7523
G2 X5.1162 Y-0.7176 I0.6849 J-0.8455
G2 X5.2213 Y-0.6596 I0.5277 J-0.832
G3 X5.2217 Y-0.6594 I-0.1115 J0.2349
G2 X5.2754 Y-0.6357 I0.4358 J-0.9136
G3 X5.2765 Y-0.6352 I-0.0981 J0.2408
G2 X5.4659 Y-0.5816 I0.3241 J-0.7845
G1 X5.4794 Y-0.5796
G1 X5.492 Y-0.5778
G2 X5.5356 Y-0.5728 I0.1371 J-1.0151
G1 X5.5561 Y-0.5711
G3 X5.5581 Y-0.5709 I-0.0221 J0.2591
G3 X5.5636 Y-0.5705 I-0.0148 J0.2596
G2 X5.5896 Y-0.5689 I0.0604 J-0.7706
G3 X5.5915 Y-0.5688 I-0.0115 J0.2597
G2 X5.6818 Y-0.5667 I0.0843 J-1.6321
G3 X5.6841 I0.0009 J0.26
G3 X5.6869 I0.0018 J0.26
G3 X5.6938 Y-0.5666 I0.0021 J0.26
G3 X5.7041 Y-0.5668 I0.0078 J0.2599
G2 X5.7052 I0.0002 J-0.0255
G3 X5.7108 Y-0.5669 I0.0087 J0.2599
G2 X5.7922 Y-0.5702 I-0.0173 J-1.42
G1 X5.8122 Y-0.5718
G2 X5.9417 Y-0.5904 I-0.0812 J-1.0209
G2 X5.9643 Y-0.5956 I-0.175 J-0.8168
G3 X5.9652 Y-0.5958 I0.0615 J0.2526
G2 X6.122 Y-0.6543 I-0.1613 J-0.6721
G1 X6.1324 Y-0.6598
G2 X6.1992 Y-0.7013 I-0.3456 J-0.6313
G2 X6.2652 Y-0.7526 I-0.5016 J-0.7136
G3 X6.2653 Y-0.7527 I0.1692 J0.1974
G1 X6.3496 Y-0.8249
G3 X6.7787 Y-0.6268 I0.1691 J0.1975
G1 X6.7769 Y0.1472
G1 X6.7765 Y0.3592
G3 Y0.3594 I-0.26 J-0.0005
G2 X6.7776 Y0.674 I25.9344 J0.0732
G1 X6.7781 Y0.7128
G1 X6.7782 Y0.7164
G1 X6.7789 Y0.7499
G1 X6.779 Y0.7531
G3 Y0.7542 I-0.2599 J0.0067
G2 X6.7809 Y0.8063 I1.8782 J-0.0404
G1 X6.7814 Y0.8165
G1 X6.7819 Y0.8262
G3 X6.782 Y0.8268 I-0.2596 J0.0148
G2 X6.784 Y0.8529 I0.5834 J-0.0318
G1 X6.7849 Y0.8608
G2 X6.785 Y0.8609 I0.0137 J-0.0155
G3 X6.7856 Y0.8614 I-0.1706 J0.1962
G2 X6.7943 Y0.8674 I0.0291 J-0.0332
G2 X6.8282 Y0.8777 I0.0457 J-0.0893
G3 X6.8295 Y0.8778 I-0.0304 J0.2582
G2 X6.8954 Y0.8699 I0.0169 J-0.1375
G1 X6.8955
G2 X6.9184 Y0.8574 I-0.0342 J-0.0903
G3 X6.9186 Y0.8572 I0.154 J0.2095
G2 X6.9256 Y0.8514 I-0.0397 J-0.0541
G1 Y-1.3227
G1 Y-3.4973
G2 X6.9172 Y-3.5053 I-0.0727 J0.0672
G2 X6.896 Y-3.5174 I-0.0433 J0.0513
G2 X6.8614 Y-3.5229 I-0.034 J0.1021
G3 X6.8603 I-0.0016 J-0.26
G2 X6.827 Y-3.5182 I0.0002 J0.1227
G3 X6.8263 Y-3.518 I-0.0711 J-0.2501
G2 X6.8005 Y-3.5079 I0.0379 J0.1348
G1 X6.8004
G2 X6.785 Y-3.4984 I0.0516 J0.101
G1 Y-3.4983
G2 X6.7797 Y-3.4941 I0.0396 J0.0541
G1 X6.7699 Y-3.4495
G3 X6.3581 Y-3.2987 I-0.2539 J-0.0558
G1 X6.2598 Y-3.3739
G1 X6.2505 Y-3.3809
G2 X6.1845 Y-3.4235 I-0.3924 J0.5358
G2 X6.0531 Y-3.4809 I-0.3569 J0.6379
G3 X6.0523 Y-3.4811 I0.0802 J-0.2473
G2 X5.9436 Y-3.5092 I-0.2697 J0.8217
G2 X5.7689 Y-3.5277 I-0.2019 J1.0672
G1 X5.7438 Y-3.5282
G2 X5.5855 Y-3.5196 I-0.0087 J1.3086
G3 X5.5846 Y-3.5195 I-0.0297 J-0.2583
G2 X5.4597 Y-3.4991 I0.1389 J1.2434
G3 X5.4594 I-0.0548 J-0.2542
G2 X5.238 Y-3.4273 I0.2394 J1.1158
G2 X5.0627 Y-3.3292 I0.4365 J0.9863
G1 X5.0626
G2 X4.9267 Y-3.2184 I0.6173 J0.8965
G1 X4.919 Y-3.211
G2 X4.8161 Y-3.0964 I0.8309 J0.8498
G3 X4.8158 Y-3.096 I-0.2043 J-0.1608
G2 X4.7758 Y-3.0423 I0.8788 J0.6948
G3 X4.7757 Y-3.0421 I-0.2132 J-0.1488
G2 X4.74 Y-2.9884 I1.129 J0.7895
G1 X4.7359 Y-2.9818
G1 X4.7319 Y-2.9754
G1 X4.728 Y-2.969
G2 X4.63 Y-2.7745 I1.2442 J0.749
G1 X4.5561 Y-2.805
G2 X4.5477 Y-2.7843 I1.4162 J0.585
G3 X4.5476 Y-2.7842 I-0.1673 J-0.0663
G2 X4.487 Y-2.6025 I1.6094 J0.6386
G1 X4.482 Y-2.5843
G2 X4.4297 Y-2.3071 I1.9743 J0.5167
G2 X4.4132 Y-2.0216 I2.3602 J0.2794
G3 Y-2.0212 I-0.18 J0.0005
G2 X4.462 Y-1.5882 I1.9453 J0.0001
G2 X4.5629 Y-1.2782 I1.7668 J-0.4039
G2 X4.6751 Y-1.0628 I1.5109 J-0.6503
G2 X4.7794 Y-0.9158 I1.2422 J-0.7709
G3 X4.7796 Y-0.9156 I-0.1401 J0.113
G2 X4.9668 Y-0.7268 I0.9977 J-0.8024
G2 X5.0733 Y-0.6501 I0.7354 J-0.9076
G2 X5.187 Y-0.5873 I0.5707 J-0.8995
G3 X5.1872 Y-0.5872 I-0.0772 J0.1626
G2 X5.2452 Y-0.5616 I0.4702 J-0.9858
G3 X5.246 Y-0.5613 I-0.0679 J0.1667
G2 X5.4534 Y-0.5026 I0.3547 J-0.8585
G1 X5.4677 Y-0.5004
G1 X5.4811 Y-0.4985
G2 X5.5286 Y-0.4931 I0.1481 J-1.0943
G1 X5.5493 Y-0.4914
G3 X5.5521 Y-0.4911 I-0.0153 J0.1793
G3 X5.5573 Y-0.4908 I-0.0088 J0.1798
G2 X5.5861 Y-0.489 I0.0666 J-0.8504
G3 X5.5874 I-0.008 J0.1798
G2 X5.6821 Y-0.4867 I0.0885 J-1.712
G3 X5.6842 I0.0007 J0.18
G3 X5.6871 I0.0017 J0.18
G3 X5.6928 I0.002 J0.18
G2 X5.6957 I0.0012 J-0.0556
G3 X5.7033 Y-0.4868 I0.0059 J0.1799
G2 X5.7079 I0.001 J-0.1055
G3 X5.7118 Y-0.4869 I0.006 J0.1799
G2 X5.798 Y-0.4904 I-0.0183 J-1.4999
G1 X5.8184 Y-0.492
G2 X5.9583 Y-0.5122 I-0.0874 J-1.1006
G2 X5.9833 Y-0.5179 I-0.1916 J-0.895
G3 X5.9839 Y-0.518 I0.0426 J0.1749
G2 X6.1592 Y-0.5835 I-0.18 J-0.7499
G1 X6.1704 Y-0.5895
G2 X6.2451 Y-0.6358 I-0.3836 J-0.7017
G2 X6.3173 Y-0.6919 I-0.5476 J-0.7791
G3 X6.3174 Y-0.692 I0.1171 J0.1367
G1 X6.4016 Y-0.7641
G3 X6.6987 Y-0.6269 I0.117 J0.1367
G1 X6.6969 Y0.147
G1 X6.6965 Y0.359
G3 Y0.3592 I-0.18 J-0.0003
G2 X6.6976 Y0.6749 I26.0144 J0.0734
G1 X6.6981 Y0.7142
G1 X6.6982 Y0.7179
G1 X6.6989 Y0.7517
G1 X6.699 Y0.7552
G3 Y0.7559 I-0.1799 J0.0046
G2 X6.701 Y0.8103 I1.9581 J-0.0421
G1 X6.7015 Y0.8208
G1 X6.7021 Y0.8307
G3 Y0.8312 I-0.1797 J0.0102
G2 X6.7044 Y0.8613 I0.6633 J-0.0361
G1 X6.7057 Y0.8728
G1 X6.707 Y0.8824
G2 X6.7085 Y0.8903 I0.1079 J-0.0163
G3 X6.7086 Y0.8907 I-0.1755 J0.0399
G2 X6.7087 Y0.8912 I0.0125 J-0.0028
G2 X6.7113 Y0.8957 I0.0532 J-0.0278
G3 X6.7129 Y0.8982 I-0.1517 J0.0969
G2 X6.7325 Y0.9213 I0.0857 J-0.0528
G3 X6.7329 Y0.9217 I-0.1181 J0.1358
G2 X6.7577 Y0.9385 I0.0817 J-0.0935
G2 X6.8189 Y0.9571 I0.0823 J-0.1604
G3 X6.8197 Y0.9572 I-0.0211 J0.1788
G2 X6.9238 Y0.9447 I0.0266 J-0.2169
G2 X6.9658 Y0.9218 I-0.0626 J-0.1651
G3 X6.966 Y0.9217 I0.1066 J0.145
G2 X6.9968 Y0.8912 I-0.0871 J-0.1186
G1 X7.0056 Y0.8793
G1 Y-1.3227
G1 Y-3.5247
G1 X6.9967 Y-3.5366
G3 X6.9965 Y-3.5368 I0.1443 J-0.1076
G2 X6.9689 Y-3.5663 I-0.1436 J0.1067
G2 X6.9218 Y-3.5931 I-0.0951 J0.1123
G2 X6.8609 Y-3.6029 I-0.0597 J0.1778
G3 X6.8602 I-0.0011 J-0.18
G2 X6.8051 Y-3.5952 I0.0004 J0.2027
G3 X6.8046 Y-3.595 I-0.0492 J-0.1731
G2 X6.7641 Y-3.5791 I0.0596 J0.2118
G1 X6.764
G2 X6.7377 Y-3.5629 I0.088 J0.1722
G2 X6.7223 Y-3.5499 I0.0869 J0.1187
G3 X6.7218 Y-3.5494 I-0.1252 J-0.1293
G2 X6.7075 Y-3.5318 I0.0636 J0.0661
G3 X6.7072 Y-3.5313 I-0.1528 J-0.0951
G2 X6.7047 Y-3.5252 I0.0172 J0.0108
G1 X6.6918 Y-3.4667
G3 X6.4067 Y-3.3623 I-0.1758 J-0.0386
G1 X6.3081 Y-3.4376
G1 X6.2982 Y-3.4451
G2 X6.2237 Y-3.4932 I-0.4401 J0.6001
G2 X6.0778 Y-3.557 I-0.3961 J0.7076
G3 X6.0772 Y-3.5572 I0.0555 J-0.1712
G2 X5.9584 Y-3.5878 I-0.2947 J0.8978
G2 X5.7706 Y-3.6077 I-0.2168 J1.1458
G1 X5.7448 Y-3.6082
G2 X5.5763 Y-3.5991 I-0.0097 J1.3886
G3 X5.5757 Y-3.599 I-0.0206 J-0.1788
G2 X5.4429 Y-3.5773 I0.1478 J1.3229
G3 X5.4427 I-0.038 J-0.176
G2 X5.2057 Y-3.5004 I0.2562 J1.1941
G2 X5.0173 Y-3.3951 I0.4688 J1.0594
G2 X4.8712 Y-3.2761 I0.6626 J0.9624
G1 X4.8633 Y-3.2684
G2 X4.7532 Y-3.1459 I0.8866 J0.9072
G3 X4.753 Y-3.1456 I-0.1414 J-0.1113
G2 X4.7102 Y-3.0881 I0.9415 J0.7444
G3 X4.7101 Y-3.0879 I-0.1476 J-0.103
G2 X4.6723 Y-3.031 I1.1946 J0.8354
G1 X4.6679 Y-3.024
G1 X4.6638 Y-3.0173
G1 X4.6596 Y-3.0105
G2 X4.5561 Y-2.805 I1.3126 J0.7905
G1 X4.4821 Y-2.8356
G2 X4.4733 Y-2.8138 I1.4901 J0.6155
G1 Y-2.8137
G2 X4.4098 Y-2.6235 I1.6838 J0.6681
G1 X4.4047 Y-2.6048
G2 X4.3502 Y-2.3165 I2.0517 J0.5372
G2 X4.3332 Y-2.0214 I2.4397 J0.2888
G3 Y-2.0212 I-0.1 J0.0003
G2 X4.384 Y-1.5704 I2.0253 J0.0001
G2 X4.4894 Y-1.2466 I1.8448 J-0.4217
G2 X4.6071 Y-1.0207 I1.5844 J-0.6819
G2 X4.7172 Y-0.8656 I1.3102 J-0.813
G3 X4.7173 Y-0.8655 I-0.0778 J0.0628
G2 X4.9163 Y-0.6648 I1.0601 J-0.8525
G2 X5.0303 Y-0.5826 I0.7859 J-0.9696
G2 X5.1526 Y-0.5151 I0.6137 J-0.967
G3 X5.1528 Y-0.515 I-0.0429 J0.0903
G2 X5.215 Y-0.4875 I0.5047 J-1.058
G3 X5.2155 Y-0.4873 I-0.0377 J0.0926
G2 X5.441 Y-0.4236 I0.3852 J-0.9324
G1 X5.456 Y-0.4213
G1 X5.4701 Y-0.4193
G2 X5.5216 Y-0.4135 I0.1591 J-1.1736
G1 X5.5425 Y-0.4117
G3 X5.5448 Y-0.4114 I-0.0085 J0.0996
G2 X5.5473 Y-0.4112 I0.004 J-0.0366
G3 X5.5511 Y-0.411 I-0.0041 J0.0999
G2 X5.5825 Y-0.4091 I0.0729 J-0.9302
G3 X5.5832 I-0.0044 J0.0999
G2 X5.6824 Y-0.4067 I0.0926 J-1.7919
G3 X5.6843 I0.0004 J0.1
G3 X5.6873 I0.0017 J0.1
G3 X5.6911 I0.0018 J0.1
G2 X5.6983 I0.0028 J-0.1356
G3 X5.7026 Y-0.4068 I0.0033 J0.0999
G2 X5.7106 Y-0.4069 I0.0018 J-0.1855
G3 X5.7127 I0.0034 J0.0999
G2 X5.8038 Y-0.4106 I-0.0193 J-1.5799
G1 X5.8246 Y-0.4122
G2 X5.9749 Y-0.4339 I-0.0936 J-1.1804
G2 X6.0022 Y-0.4402 I-0.2082 J-0.9733
G3 X6.0025 I0.0237 J0.0972
G2 X6.1965 Y-0.5127 I-0.1987 J-0.8277
G1 X6.2084 Y-0.5191
G2 X6.291 Y-0.5703 I-0.4217 J-0.7721
G2 X6.3693 Y-0.6311 I-0.5935 J-0.8446
G1 X6.3694 Y-0.6312
G1 X6.4536 Y-0.7033
G3 X6.6187 Y-0.6271 I0.065 J0.076
G1 X6.6169 Y0.1469
G1 X6.6165 Y0.3589
G1 Y0.359
G2 X6.6176 Y0.6759 I26.0944 J0.0737
G1 X6.6182 Y0.7155
G1 Y0.7195
G1 X6.619 Y0.7536
G1 X6.6191 Y0.7572
G3 Y0.7576 I-0.1 J0.0026
G2 X6.6211 Y0.8143 I2.0381 J-0.0438
G1 X6.6216 Y0.8251
G1 X6.6222 Y0.8353
G3 Y0.8355 I-0.0998 J0.0057
G2 X6.6249 Y0.8697 I0.7432 J-0.0405
G1 X6.6263 Y0.8827
G1 X6.6278 Y0.8938
G2 X6.6305 Y0.908 I0.1871 J-0.0277
G3 X6.6306 Y0.9083 I-0.0975 J0.0222
G2 X6.6351 Y0.9227 I0.0906 J-0.0204
G2 X6.6439 Y0.9388 I0.1269 J-0.0593
G3 X6.6448 Y0.9402 I-0.0843 J0.0539
G2 X6.68 Y0.9817 I0.1538 J-0.0948
G3 X6.6802 Y0.9819 I-0.0656 J0.0755
G2 X6.7211 Y1.0096 I0.1344 J-0.1537
G2 X6.8095 Y1.0366 I0.1189 J-0.2315
G3 X6.81 Y1.0367 I-0.0117 J0.0993
G2 X6.9522 Y1.0195 I0.0363 J-0.2963
G2 X7.0132 Y0.9863 I-0.0909 J-0.2399
G1 X7.0133 Y0.9862
G2 X7.0609 Y0.939 I-0.1344 J-0.1831
G1 X7.0856 Y0.9059
G1 Y-1.3227
G1 Y-3.5512
G1 X7.0609 Y-3.5844
G3 X7.0608 Y-3.5845 I0.0802 J-0.0598
G2 X7.0207 Y-3.6273 I-0.2079 J0.1544
G2 X6.9476 Y-3.6689 I-0.1469 J0.1733
G2 X6.8604 Y-3.6829 I-0.0855 J0.2535
G3 X6.86 I-0.0006 J-0.1
G2 X6.7832 Y-3.6721 I0.0005 J0.2827
G3 X6.7829 Y-3.672 I-0.0274 J-0.0962
G2 X6.7276 Y-3.6504 I0.0813 J0.2888
G2 X6.6904 Y-3.6274 I0.1244 J0.2435
G2 X6.6666 Y-3.6073 I0.1342 J0.1832
G3 X6.6663 Y-3.6071 I-0.0696 J-0.0718
G2 X6.6396 Y-3.574 I0.119 J0.1238
G3 X6.6394 Y-3.5738 I-0.0849 J-0.0528
G2 X6.6266 Y-3.5428 I0.085 J0.0532
G1 X6.6137 Y-3.4838
G3 X6.4553 Y-3.4258 I-0.0977 J-0.0215
G1 X6.3565 Y-3.5014
G1 X6.3459 Y-3.5093
G2 X6.2628 Y-3.563 I-0.4878 J0.6643
G2 X6.1025 Y-3.6331 I-0.4353 J0.7773
G3 X6.1021 Y-3.6332 I0.0309 J-0.0951
G2 X5.9733 Y-3.6664 I-0.3196 J0.9738
G2 X5.7723 Y-3.6877 I-0.2317 J1.2244
G1 X5.7458 Y-3.6882
G2 X5.5672 Y-3.6786 I-0.0106 J1.4685
G3 X5.5668 Y-3.6785 I-0.0114 J-0.0993
G2 X5.426 Y-3.6555 I0.1567 J1.4024
G3 X5.4259 I-0.0211 J-0.0978
G2 X5.1734 Y-3.5736 I0.273 J1.2723
G2 X4.9719 Y-3.461 I0.5012 J1.1326
G2 X4.8158 Y-3.3337 I0.708 J1.0283
G1 X4.8075 Y-3.3258
G2 X4.6904 Y-3.1954 I0.9423 J0.9646
G3 X4.6903 Y-3.1952 I-0.0786 J-0.0619
G2 X4.6446 Y-3.1338 I1.0043 J0.794
G2 X4.6045 Y-3.0735 I1.2602 J0.8812
G1 X4.6 Y-3.0663
G1 X4.5956 Y-3.0591
G1 X4.5912 Y-3.052
G2 X4.4821 Y-2.8356 I1.3811 J0.8319
G0 Z90.0
G0 X3.3682 Y-2.9294
G1 Z0.0
G1 X3.3683 Y-3.2101
G3 X3.3304 Y-3.1805 I-0.2845 J-0.3259
G3 X3.2397 Y-3.1325 I-0.244 J-0.3505
G3 X3.3211 Y-3.013 I-1.0847 J0.8259
G3 X3.3682 Y-2.9294 I-1.2431 J0.7563
G1 X3.4482
G1 X3.4483 Y-3.4333
G1 X3.4437 Y-3.4423
G2 X3.434 Y-3.4441 I-0.0151 J0.0535
G3 X3.4191 Y-3.4114 I-0.6512 J-0.2773
G3 X3.4095 Y-3.3925 I-0.3897 J-0.1865
G1 X3.4049 Y-3.3841
G3 X3.3991 Y-3.3737 I-0.2992 J-0.1616
G3 X3.3802 Y-3.3438 I-0.4756 J-0.2789
G3 X3.3398 Y-3.2935 I-0.31 J-0.2079
G3 X3.2847 Y-3.2462 I-0.256 J-0.2425
G3 X3.1274 Y-3.1864 I-0.1983 J-0.2848
G3 X3.0908 Y-3.184 I-0.0402 J-0.3376
G3 X3.1572 Y-3.1082 I-0.807 J0.7735
G3 X3.2527 Y-2.9715 I-1.0022 J0.8017
G3 X3.3114 Y-2.8646 I-1.1747 J0.7148
G3 X3.38 Y-2.7046 I-1.4549 J0.7182
G3 X3.4072 Y-2.6247 I-1.4912 J0.5525
G3 X3.4146 Y-2.6004 I-0.741 J0.2405
G3 X3.4307 Y-2.5437 I-2.291 J0.6797
G3 X3.4319 Y-2.5389 I-0.3281 J0.0886
G1 X3.4352 Y-2.526
G3 X3.4365 Y-2.521 I-0.3293 J0.0838
G1 X3.438 Y-2.5146
G3 X3.4382 Y-2.5136 I-0.3306 J0.0788
G3 X3.4481 Y-2.4672 I-1.1073 J0.2602
G1 X3.4482 Y-2.9294
G0 Z90.0
G0 X3.3678 Y-1.1538
G1 Z0.0
G1 X3.3626 Y-1.1442
G3 X3.3603 Y-1.1401 I-0.369 J-0.2002
G1 X3.354 Y-1.1287
G3 X3.3517 Y-1.1245 I-0.3667 J-0.2044
G1 X3.3453 Y-1.1134
G3 X3.3432 Y-1.1098 I-0.3644 J-0.2085
G3 X3.3087 Y-1.0533 I-1.5158 J-0.8879
G3 X3.3083 Y-1.0528 I-0.354 J-0.2257
G3 X3.2637 Y-0.9873 I-1.1346 J-0.7258
G3 X3.3677 Y-0.9199 I-0.1738 J0.3823
G1 Y-0.9276
G1 X3.3678 Y-1.1538
G1 X3.4478
G1 X3.4479 Y-1.3236
G1 Y-1.5877
G3 X3.4294 Y-1.5138 I-0.9421 J-0.1972
G3 X3.4285 Y-1.5108 I-0.3261 J-0.0957
G3 X3.3724 Y-1.3518 I-1.8251 J-0.554
G3 X3.3074 Y-1.2107 I-1.4626 J-0.5881
G3 X3.3067 Y-1.2092 I-0.3013 J-0.1572
G1 X3.3004 Y-1.1974
G3 X3.2986 Y-1.194 I-0.3005 J-0.1586
G1 X3.2923 Y-1.1824
G3 X3.2905 Y-1.179 I-0.2987 J-0.162
G1 X3.2841 Y-1.1677
G3 X3.2822 Y-1.1643 I-0.2969 J-0.1654
G1 X3.2759 Y-1.1532
G3 X3.2742 Y-1.1502 I-0.295 J-0.1688
G3 X3.2412 Y-1.0963 I-1.4468 J-0.8474
G3 X3.2409 Y-1.0959 I-0.2866 J-0.1827
G3 X3.1662 Y-0.9912 I-1.0672 J-0.6827
G3 X3.1261 Y-0.943 I-0.9404 J-0.7431
G3 X3.4298 Y-0.6052 I-0.0362 J0.3381
G1 X3.4303 Y0.1313
G3 Y0.1317 I-0.34 J0.0002
G2 X3.4317 Y0.5408 I50.0831 J0.0278
G1 X3.4323 Y0.5914
G1 X3.4324 Y0.5964
G1 X3.4325 Y0.6018
G1 X3.4326 Y0.6071
G1 Y0.6123
G1 X3.4327 Y0.6174
G1 X3.4328 Y0.6227
G3 Y0.6237 I-0.34 J0.0057
G2 X3.4346 Y0.6997 I4.0641 J-0.0561
G1 X3.4351 Y0.7144
G1 X3.4355 Y0.727
G1 X3.4366 Y0.7509
G2 X3.4394 Y0.6753 I-3.1558 J-0.1544
G3 Y0.6739 I0.3399 J0.0085
G2 X3.4409 Y0.614 I-7.1369 J-0.2086
G1 X3.4412 Y0.5988
G3 X3.4413 Y0.5965 I0.3399 J0.0071
G2 Y0.5941 I-0.1601 J-0.0044
G3 X3.4414 Y0.5918 I0.34 J0.0042
G2 X3.4445 Y0.3558 I-18.9263 J-0.3662
G3 Y0.3556 I0.34 J0.0023
G1 X3.4453 Y0.2509
G1 X3.4462 Y0.0546
G1 X3.4468 Y-0.1174
G1 X3.4471 Y-0.2679
G1 X3.4475 Y-0.5317
G1 X3.4477 Y-0.9276
G1 X3.4478 Y-1.1538
G0 Z90.0
G0 X1.3791 Y-1.1753
G1 Z0.0
G3 X1.3571 Y-1.2178 I1.3118 J-0.7089
G3 X1.3568 Y-1.2183 I0.304 J-0.1519
G3 X1.3212 Y-1.2949 I1.3905 J-0.6919
G3 X1.2761 Y-1.4111 I1.523 J-0.6581
G3 X1.2754 Y-1.4132 I0.3212 J-0.111
G1 X1.2675 Y-1.4367
G3 X1.2668 Y-1.4386 I0.3219 J-0.1089
G3 X1.2526 Y-1.4836 I1.5176 J-0.5034
G3 X1.2523 Y-1.4847 I0.3256 J-0.0974
G1 X1.2471 Y-1.5025
G3 X1.246 Y-1.5063 I0.3259 J-0.0964
G1 X1.2409 Y-1.5242
G3 X1.2402 Y-1.5267 I0.327 J-0.0926
G3 X1.1889 Y-1.7744 I1.9024 J-0.5233
G3 X1.1888 Y-1.7749 I0.3365 J-0.0475
G3 X1.1753 Y-2.2147 I2.024 J-0.2825
G3 X1.1834 Y-2.2982 I1.8733 J0.1417
G3 X1.246 Y-2.6078 I1.9082 J0.2244
G3 X1.2466 Y-2.6097 I0.3264 J0.0945
G1 X1.25 Y-2.6215
G3 X1.251 Y-2.6245 I0.3259 J0.0963
G3 X1.2681 Y-2.6782 I2.3127 J0.7072
G3 X1.2685 Y-2.6795 I0.3226 J0.1069
G3 X1.3134 Y-2.7979 I1.5555 J0.5224
G2 X1.237 Y-2.6022 I1.3127 J0.6254
G3 X1.2369 Y-2.6018 I-0.3248 J-0.1005
G2 X1.1864 Y-2.3924 I1.589 J0.4936
G1 X1.1827 Y-2.3704
G2 X1.1586 Y-2.0512 I1.9082 J0.3044
G2 X1.1853 Y-1.7246 I2.2207 J-0.0171
G3 X1.1855 Y-1.7238 I-0.3359 J0.0526
G2 X1.2245 Y-1.5416 I1.5948 J-0.2461
G3 X1.2246 Y-1.5411 I-0.3278 J0.0902
G2 X1.2754 Y-1.3878 I1.4647 J-0.4008
G3 X1.2756 Y-1.3875 I-0.3166 J0.1241
G2 X1.333 Y-1.2592 I1.3599 J-0.5314
G3 X1.3331 Y-1.2589 I-0.3033 J0.1536
G2 X1.3791 Y-1.1753 I1.2026 J-0.6075
G0 Z90.0
G0 X1.5199 Y-1.2514
G1 Z0.0
G3 X1.5002 Y-1.2893 I1.1711 J-0.6328
G3 X1.5001 Y-1.2895 I0.1609 J-0.0804
G3 X1.4681 Y-1.3584 I1.2473 J-0.6207
G3 X1.4274 Y-1.4634 I1.3761 J-0.5946
G3 X1.427 Y-1.4645 I0.17 J-0.0587
G1 X1.419 Y-1.488
G3 X1.4187 Y-1.489 I0.1704 J-0.0576
G3 X1.4059 Y-1.5295 I1.3657 J-0.453
G3 X1.4058 Y-1.5301 I0.1723 J-0.0516
G1 X1.4005 Y-1.5479
G3 X1.3999 Y-1.5499 I0.1725 J-0.051
G1 X1.3948 Y-1.5678
G3 X1.3945 Y-1.5691 I0.173 J-0.049
G3 X1.3473 Y-1.7968 I1.7482 J-0.4808
G3 Y-1.797 I0.1781 J-0.0251
G3 X1.3348 Y-2.2025 I1.8655 J-0.2604
G3 X1.3423 Y-2.2792 I1.7138 J0.1295
G3 X1.3997 Y-2.5633 I1.7493 J0.2055
G3 X1.4 Y-2.5643 I0.1728 J0.05
G1 X1.4035 Y-2.5761
G3 X1.404 Y-2.5777 I0.1725 J0.051
G3 X1.4199 Y-2.6279 I2.1597 J0.6605
G3 X1.4202 Y-2.6285 I0.1707 J0.0566
G3 X1.4994 Y-2.8193 I1.4039 J0.4715
G3 X1.5802 Y-2.9575 I1.0835 J0.5404
G3 X1.6553 Y-3.0561 I0.8603 J0.5779
G3 X1.7204 Y-3.1246 I0.7396 J0.6367
G3 X1.7205 Y-3.1248 I0.1243 J0.13
G3 X1.8351 Y-3.2166 I0.5857 J0.6139
G3 X1.8356 Y-3.2169 I0.0998 J0.1496
G3 X1.9707 Y-3.2877 I0.4121 J0.6217
G3 X1.9733 Y-3.2887 I0.0668 J0.167
G1 X1.9825 Y-3.2922
G3 X1.9857 Y-3.2935 I0.0642 J0.168
G3 X2.0837 Y-3.3213 I0.2506 J0.6962
G3 X2.0843 Y-3.3214 I0.0371 J0.176
G3 X2.2468 Y-3.3414 I0.2031 J0.9812
G3 X2.4828 Y-3.3286 I0.0525 J1.2155
G3 X2.6033 Y-3.3027 I-0.1494 J0.9882
G3 X2.6038 Y-3.3026 I-0.0486 J0.1732
G3 X2.6636 Y-3.2833 I-0.2383 J0.8406
G3 X2.6735 Y-3.2795 I-0.1089 J0.3068
G3 X2.7288 Y-3.2556 I-0.2196 J0.5822
G3 X2.8395 Y-3.1903 I-0.3646 J0.7442
G3 X2.8852 Y-3.156 I-0.4314 J0.6237
G1 X2.8891 Y-3.1529
G3 X2.8901 Y-3.1521 I-0.1128 J0.1401
G3 X3.0322 Y-3.0083 I-0.6063 J0.7415
G3 X3.1159 Y-2.8885 I-0.8772 J0.7018
G3 X3.1679 Y-2.7938 I-1.038 J0.6317
G3 X3.2298 Y-2.6493 I-1.3114 J0.6474
G3 X3.2547 Y-2.5762 I-1.341 J0.4971
G3 X3.2611 Y-2.5555 I-0.5885 J0.192
G3 X3.2762 Y-2.502 I-2.1375 J0.6348
G3 X3.2769 Y-2.4995 I-0.1736 J0.0469
G1 X3.2802 Y-2.4866
G3 X3.2808 Y-2.4839 I-0.1743 J0.0444
G1 X3.2823 Y-2.4775
G3 X3.2825 Y-2.477 I-0.1749 J0.0417
G3 X3.295 Y-2.4145 I-0.9516 J0.2236
G3 X3.2952 Y-2.4137 I-0.1774 J0.0296
G1 X3.2991 Y-2.3897
G3 X3.2996 Y-2.3864 I-0.1775 J0.0288
G1 X3.3029 Y-2.363
G3 X3.3033 Y-2.3603 I-0.178 J0.0256
G1 X3.3062 Y-2.3376
G3 X3.3064 Y-2.3358 I-0.1784 J0.0228
G1 X3.3077 Y-2.3248
G3 X3.3078 Y-2.3236 I-0.1786 J0.021
G3 X3.3215 Y-2.1366 I-2.4813 J0.2754
G3 X3.3194 Y-1.8588 I-2.9989 J0.1157
G3 X3.3144 Y-1.7881 I-2.1144 J-0.1133
G3 X3.3016 Y-1.6785 I-1.5677 J-0.1272
G3 X3.3013 Y-1.6764 I-0.1778 J-0.0271
G1 X3.2973 Y-1.6522
G3 X3.2972 Y-1.6514 I-0.1775 J-0.0291
G3 X3.2759 Y-1.5589 I-0.7913 J-0.1335
G3 X3.2754 Y-1.5573 I-0.1726 J-0.0506
G3 X3.224 Y-1.4115 I-1.672 J-0.5075
G3 X3.1656 Y-1.2847 I-1.3142 J-0.5283
G3 X3.1652 Y-1.2839 I-0.1594 J-0.0832
G1 X3.1589 Y-1.2721
G3 X3.158 Y-1.2703 I-0.159 J-0.0839
G1 X3.1517 Y-1.2587
G3 X3.1507 Y-1.2569 I-0.1581 J-0.0857
G1 X3.1444 Y-1.2455
G3 X3.1434 Y-1.2437 I-0.1571 J-0.0875
G1 X3.137 Y-1.2326
G3 X3.1361 Y-1.2311 I-0.1561 J-0.0893
G3 X3.1063 Y-1.1823 I-1.3087 J-0.7666
G3 X3.1062 Y-1.1821 I-0.1516 J-0.0967
G3 X3.0407 Y-1.0905 I-0.9325 J-0.5964
G3 X2.9751 Y-1.0152 I-0.815 J-0.6438
G3 X2.8402 Y-0.8985 I-0.6903 J-0.6619
G3 X2.8401 Y-0.8984 I-0.1044 J-0.1464
G3 X2.594 Y-0.777 I-0.4976 J-0.6987
G3 X2.4602 Y-0.7473 I-0.2551 J-0.8322
G3 X2.3261 Y-0.7382 I-0.13 J-0.9206
G3 X2.1524 Y-0.7552 I0.0014 J-0.9121
G1 X2.1523
G3 X1.8643 Y-0.8697 I0.1621 J-0.8273
G3 X1.7708 Y-0.9376 I0.4532 J-0.7212
G1 Y-0.9377
G3 X1.6342 Y-1.0775 I0.6266 J-0.7484
G1 Y-1.0776
G3 X1.5529 Y-1.1939 I0.8885 J-0.7078
G3 X1.5527 Y-1.1942 I0.1535 J-0.0936
G1 X1.5498 Y-1.199
G3 X1.5492 Y-1.1999 I0.1537 J-0.0933
G3 X1.5199 Y-1.2514 I1.1417 J-0.6843
G1 X1.5901 Y-1.2893
G3 X1.5716 Y-1.325 I1.1008 J-0.5949
G3 Y-1.3251 I0.0895 J-0.0447
G3 X1.5414 Y-1.39 I1.1758 J-0.5851
G3 X1.5028 Y-1.4894 I1.3028 J-0.563
G3 X1.5026 Y-1.4901 I0.0945 J-0.0327
G1 X1.4947 Y-1.5136
G3 X1.4945 Y-1.5141 I0.0947 J-0.032
G3 X1.4824 Y-1.5524 I1.2899 J-0.4279
G3 X1.4823 Y-1.5527 I0.0958 J-0.0287
G1 X1.477 Y-1.5705
G3 X1.4767 Y-1.5716 I0.0959 J-0.0284
G1 X1.4717 Y-1.5895
G3 X1.4714 Y-1.5903 I0.0962 J-0.0273
G3 X1.4264 Y-1.8079 I1.6712 J-0.4597
G3 X1.4263 Y-1.808 I0.099 J-0.014
G3 X1.4144 Y-2.1965 I1.7864 J-0.2493
G3 X1.4216 Y-2.2698 I1.6342 J0.1234
G3 X1.4764 Y-2.5412 I1.6701 J0.196
G3 X1.4766 Y-2.5417 I0.0961 J0.0278
G1 X1.48 Y-2.5535
G3 X1.4803 Y-2.5544 I0.0959 J0.0284
G3 X1.4957 Y-2.6027 I2.0834 J0.6371
G3 X1.4958 Y-2.6031 I0.0949 J0.0315
G3 X1.5709 Y-2.7837 I1.3282 J0.4461
G3 X1.6464 Y-2.9129 I1.0121 J0.5048
G3 X1.7158 Y-3.004 I0.7941 J0.5333
G3 X1.7756 Y-3.0669 I0.6791 J0.5846
G3 X1.7757 Y-3.067 I0.0691 J0.0723
G3 X1.8795 Y-3.1502 I0.5306 J0.5562
G3 X1.8797 Y-3.1504 I0.0555 J0.0832
G3 X2.0003 Y-3.2136 I0.368 J0.5552
G3 X2.0018 Y-3.2142 I0.0371 J0.0928
G1 X2.0109 Y-3.2177
G3 X2.0128 Y-3.2183 I0.0357 J0.0934
G3 X2.1001 Y-3.2431 I0.2235 J0.6211
G3 X2.1005 Y-3.2432 I0.0206 J0.0978
G3 X2.2502 Y-3.2616 I0.187 J0.903
G3 X2.4708 Y-3.2497 I0.0492 J1.1357
G3 X2.5817 Y-3.2258 I-0.1374 J0.9092
G3 X2.582 Y-3.2257 I-0.027 J0.0963
G3 X2.6366 Y-3.2081 I-0.2166 J0.7638
G3 X2.6449 Y-3.205 I-0.0819 J0.2316
G3 X2.6936 Y-3.1839 I-0.191 J0.5077
G3 X2.7939 Y-3.1247 I-0.3294 J0.6726
G3 X2.835 Y-3.0939 I-0.3858 J0.5582
G1 X2.839 Y-3.0907
G3 X2.8396 Y-3.0903 I-0.0627 J0.0779
G3 X2.9698 Y-2.9585 I-0.5557 J0.6797
G3 X3.0477 Y-2.847 I-0.8148 J0.6519
G3 X3.0963 Y-2.7585 I-0.9697 J0.5903
G3 X3.1549 Y-2.6217 I-1.2398 J0.6121
G3 X3.1786 Y-2.552 I-1.2661 J0.4695
G3 X3.1844 Y-2.5331 I-0.5125 J0.1678
G3 X3.1991 Y-2.4812 I-2.0608 J0.6124
G3 X3.1995 Y-2.4798 I-0.0965 J0.0261
G1 X3.2028 Y-2.4669
G3 X3.2032 Y-2.4654 I-0.0969 J0.0247
G1 X3.2047 Y-2.459
G3 X3.2048 Y-2.4587 I-0.0973 J0.0232
G3 X3.2163 Y-2.4013 I-0.8739 J0.2053
G3 Y-2.4009 I-0.0986 J0.0165
G1 X3.2203 Y-2.3769
G3 X3.2205 Y-2.375 I-0.0987 J0.016
G1 X3.2239 Y-2.3517
G3 X3.2241 Y-2.3501 I-0.099 J0.0142
G1 X3.227 Y-2.3275
G3 X3.2271 Y-2.3265 I-0.0992 J0.0127
G1 X3.2284 Y-2.3155
G3 X3.2285 Y-2.3148 I-0.0993 J0.0117
G3 X3.2417 Y-2.1337 I-2.402 J0.2666
G3 X3.2396 Y-1.8631 I-2.9191 J0.1127
G3 X3.2348 Y-1.7948 I-2.0347 J-0.109
G3 X3.2227 Y-1.6905 I-1.4881 J-0.1205
G3 X3.2225 Y-1.6894 I-0.0989 J-0.0151
G1 X3.2185 Y-1.6651
G3 X3.2184 Y-1.6647 I-0.0987 J-0.0162
G3 X3.1993 Y-1.5814 I-0.7126 J-0.1202
G3 X3.199 Y-1.5805 I-0.096 J-0.0282
G3 X3.1499 Y-1.4413 I-1.5956 J-0.4843
G3 X3.0948 Y-1.3216 I-1.2401 J-0.4985
G3 X3.0946 Y-1.3212 I-0.0887 J-0.0463
G1 X3.0883 Y-1.3093
G3 X3.0878 Y-1.3083 I-0.0884 J-0.0467
G1 X3.0815 Y-1.2967
G3 X3.0809 Y-1.2957 I-0.0879 J-0.0477
G1 X3.0746 Y-1.2844
G3 X3.0741 Y-1.2834 I-0.0874 J-0.0487
G1 X3.0677 Y-1.2723
G3 X3.0672 Y-1.2714 I-0.0868 J-0.0497
G3 X3.039 Y-1.2253 I-1.2398 J-0.7262
G3 X3.0389 Y-1.2251 I-0.0843 J-0.0538
G3 X2.9782 Y-1.14 I-0.8652 J-0.5534
G3 X2.9175 Y-1.0704 I-0.7524 J-0.5942
G3 X2.7938 Y-0.9635 I-0.6327 J-0.6067
G3 X2.5706 Y-0.8534 I-0.4513 J-0.6337
G3 X2.4491 Y-0.8264 I-0.2317 J-0.7559
G3 X2.3263 Y-0.818 I-0.1188 J-0.8416
G3 X2.1677 Y-0.8335 I0.0011 J-0.8323
G3 X1.9068 Y-0.9372 I0.1468 J-0.749
G3 X1.8221 Y-0.9989 I0.4106 J-0.6537
G1 X1.822
G3 X1.6967 Y-1.1273 I0.5753 J-0.6872
G1 X1.6966
G3 X1.621 Y-1.2355 I0.8261 J-0.6581
G3 X1.6209 Y-1.2357 I0.0854 J-0.0521
G1 X1.618 Y-1.2404
G3 X1.6177 Y-1.2409 I0.0855 J-0.0519
G3 X1.5901 Y-1.2893 I1.0733 J-0.6433
G0 Z90.0
G0 X1.4495 Y-1.2134
G1 Z0.0
G2 X1.4806 Y-1.1588 I1.2414 J-0.6709
G2 X1.4814 Y-1.1575 I0.2229 J-0.1336
G1 X1.4843 Y-1.1527
G2 X1.4846 Y-1.1522 I0.2221 J-0.1348
G2 X1.5716 Y-1.0277 I1.0381 J-0.6332
G2 X1.5717 Y-1.0276 I0.2032 J-0.1619
G2 X1.7194 Y-0.8763 I0.8257 J-0.6585
G1 X1.7195
G2 X1.8216 Y-0.802 I0.5979 J-0.7146
G2 X2.1369 Y-0.6767 I0.4928 J-0.7805
G1 X2.137 Y-0.6766
G2 X2.3259 Y-0.6582 I0.1905 J-0.9736
G2 X2.4714 Y-0.6681 I0.0044 J-1.0098
G2 X2.6174 Y-0.7006 I-0.1325 J-0.9412
G1 X2.6175
G2 X2.8865 Y-0.8333 I-0.275 J-0.8966
G2 X2.8867 Y-0.8334 I-0.1507 J-0.2117
G2 X3.0329 Y-0.9598 I-0.6018 J-0.8437
G2 X3.1035 Y-1.0408 I-0.8071 J-0.7745
G2 X3.1735 Y-1.139 I-0.9298 J-0.7377
G2 X3.1738 Y-1.1393 I-0.2189 J-0.14
G2 X3.2051 Y-1.1906 I-1.3464 J-0.8583
G2 X3.2064 Y-1.1929 I-0.2242 J-0.1313
G1 X3.2128 Y-1.204
G2 X3.2143 Y-1.2066 I-0.2255 J-0.1291
G1 X3.2206 Y-1.2179
G2 X3.222 Y-1.2205 I-0.227 J-0.1265
G1 X3.2283 Y-1.2321
G2 X3.2297 Y-1.2347 I-0.2284 J-0.1239
G1 X3.2359 Y-1.2466
G2 X3.2365 Y-1.2477 I-0.2298 J-0.1213
G2 X3.2982 Y-1.3816 I-1.3267 J-0.6921
G2 X3.3519 Y-1.5341 I-1.6948 J-0.6832
G2 X3.3526 Y-1.5364 I-0.2486 J-0.0755
G2 X3.3761 Y-1.6381 I-0.8468 J-0.2485
G2 X3.3762 Y-1.6392 I-0.2562 J-0.0432
G1 X3.3802 Y-1.6635
G2 X3.3807 Y-1.6665 I-0.2564 J-0.0421
G2 X3.3941 Y-1.7814 I-1.634 J-0.2488
G2 X3.3992 Y-1.8545 I-2.1892 J-0.1908
G2 X3.4014 Y-2.1396 I-3.0766 J-0.1664
G2 X3.3873 Y-2.3325 I-2.5749 J0.0913
G2 X3.3872 Y-2.3341 I-0.2583 J0.0287
G1 X3.3859 Y-2.3451
G2 X3.3855 Y-2.3477 I-0.2581 J0.0303
G1 X3.3826 Y-2.3704
G2 X3.3821 Y-2.3744 I-0.2577 J0.0329
G1 X3.3787 Y-2.3978
G2 X3.378 Y-2.4025 I-0.2572 J0.037
G1 X3.3741 Y-2.4265
G2 X3.3739 Y-2.4277 I-0.2565 J0.0417
G2 X3.3604 Y-2.4953 I-1.043 J0.1743
G2 X3.3602 Y-2.4961 I-0.253 J0.0594
G1 X3.3586 Y-2.5024
G2 X3.3577 Y-2.5063 I-0.2528 J0.0602
G1 X3.3544 Y-2.5192
G2 X3.3535 Y-2.5228 I-0.2518 J0.0641
G2 X3.3379 Y-2.5779 I-2.2299 J0.6021
G2 X3.3309 Y-2.6004 I-0.6717 J0.1938
G2 X3.3049 Y-2.6769 I-1.4421 J0.4483
G2 X3.2397 Y-2.8292 I-1.4484 J0.5305
G2 X3.1843 Y-2.93 I-1.1617 J0.5725
G2 X3.0947 Y-3.0583 I-1.0293 J0.6234
G2 X2.9407 Y-3.214 I-0.8109 J0.6477
G2 X2.9392 Y-3.2152 I-0.1645 J0.2012
G1 X2.9355 Y-3.2183
G2 X2.8852 Y-3.2559 I-0.5273 J0.6517
G2 X2.7641 Y-3.3274 I-0.521 J0.7446
G2 X2.7022 Y-3.3542 I-0.3102 J0.6301
G2 X2.6906 Y-3.3586 I-0.1475 J0.3777
G2 X2.6256 Y-3.3795 I-0.3252 J0.8966
G2 X2.6249 Y-3.3797 I-0.0709 J0.25
G2 X2.4948 Y-3.4077 I-0.2915 J1.0393
G2 X2.2435 Y-3.4213 I-0.1955 J1.2818
G2 X2.0681 Y-3.3997 I0.044 J1.0811
G2 X2.0672 Y-3.3995 I0.0527 J0.2544
G2 X1.9586 Y-3.3687 I0.1691 J0.8023
G2 X1.9539 Y-3.367 I0.088 J0.2445
G1 X1.9448 Y-3.3635
G2 X1.941 Y-3.362 I0.0927 J0.2427
G2 X1.7914 Y-3.2836 I0.3068 J0.7668
G2 X1.7907 Y-3.2831 I0.1436 J0.2166
G2 X1.6653 Y-3.1827 I0.5155 J0.7723
G2 X1.6651 Y-3.1825 I0.1794 J0.188
G2 X1.5947 Y-3.1083 I0.7298 J0.7631
G2 X1.5139 Y-3.0023 I0.8458 J0.7286
G2 X1.4279 Y-2.8551 I1.0691 J0.7234
G2 X1.3443 Y-2.654 I1.3962 J0.698
G2 X1.344 Y-2.653 I0.2463 J0.0827
G2 X1.3275 Y-2.6011 I2.2197 J0.7357
G2 X1.3268 Y-2.5988 I0.2485 J0.076
G1 X1.3233 Y-2.587
G2 X1.3229 Y-2.5856 I0.2492 J0.0737
G2 X1.2629 Y-2.2887 I1.7688 J0.5118
G2 X1.255 Y-2.2086 I1.7857 J0.2156
G2 X1.268 Y-1.786 I1.9577 J0.1512
G2 X1.2681 Y-1.7856 I0.2573 J-0.0359
G2 X1.3173 Y-1.5479 I1.8745 J-0.2643
G2 X1.3179 Y-1.546 I0.2505 J-0.0689
G1 X1.3229 Y-1.5281
G2 X1.3238 Y-1.5252 I0.25 J-0.0708
G1 X1.329 Y-1.5074
G2 X1.3293 Y-1.5066 I0.2492 J-0.0737
G2 X1.3428 Y-1.4638 I1.4551 J-0.4354
G2 X1.3433 Y-1.4623 I0.2466 J-0.0818
G1 X1.3512 Y-1.4388
G2 X1.3518 Y-1.4372 I0.2461 J-0.0832
G2 X1.3947 Y-1.3266 I1.4925 J-0.5158
G2 X1.4284 Y-1.2539 I1.3526 J-0.5835
G2 X1.4286 Y-1.2535 I0.2326 J-0.1158
G2 X1.4495 Y-1.2134 I1.2623 J-0.6307
G0 Z90.0
G0 X1.3125 Y-1.131
G1 Z0.0
G2 X1.3967 Y-1.0063 I1.2233 J-0.7355
G1 X1.4126 Y-0.9856
G2 X1.471 Y-0.9167 I0.9693 J-0.7615
G3 X1.4716 Y-0.916 I-0.1921 J0.1752
G2 X1.5857 Y-0.8057 I0.8854 J-0.8017
G3 X1.586 Y-0.8054 I-0.1679 J0.1985
G2 X1.7798 Y-0.6735 I0.7165 J-0.8442
G2 X1.9924 Y-0.5895 I0.4745 J-0.8893
G2 X2.0107 Y-0.5856 I0.0599 J-0.2381
G3 X2.0145 Y-0.5849 I-0.044 J0.2563
G3 X2.0202 Y-0.584 I-0.0383 J0.2572
G2 X2.0283 Y-0.5828 I0.0331 J-0.1931
G3 X2.0301 Y-0.5825 I-0.0333 J0.2579
G2 X2.0898 Y-0.5759 I0.1601 J-1.1741
G3 X2.0899 I-0.022 J0.2591
G1 X2.0927 Y-0.5757
G1 X2.1218 Y-0.5735
G2 X2.3373 Y-0.5684 I0.1692 J-2.6082
G3 X2.3384 I0.0046 J0.26
G2 X2.4415 Y-0.5729 I-0.0236 J-1.7408
G1 X2.4537 Y-0.5738
G1 X2.4764 Y-0.576
G2 X2.5036 Y-0.5794 I-0.0746 J-0.7069
G3 X2.5044 Y-0.5795 I0.0373 J0.2573
G2 X2.5205 Y-0.5824 I-0.0311 J-0.2192
G1 X2.5297 Y-0.5846
G2 X2.6033 Y-0.6089 I-0.1645 J-0.6208
G3 X2.6048 Y-0.6095 I0.0964 J0.2415
G2 X2.6643 Y-0.6354 I-0.3245 J-0.8276
G3 X2.6653 Y-0.6359 I0.1123 J0.2345
G2 X2.7543 Y-0.6834 I-0.4527 J-0.9559
G3 X2.7557 Y-0.6842 I0.1332 J0.2233
G3 X2.7578 Y-0.6854 I0.1351 J0.2221
G2 X2.8345 Y-0.7371 I-0.428 J-0.7182
G1 X2.932 Y-0.8116
G3 X3.3498 Y-0.6051 I0.1578 J0.2066
G1 X3.3503 Y0.1314
G3 Y0.1317 I-0.26 J0.0002
G2 X3.3517 Y0.5415 I50.1631 J0.0278
G1 X3.3523 Y0.5924
G1 X3.3524 Y0.5976
G1 X3.3525 Y0.603
G1 X3.3526 Y0.6084
G1 X3.3527 Y0.6136
G1 Y0.6188
G1 X3.3528 Y0.624
G3 Y0.6248 I-0.26 J0.0044
G2 X3.3546 Y0.7023 I4.1441 J-0.0572
G1 X3.3551 Y0.7172
G1 X3.3556 Y0.7302
G1 X3.3568 Y0.7565
G3 Y0.7577 I-0.2597 J0.0114
G3 X3.3571 Y0.7629 I-0.2595 J0.0162
G3 X3.3572 Y0.7653 I-0.2595 J0.0168
G2 X3.3597 Y0.8014 I1.3972 J-0.0773
G1 X3.3609 Y0.8141
G1 X3.3623 Y0.8263
G3 Y0.8267 I-0.2583 J0.0293
G2 X3.365 Y0.8426 I0.1363 J-0.0152
G2 X3.3665 Y0.8464 I0.0269 J-0.0078
G3 X3.3669 Y0.8473 I-0.2364 J0.1083
G2 X3.3865 Y0.8689 I0.0433 J-0.0197
G2 X3.4228 Y0.881 I0.048 J-0.0835
G3 X3.4238 Y0.8811 I-0.0316 J0.2581
G2 X3.4578 Y0.8806 I0.0152 J-0.1202
G2 X3.4804 Y0.8745 I-0.0165 J-0.1055
G3 X3.4809 Y0.8743 I0.0953 J0.2419
G2 X3.501 Y0.8618 I-0.0237 J-0.0607
G2 X3.5089 Y0.8519 I-0.0316 J-0.0333
G2 X3.509 Y0.8514 I-0.0696 J-0.0103
G2 X3.5139 Y0.801 I-0.7474 J-0.0986
G2 X3.5194 Y0.6773 I-3.2331 J-0.2045
G3 Y0.6762 I0.2599 J0.0065
G2 X3.5209 Y0.6157 I-7.2169 J-0.2109
G1 Y0.6156
G1 X3.5212 Y0.6004
G3 X3.5213 Y0.5987 I0.2599 J0.0055
G2 Y0.5951 I-0.2401 J-0.0066
G3 X3.5214 Y0.5933 I0.26 J0.0032
G2 X3.5245 Y0.3563 I-19.0063 J-0.3678
G3 Y0.3562 I0.26 J0.0018
G1 X3.5253 Y0.2514
G1 X3.5262 Y0.0549
G1 X3.5268 Y-0.1172
G1 X3.5271 Y-0.2678
G1 X3.5275 Y-0.5316
G1 X3.5277 Y-0.9276
G1 X3.5279 Y-1.3236
G1 Y-1.3235
G1 Y-1.3236
G1 X3.5283 Y-3.4525
G1 X3.5093 Y-3.4897
G2 X3.5019 Y-3.4999 I-0.0373 J0.0193
G2 X3.4903 Y-3.5088 I-0.041 J0.0413
G3 X3.4899 Y-3.5091 I0.1311 J-0.2245
G2 X3.4723 Y-3.5171 I-0.0494 J0.0843
G2 X3.4304 Y-3.5244 I-0.0437 J0.1283
G3 X3.43 I0.0034 J-0.26
G2 X3.3992 Y-3.5211 I-0.0019 J0.1303
G2 X3.3816 Y-3.515 I0.0223 J0.0927
G3 X3.3811 Y-3.5148 I-0.1089 J-0.2361
G2 X3.3739 Y-3.51 I0.0117 J0.0255
G3 X3.347 Y-3.4462 I-0.5911 J-0.2114
G3 X3.3391 Y-3.4305 I-0.3176 J-0.1517
G1 X3.3345 Y-3.4221
G3 X3.3301 Y-3.4142 I-0.2288 J-0.1235
G3 X3.3138 Y-3.3885 I-0.4066 J-0.2384
G3 X3.2818 Y-3.3487 I-0.2436 J-0.1632
G3 X3.2391 Y-3.3119 I-0.1981 J-0.1873
G3 X3.1179 Y-3.2658 I-0.1527 J-0.2191
G3 X3.0633 Y-3.2651 I-0.0307 J-0.2582
G3 X2.975 Y-3.2884 I0.0254 J-0.276
G3 X2.9231 Y-3.3165 I0.1657 J-0.3679
G3 X2.8482 Y-3.3707 I0.4287 J-0.671
G2 X2.7847 Y-3.4146 I-0.3334 J0.4139
G2 X2.72 Y-3.4481 I-0.3417 J0.5806
G2 X2.5937 Y-3.4926 I-0.3318 J0.7412
G3 X2.5933 Y-3.4927 I0.0658 J-0.2515
G2 X2.4902 Y-3.5142 I-0.2573 J0.9769
G2 X2.4091 Y-3.5237 I-0.1841 J1.2189
G2 X2.2872 Y-3.5273 I-0.0954 J1.1595
G3 X2.2865 I-0.0059 J-0.2599
G2 X2.1625 Y-3.5188 I0.026 J1.2866
G3 X2.1618 Y-3.5187 I-0.0303 J-0.2582
G2 X1.8852 Y-3.4515 I0.1307 J1.1411
G2 X1.6674 Y-3.3389 I0.3849 J1.0119
G3 X1.6672 Y-3.3388 I-0.1448 J-0.216
G2 X1.5006 Y-3.2026 I0.6244 J0.9335
G1 X1.5005 Y-3.2025
G2 X1.3762 Y-3.0587 I0.8703 J0.8778
G1 X1.3628 Y-3.0402
G2 X1.2751 Y-2.8993 I1.1341 J0.8033
G2 X1.1605 Y-2.6258 I1.3509 J0.7268
G3 Y-2.6255 I-0.2484 J-0.0768
G2 X1.1075 Y-2.4058 I1.6654 J0.5173
G1 X1.1038 Y-2.3834
G2 X1.0786 Y-2.0506 I1.9871 J0.3174
G2 X1.1063 Y-1.7122 I2.3007 J-0.0177
G3 X1.1064 Y-1.7116 I-0.2569 J0.0402
G2 X1.1473 Y-1.5204 I1.6739 J-0.2583
G3 X1.1474 Y-1.52 I-0.2507 J0.069
G2 X1.201 Y-1.3586 I1.5418 J-0.4219
G3 X1.2011 Y-1.3584 I-0.2421 J0.0949
G2 X1.2616 Y-1.2231 I1.4344 J-0.5606
G3 X1.2617 Y-1.2229 I-0.2319 J0.1175
G2 X1.3125 Y-1.131 I1.274 J-0.6436
G1 X1.2439 Y-1.0897
G2 X1.3331 Y-0.9577 I1.2918 J-0.7767
G1 X1.3495 Y-0.9364
G2 X1.4119 Y-0.8628 I1.0324 J-0.8106
G3 X1.4123 Y-0.8623 I-0.133 J0.1213
G2 X1.534 Y-0.7447 I0.9447 J-0.8554
G3 X1.5343 Y-0.7444 I-0.1162 J0.1374
G2 X1.7421 Y-0.603 I0.7683 J-0.9052
G2 X1.9722 Y-0.5121 I0.5123 J-0.9599
G2 X1.9972 Y-0.5067 I0.0801 J-0.3155
G3 X2.0013 Y-0.506 I-0.0304 J0.1774
G3 X2.0067 Y-0.5052 I-0.0251 J0.1782
G2 X2.018 Y-0.5034 I0.0467 J-0.2719
G3 X2.0193 Y-0.5033 I-0.0231 J0.1785
G2 X2.083 Y-0.4962 I0.1709 J-1.2533
G1 X2.0831
G1 X2.0863 Y-0.4959
G1 X2.1162 Y-0.4937
G2 X2.3387 Y-0.4884 I0.1748 J-2.688
G3 X2.3394 I0.0032 J0.18
G2 X2.4475 Y-0.4931 I-0.0247 J-1.8208
G1 X2.4606 Y-0.4941
G1 X2.4843 Y-0.4963
G2 X2.5151 Y-0.5002 I-0.0825 J-0.7865
G3 X2.5156 Y-0.5003 I0.0258 J0.1781
G2 X2.5385 Y-0.5044 I-0.0424 J-0.2984
G1 X2.5494 Y-0.5071
G2 X2.633 Y-0.5346 I-0.1842 J-0.6984
G3 X2.634 Y-0.535 I0.0667 J0.1672
G2 X2.6988 Y-0.5632 I-0.3537 J-0.9021
G3 X2.6995 Y-0.5636 I0.0777 J0.1623
G2 X2.7953 Y-0.6147 I-0.487 J-1.0282
G3 X2.7968 Y-0.6155 I0.0922 J0.1546
G3 X2.7987 Y-0.6167 I0.0941 J0.1535
G2 X2.8829 Y-0.6734 I-0.469 J-0.7869
G1 X2.9806 Y-0.748
G3 X3.2698 Y-0.6051 I0.1092 J0.1431
G1 X3.2703 Y0.1314
G3 Y0.1317 I-0.18 J0.0001
G2 X3.2717 Y0.5423 I50.2431 J0.0279
G1 X3.2723 Y0.5934
G1 X3.2724 Y0.5988
G1 X3.2725 Y0.6043
G1 X3.2726 Y0.6096
G1 X3.2727 Y0.6149
G1 Y0.6201
G1 X3.2728 Y0.6254
G3 Y0.6259 I-0.18 J0.003
G2 X3.2747 Y0.7049 I4.2241 J-0.0583
G1 X3.2752 Y0.72
G1 X3.2757 Y0.7335
G1 X3.2768 Y0.76
G3 X3.2769 Y0.7618 I-0.1798 J0.0079
G3 X3.2772 Y0.7671 I-0.1796 J0.0121
G3 X3.2773 Y0.7697 I-0.1796 J0.0125
G2 X3.28 Y0.8084 I1.477 J-0.0817
G1 X3.2813 Y0.8224
G1 X3.2828 Y0.8353
G3 Y0.8356 I-0.1789 J0.0203
G2 X3.2875 Y0.8623 I0.2158 J-0.0241
G2 X3.2938 Y0.8798 I0.1044 J-0.0276
G3 X3.294 Y0.8804 I-0.1636 J0.075
G2 X3.3466 Y0.9382 I0.1162 J-0.0527
G2 X3.4131 Y0.9604 I0.0879 J-0.1528
G3 X3.4138 Y0.9605 I-0.0219 J0.1787
G2 X3.4701 Y0.9597 I0.0253 J-0.1996
G2 X3.5097 Y0.9489 I-0.0289 J-0.1845
G3 X3.5101 Y0.9488 I0.0659 J0.1675
G2 X3.5554 Y0.9205 I-0.0528 J-0.1352
G2 X3.5841 Y0.8805 I-0.086 J-0.0919
G3 X3.585 Y0.8785 I0.164 J0.0742
G2 X3.5853 Y0.8777 I-0.0037 J-0.0017
G2 X3.5882 Y0.8622 I-0.1459 J-0.0361
G2 X3.5937 Y0.8061 I-0.8266 J-0.1094
G2 X3.5993 Y0.6793 I-3.313 J-0.2096
G3 X3.5994 Y0.6785 I0.1799 J0.0045
G2 X3.6009 Y0.6173 I-7.2968 J-0.2133
G1 X3.6012 Y0.6021
G3 Y0.6009 I0.18 J0.0038
G2 X3.6013 Y0.5961 I-0.3201 J-0.0088
G3 Y0.5949 I0.18 J0.0022
G2 X3.6045 Y0.3569 I-19.0863 J-0.3693
G3 Y0.3568 I0.18 J0.0012
G1 X3.6053 Y0.2519
G1 X3.6062 Y0.0552
G1 X3.6068 Y-0.1169
G1 X3.6071 Y-0.2677
G1 X3.6075 Y-0.5316
G1 X3.6077 Y-0.9275
G1 X3.6079 Y-1.3235
G1 X3.6083 Y-3.4717
G1 X3.5805 Y-3.5262
G2 X3.5585 Y-3.5564 I-0.1085 J0.0558
G2 X3.5306 Y-3.5779 I-0.0976 J0.0978
G3 X3.5304 Y-3.5781 I0.0908 J-0.1554
G2 X3.4983 Y-3.5928 I-0.0899 J0.1533
G2 X3.4314 Y-3.6044 I-0.0697 J0.204
G3 X3.4312 I0.0023 J-0.18
G2 X3.381 Y-3.599 I-0.003 J0.2103
G2 X3.3481 Y-3.5877 I0.0405 J0.1706
G3 X3.3478 Y-3.5875 I-0.0754 J-0.1635
G2 X3.3154 Y-3.5647 I0.0451 J0.0982
G2 X3.299 Y-3.5382 I0.0557 J0.0528
G3 X3.275 Y-3.4809 I-0.5163 J-0.1832
G3 X3.2687 Y-3.4685 I-0.2456 J-0.1169
G1 X3.2641 Y-3.4601
G3 X3.261 Y-3.4546 I-0.1584 J-0.0855
G3 X3.2475 Y-3.4331 I-0.3376 J-0.1979
G3 X3.2239 Y-3.4038 I-0.1773 J-0.1185
G3 X3.1934 Y-3.3776 I-0.1401 J-0.1321
G3 X3.1085 Y-3.3453 I-0.107 J-0.1534
G3 X3.0707 Y-3.3448 I-0.0213 J-0.1787
G3 X3.0078 Y-3.3613 I0.0181 J-0.1963
G3 X2.9662 Y-3.3839 I0.1328 J-0.295
G3 X2.8986 Y-3.4328 I0.3856 J-0.6036
G2 X2.8253 Y-3.4836 I-0.3838 J0.4761
G2 X2.7528 Y-3.5211 I-0.3823 J0.6496
G2 X2.614 Y-3.57 I-0.3646 J0.8142
G3 X2.6137 Y-3.5701 I0.0456 J-0.1741
G2 X2.5023 Y-3.5933 I-0.2777 J1.0542
G2 X2.4157 Y-3.6034 I-0.1962 J1.298
G2 X2.2854 Y-3.6073 I-0.102 J1.2392
G3 X2.2849 I-0.0041 J-0.18
G2 X2.1532 Y-3.5982 I0.0276 J1.3666
G3 X2.1527 I-0.021 J-0.1788
G2 X1.8567 Y-3.5263 I0.1398 J1.2206
G2 X1.6228 Y-3.4054 I0.4134 J1.0867
G3 X1.6227 Y-3.4053 I-0.1002 J-0.1495
G2 X1.4442 Y-3.2594 I0.6689 J1.0
G1 Y-3.2593
G2 X1.3116 Y-3.1059 I0.9266 J0.9346
G1 X1.2977 Y-3.0868
G2 X1.2048 Y-2.9373 I1.1991 J0.8499
G2 X1.0841 Y-2.6494 I1.4213 J0.7648
G3 Y-2.6492 I-0.172 J-0.0532
G2 X1.0287 Y-2.4193 I1.7418 J0.541
G1 X1.0248 Y-2.3963
G2 X0.9986 Y-2.05 I2.0661 J0.3303
G2 X1.0273 Y-1.6998 I2.3807 J-0.0183
G3 Y-1.6994 I-0.1778 J0.0279
G2 X1.0702 Y-1.4992 I1.7529 J-0.2705
G3 X1.0703 Y-1.4989 I-0.1735 J0.0478
G2 X1.1265 Y-1.3294 I1.619 J-0.443
G3 Y-1.3293 I-0.1676 J0.0657
G2 X1.1902 Y-1.187 I1.5089 J-0.5897
G3 X1.1903 Y-1.1868 I-0.1606 J0.0813
G2 X1.2439 Y-1.0897 I1.3454 J-0.6796
G1 X1.1753 Y-1.0485
G2 X1.2695 Y-0.9091 I1.3604 J-0.8179
G1 X1.2864 Y-0.8873
G2 X1.3528 Y-0.8089 I1.0955 J-0.8598
G3 X1.353 Y-0.8086 I-0.0739 J0.0674
G2 X1.4824 Y-0.6836 I1.004 J-0.9091
G3 X1.4825 Y-0.6835 I-0.0646 J0.0764
G2 X1.7044 Y-0.5324 I0.8201 J-0.9662
G2 X1.952 Y-0.4347 I0.55 J-1.0304
G2 X1.9837 Y-0.4279 I0.1003 J-0.3929
G3 X1.9865 Y-0.4274 I-0.0169 J0.0986
G2 X1.9896 Y-0.4269 I0.0094 J-0.0464
G3 X1.9931 Y-0.4263 I-0.0133 J0.0991
G2 X2.0077 Y-0.4241 I0.0602 J-0.3508
G3 X2.0084 Y-0.424 I-0.0128 J0.0992
G2 X2.0762 Y-0.4165 I0.1817 J-1.3326
G1 X2.0763
G1 X2.0798 Y-0.4162
G1 X2.1105 Y-0.4139
G2 X2.3401 Y-0.4084 I0.1805 J-2.7678
G3 X2.3405 I0.0018 J0.1
G2 X2.4536 Y-0.4133 I-0.0258 J-1.9008
G1 X2.4674 Y-0.4144
G1 X2.4922 Y-0.4167
G2 X2.5266 Y-0.421 I-0.0904 J-0.8661
G3 X2.5269 Y-0.4211 I0.0143 J0.099
G2 X2.5567 Y-0.4265 I-0.0536 J-0.3776
G1 X2.569 Y-0.4295
G2 X2.6626 Y-0.4603 I-0.2038 J-0.776
G3 X2.6632 Y-0.4606 I0.0371 J0.0929
G2 X2.7334 Y-0.4911 I-0.3829 J-0.9766
G3 X2.7337 Y-0.4913 I0.0432 J0.0902
G2 X2.8363 Y-0.546 I-0.5212 J-1.1005
G3 X2.8379 Y-0.5469 I0.0512 J0.0859
G3 X2.8397 Y-0.548 I0.053 J0.0848
G2 X2.9313 Y-0.6097 I-0.5099 J-0.8556
G1 X3.0291 Y-0.6844
G3 X3.1898 Y-0.605 I0.0607 J0.0795
G1 X3.1903 Y0.1315
G3 Y0.1316 I-0.1 J0.0001
G2 X3.1917 Y0.5431 I50.3231 J0.0279
G1 X3.1924 Y0.5945
G1 Y0.5999
G1 X3.1925 Y0.6055
G1 X3.1926 Y0.6109
G1 X3.1927 Y0.6162
G1 X3.1928 Y0.6215
G1 Y0.6267
G3 X3.1929 Y0.627 I-0.1 J0.0017
G2 X3.1947 Y0.7075 I4.3041 J-0.0594
G1 X3.1952 Y0.7227
G1 X3.1957 Y0.7367
G1 X3.1969 Y0.7635
G3 X3.197 Y0.7658 I-0.0999 J0.0044
G3 X3.1973 Y0.7714 I-0.0997 J0.008
G3 X3.1975 Y0.7741 I-0.0997 J0.0082
G2 X3.2003 Y0.8155 I1.5569 J-0.0861
G1 X3.2017 Y0.8306
G1 X3.2033 Y0.8443
G3 Y0.8445 I-0.0994 J0.0113
G2 X3.2099 Y0.8819 I0.2953 J-0.033
G2 X3.221 Y0.9131 I0.182 J-0.0471
G3 X3.2212 Y0.9134 I-0.0909 J0.0417
G2 X3.3067 Y1.0076 I0.189 J-0.0858
G2 X3.4033 Y1.0398 I0.1278 J-0.2221
G3 X3.4037 Y1.0399 I-0.0122 J0.0993
G2 X3.4825 Y1.0387 I0.0353 J-0.279
G2 X3.539 Y1.0234 I-0.0413 J-0.2636
G3 X3.5392 Y1.0233 I0.0366 J0.093
G2 X3.6098 Y0.9792 I-0.082 J-0.2097
G2 X3.6569 Y0.9135 I-0.1404 J-0.1506
G3 X3.6575 Y0.9124 I0.0911 J0.0412
G2 X3.6629 Y0.8969 I-0.0762 J-0.0356
G2 X3.6675 Y0.8729 I-0.2236 J-0.0552
G2 X3.6736 Y0.8112 I-0.9059 J-0.1201
G2 X3.6793 Y0.6813 I-3.3928 J-0.2146
G3 Y0.6809 I0.1 J0.0025
G2 X3.6809 Y0.619 I-7.3768 J-0.2156
G1 X3.6812 Y0.6038
G3 Y0.6031 I0.1 J0.0021
G2 X3.6813 Y0.5971 I-0.4001 J-0.011
G3 Y0.5964 I0.1 J0.0012
G2 X3.6845 Y0.3574 I-19.1663 J-0.3709
G1 X3.6853 Y0.2524
G1 X3.6862 Y0.0556
G1 X3.6868 Y-0.1167
G1 X3.6871 Y-0.2675
G1 X3.6875 Y-0.5315
G1 X3.6877 Y-0.9275
G1 X3.6879 Y-1.3235
G1 X3.6883 Y-3.491
G1 X3.6517 Y-3.5627
G2 X3.6151 Y-3.613 I-0.1797 J0.0923
G2 X3.571 Y-3.647 I-0.1542 J0.1544
G3 X3.5708 Y-3.6471 I0.0504 J-0.0863
G2 X3.5242 Y-3.6685 I-0.1304 J0.2223
G2 X3.4325 Y-3.6844 I-0.0956 J0.2797
G3 X3.4323 I0.0013 J-0.1
G2 X3.3627 Y-3.6769 I-0.0042 J0.2903
G2 X3.3146 Y-3.6603 I0.0587 J0.2485
G3 X3.3144 Y-3.6602 I-0.0419 J-0.0908
G2 X3.2578 Y-3.6202 I0.0784 J0.1709
G2 X3.2237 Y-3.5653 I0.1134 J0.1083
G3 X3.2029 Y-3.5157 I-0.441 J-0.1561
G3 X3.1983 Y-3.5066 I-0.1735 J-0.0822
G1 X3.1938 Y-3.4982
G3 X3.192 Y-3.4951 I-0.088 J-0.0475
G3 X3.1811 Y-3.4778 I-0.2686 J-0.1575
G3 X3.166 Y-3.459 I-0.1109 J-0.0739
G3 X3.1477 Y-3.4433 I-0.0822 J-0.077
G3 X3.099 Y-3.4247 I-0.0614 J-0.0877
G3 X3.078 Y-3.4244 I-0.0118 J-0.0993
G3 X3.0407 Y-3.4343 I0.0108 J-0.1167
G3 X3.0093 Y-3.4513 I0.1 J-0.222
G3 X2.949 Y-3.4949 I0.3425 J-0.5362
G2 X2.8659 Y-3.5525 I-0.4343 J0.5382
G2 X2.7856 Y-3.5941 I-0.4229 J0.7185
G2 X2.6342 Y-3.6474 I-0.3974 J0.8872
G3 X2.6341 I0.0253 J-0.0967
G2 X2.5144 Y-3.6723 I-0.2981 J1.1316
G2 X2.4223 Y-3.6831 I-0.2083 J1.3771
G2 X2.2835 Y-3.6873 I-0.1086 J1.319
G3 X2.2833 I-0.0023 J-0.1
G2 X2.1439 Y-3.6777 I0.0293 J1.4466
G3 X2.1436 I-0.0117 J-0.0993
G2 X1.8283 Y-3.6011 I0.1489 J1.3
G2 X1.5783 Y-3.4719 I0.4418 J1.1614
G1 X1.5782 Y-3.4718
G2 X1.3879 Y-3.3162 I0.7133 J1.0665
G1 Y-3.3161
G2 X1.247 Y-3.1531 I0.983 J0.9914
G1 X1.2327 Y-3.1334
G2 X1.1344 Y-2.9753 I1.2641 J0.8965
G2 X1.0077 Y-2.6731 I1.4917 J0.8028
G3 Y-2.673 I-0.0955 J-0.0295
G2 X0.9498 Y-2.4327 I1.8182 J0.5648
G1 X0.9459 Y-2.4093
G2 X0.9187 Y-2.0494 I2.145 J0.3433
G2 X0.9482 Y-1.6874 I2.4607 J-0.019
G3 X0.9483 Y-1.6872 I-0.0988 J0.0155
G2 X0.9931 Y-1.4779 I1.832 J-0.2827
G3 Y-1.4778 I-0.0964 J0.0265
G2 X1.052 Y-1.3002 I1.6962 J-0.4641
G1 Y-1.3001
G2 X1.1189 Y-1.1508 I1.5834 J-0.6188
G3 Y-1.1507 I-0.0892 J0.0452
G2 X1.1753 Y-1.0485 I1.4168 J-0.7157
G0 Z90.0
G0 X0.2393 Y-1.7689
G1 Z0.0
G2 X0.2454 Y-1.8182 I-1.3789 J-0.1938
G1 Y-1.8183
G2 X0.2522 Y-1.9466 I-1.2502 J-0.1306
G3 Y-1.9484 I0.34 J0.0006
G2 X0.2513 Y-1.9801 I-0.4697 J-0.0033
G2 X0.2487 Y-1.9803 I-0.047 J0.7742
G3 X0.2481 I0.0195 J-0.3394
G1 X0.2455 Y-1.9805
G2 X0.1613 Y-1.9838 I-0.1777 J3.3968
G3 X0.2393 Y-1.7689 I-0.2618 J0.2167
G0 Z90.0
G0 X-1.8853 Y-2.049
G1 Z0.0
G3 X-1.9194 Y-2.0691 I0.1752 J-0.3357
G3 X-2.0758 Y-2.3448 I0.1932 J-0.2918
G2 X-2.0895 Y-2.2381 I1.7703 J0.2825
G2 X-2.0792 Y-1.833 I1.646 J0.1607
G1 Y-1.8329
G2 X-2.0722 Y-1.7897 I1.7315 J-0.2584
G3 X-1.9543 Y-2.003 I0.3406 J0.0491
G3 X-1.8853 Y-2.049 I0.2317 J0.2729
G0 Z90.0
G0 X-1.8126 Y-1.9065
G1 Z0.0
G3 X-1.7899 Y-1.9163 I0.09 J0.1763
G3 X-1.7527 Y-1.9268 I0.0906 J0.2501
G3 X-1.7108 Y-1.9332 I0.083 J0.4005
G3 X-1.6811 Y-1.936 I0.0891 J0.7877
G3 X-1.6802 Y-1.9361 I0.0135 J0.1793
G1 X-1.6568 Y-1.9377
G3 X-1.6541 Y-1.9379 I0.0125 J0.1794
G1 X-1.634 Y-1.939
G3 X-1.6241 Y-1.9395 I0.0148 J0.2009
G1 X-1.6051 Y-1.9403
G3 X-1.5813 Y-1.9412 I0.0615 J1.3321
G1 X-1.5715 Y-1.9415
G3 X-1.5706 I0.006 J0.1797
G1 X-1.5301 Y-1.9427
G3 X-1.5294 I0.005 J0.1798
G1 X-1.5199 Y-1.9429
G3 X-1.5194 I0.0043 J0.1798
G1 X-1.482 Y-1.9437
G3 X-1.4814 I0.0038 J0.1798
G3 X-1.1988 Y-1.9465 I0.3281 J18.9908
G1 X-1.0593 Y-1.9469
G3 X-1.0409 I0.0118 J1.5343
G3 X-0.9797 Y-1.947 I0.0376 J7.0265
G3 X-0.918 I0.0328 J6.8405
G1 X-0.1005
G3 X0.0781 Y-1.7462 I0.0 J0.1798
G1 X0.0647 Y-1.6318
G3 X0.0646 Y-1.6314 I-0.1786 J-0.021
G3 X-0.0762 Y-1.2101 I-1.0929 J-0.1311
G3 X-0.2113 Y-1.0273 I-0.8803 J-0.5091
G3 X-0.2118 Y-1.0267 I-0.1318 J-0.1224
G3 X-0.2967 Y-0.9468 I-0.6731 J-0.6302
G3 X-0.2969 Y-0.9467 I-0.1147 J-0.1385
G3 X-0.3954 Y-0.8769 I-0.5159 J-0.6243
G3 X-0.3963 Y-0.8764 I-0.0927 J-0.1541
G1 X-0.4094 Y-0.8686
G3 X-0.411 Y-0.8677 I-0.0918 J-0.1547
G1 X-0.4237 Y-0.8603
G3 X-0.425 Y-0.8596 I-0.0902 J-0.1556
G1 X-0.4312 Y-0.856
G3 X-0.4321 Y-0.8555 I-0.0889 J-0.1563
G1 X-0.4381 Y-0.8522
G3 X-0.497 Y-0.8215 I-0.5028 J-0.8926
G3 X-0.6127 Y-0.7759 I-0.3493 J-0.7172
G3 X-0.6136 Y-0.7756 I-0.0527 J-0.172
G3 X-0.7075 Y-0.7541 I-0.2092 J-0.6953
G3 X-0.7077 Y-0.754 I-0.0285 J-0.1776
G3 X-0.7759 Y-0.7459 I-0.1358 J-0.8496
G3 X-0.7769 Y-0.7458 I-0.0141 J-0.1793
G1 X-0.7871 Y-0.7451
G3 X-0.7885 Y-0.745 I-0.0131 J-0.1794
G3 X-0.8786 Y-0.7426 I-0.0768 J-1.1801
G3 X-0.8788 I0.002 J-0.1798
G3 X-0.9615 Y-0.745 I0.0279 J-2.3443
G1 X-0.9616
G3 X-1.0778 Y-0.7561 I0.0584 J-1.2279
G3 X-1.2836 Y-0.8075 I0.1431 J-1.0106
G3 X-1.2842 Y-0.8077 I0.0615 J-0.169
G3 X-1.4329 Y-0.8786 I0.3069 J-0.835
G3 X-1.4332 Y-0.8788 I0.0921 J-0.1545
G3 X-1.6257 Y-1.0365 I0.4393 J-0.7327
G3 X-1.7022 Y-1.1325 I0.6594 J-0.6033
G3 X-1.7644 Y-1.2348 I0.8263 J-0.5731
G1 Y-1.2347
G1 Y-1.2348
G3 X-1.7786 Y-1.2629 I0.7081 J-0.3754
G3 X-1.7841 Y-1.2745 I0.1755 J-0.0897
G1 X-1.788 Y-1.2831
G3 X-1.7891 Y-1.2854 I0.1633 J-0.0753
G1 X-1.7941 Y-1.2968
G3 X-1.7948 Y-1.2982 I0.1644 J-0.073
G3 X-1.8157 Y-1.3489 I1.3927 J-0.604
G3 X-1.8158 Y-1.3492 I0.1675 J-0.0656
G3 X-1.8475 Y-1.4368 I1.8286 J-0.7123
G3 X-1.8477 Y-1.4374 I0.1705 J-0.0572
G1 X-1.8527 Y-1.4525
G3 X-1.8534 Y-1.4545 I0.1707 J-0.0566
G1 X-1.8624 Y-1.4829
G3 X-1.863 Y-1.4848 I0.1713 J-0.0546
G1 X-1.8668 Y-1.4972
G3 X-1.867 Y-1.4978 I0.1719 J-0.0527
G3 X-1.8954 Y-1.6022 I1.7729 J-0.5372
G3 X-1.8961 Y-1.6052 I0.1749 J-0.042
G1 X-1.9014 Y-1.6291
G3 X-1.9019 Y-1.6317 I0.1756 J-0.039
G3 X-1.9099 Y-1.6755 I0.9489 J-0.1962
G3 X-1.912 Y-1.6901 I0.3611 J-0.0591
G3 X-1.9157 Y-1.7379 I0.3924 J-0.054
G3 Y-1.744 I0.1798 J-0.0029
G3 X-1.8507 Y-1.881 I0.1841 J0.0034
G3 X-1.8126 Y-1.9065 I0.1282 J0.1509
G1 X-1.7763 Y-1.8354
G3 X-1.7627 Y-1.8412 I0.0537 J0.1052
G3 X-1.7366 Y-1.8486 I0.0634 J0.175
G3 X-1.7023 Y-1.8538 I0.0669 J0.3223
G3 X-1.6752 Y-1.8564 I0.0806 J0.7083
G3 X-1.6746 I0.0075 J0.0997
G1 X-1.6512 Y-1.8581
G3 X-1.6498 Y-1.8582 I0.007 J0.0998
G1 X-1.6288 Y-1.8593
G3 X-1.6215 Y-1.8597 I0.0096 J0.1212
G1 X-1.6015 Y-1.8606
G3 X-1.5789 Y-1.8614 I0.0579 J1.2523
G1 X-1.5688 Y-1.8617
G3 X-1.5683 I0.0033 J0.0999
G1 X-1.5279 Y-1.8629
G3 X-1.5275 I0.0028 J0.1
G1 X-1.518 Y-1.8631
G3 X-1.5177 I0.0024 J0.1
G1 X-1.4804 Y-1.8639
G3 X-1.48 I0.0021 J0.1
G3 X-1.1986 Y-1.8667 I0.3267 J18.911
G1 X-1.0589 Y-1.8671
G3 X-1.0409 I0.0114 J1.4545
G3 X-0.9797 Y-1.8672 I0.0375 J6.9467
G3 X-0.9181 I0.0327 J6.7607
G1 X-0.1005
G3 X-0.0012 Y-1.7555 I0.0 J0.1
G1 X-0.0146 Y-1.6411
G3 X-0.0147 Y-1.6409 I-0.0993 J-0.0117
G3 X-0.1453 Y-1.2501 I-1.0136 J-0.1216
G3 X-0.2698 Y-1.0816 I-0.8112 J-0.4691
G3 X-0.2701 Y-1.0813 I-0.0733 J-0.068
G3 X-0.3477 Y-1.0083 I-0.6149 J-0.5757
G3 X-0.3478 Y-1.0082 I-0.0638 J-0.077
G3 X-0.4365 Y-0.9454 I-0.4651 J-0.5628
G3 X-0.437 Y-0.945 I-0.0515 J-0.0857
G1 X-0.4501 Y-0.9373
G3 X-0.451 Y-0.9368 I-0.051 J-0.086
G1 X-0.4638 Y-0.9294
G3 X-0.4645 Y-0.929 I-0.0501 J-0.0865
G1 X-0.4707 Y-0.9254
G3 X-0.4712 Y-0.9252 I-0.0494 J-0.0869
G1 X-0.4772 Y-0.9218
G3 X-0.5317 Y-0.8934 I-0.4637 J-0.823
G3 X-0.6361 Y-0.8522 I-0.3145 J-0.6453
G3 X-0.6366 Y-0.8521 I-0.0293 J-0.0956
G3 X-0.7202 Y-0.8329 I-0.1862 J-0.6188
G1 X-0.7203
G3 X-0.7822 Y-0.8255 I-0.1232 J-0.7707
G3 X-0.7827 I-0.0079 J-0.0997
G1 X-0.7929 Y-0.8247
G3 X-0.7937 I-0.0073 J-0.0997
G3 X-0.8777 Y-0.8224 I-0.0716 J-1.1004
G1 X-0.8778
G3 X-0.9577 Y-0.8248 I0.027 J-2.2645
G1 X-0.9578
G3 X-1.0666 Y-0.8351 I0.0546 J-1.1482
G3 X-1.2563 Y-0.8825 I0.1319 J-0.9315
G3 X-1.2566 Y-0.8827 I0.0342 J-0.094
G3 X-1.392 Y-0.9472 I0.2794 J-0.7601
G3 X-1.3922 Y-0.9473 I0.0512 J-0.0859
G3 X-1.5667 Y-1.0903 I0.3983 J-0.6642
G3 X-1.6365 Y-1.178 I0.6005 J-0.5495
G3 X-1.6938 Y-1.2721 I0.7606 J-0.5277
G3 X-1.7071 Y-1.2984 I0.6376 J-0.338
G3 X-1.7111 Y-1.3069 I0.104 J-0.0541
G1 X-1.7155 Y-1.3165
G3 X-1.7161 Y-1.3178 I0.0908 J-0.0419
G1 X-1.7212 Y-1.3292
G3 X-1.7215 Y-1.33 I0.0914 J-0.0406
G3 X-1.7413 Y-1.378 I1.3194 J-0.5723
G3 X-1.7414 Y-1.3782 I0.0931 J-0.0365
G3 X-1.7718 Y-1.4622 I1.7542 J-0.6833
G3 X-1.772 Y-1.4626 I0.0948 J-0.0318
G1 X-1.777 Y-1.4776
G3 X-1.7773 Y-1.4788 I0.0949 J-0.0315
G1 X-1.7864 Y-1.5071
G3 X-1.7867 Y-1.5082 I0.0953 J-0.0304
G1 X-1.7905 Y-1.5206
G3 X-1.7906 Y-1.521 I0.0956 J-0.0293
G3 X-1.8177 Y-1.6209 I1.6965 J-0.5141
G3 X-1.8181 Y-1.6225 I0.0972 J-0.0234
G1 X-1.8234 Y-1.6464
G3 X-1.8237 Y-1.6479 I0.0976 J-0.0217
G3 X-1.8311 Y-1.6882 I0.8708 J-0.1801
G3 X-1.8328 Y-1.7004 I0.2822 J-0.0463
G3 X-1.8358 Y-1.7391 I0.3133 J-0.0437
G3 Y-1.7426 I0.1 J-0.0016
G3 X-1.799 Y-1.8202 I0.1043 J0.0019
G3 X-1.7763 Y-1.8354 I0.0765 J0.09
G0 Z90.0
G0 X-1.8489 Y-1.9777
G1 Z0.0
G2 X-1.9025 Y-1.942 I0.1264 J0.2476
G2 X-1.9957 Y-1.7455 I0.1709 J0.2014
G2 Y-1.7366 I0.2598 J0.0047
G2 X-1.9914 Y-1.6798 I0.4761 J-0.0076
G2 X-1.9889 Y-1.6628 I0.4425 J-0.0547
G2 X-1.9803 Y-1.6155 I1.0359 J-0.1652
G2 X-1.9795 Y-1.6117 I0.2545 J-0.0526
G1 X-1.9741 Y-1.5879
G2 X-1.9731 Y-1.5835 I0.2536 J-0.0564
G2 X-1.9436 Y-1.4746 I1.8791 J-0.4515
G2 X-1.9433 Y-1.4738 I0.2487 J-0.0754
G1 X-1.9395 Y-1.4613
G2 X-1.9386 Y-1.4586 I0.2484 J-0.0762
G1 X-1.9296 Y-1.4302
G2 X-1.9287 Y-1.4273 I0.2476 J-0.079
G1 X-1.9237 Y-1.4122
G2 X-1.9234 Y-1.4114 I0.2466 J-0.0818
G2 X-1.8903 Y-1.3202 I1.9362 J-0.6501
G2 X-1.8902 Y-1.3198 I0.2421 J-0.0943
G2 X-1.8681 Y-1.2664 I1.4881 J-0.5825
G2 X-1.8672 Y-1.2643 I0.2384 J-0.1034
G1 X-1.8622 Y-1.2529
G2 X-1.8607 Y-1.2496 I0.2375 J-0.1055
G1 X-1.8571 Y-1.2419
G2 X-1.8503 Y-1.2274 I0.254 J-0.1107
G2 X-1.8351 Y-1.1973 I0.794 J-0.3827
G2 X-1.768 Y-1.087 I0.9592 J-0.5083
G2 X-1.6848 Y-0.9826 I0.8017 J-0.5528
G2 X-1.4744 Y-0.8102 I0.6909 J-0.6289
G2 X-1.4738 Y-0.8099 I0.1336 J-0.2228
G2 X-1.3118 Y-0.7326 I0.4966 J-0.8328
G2 X-1.311 Y-0.7323 I0.0896 J-0.2439
G2 X-1.0891 Y-0.6769 I0.3763 J-1.0344
G2 X-0.9654 Y-0.6651 I0.186 J-1.296
G1 X-0.9653
G2 X-0.8797 Y-0.6626 I0.1144 J-2.4218
G2 X-0.8795 I0.0031 J-0.2598
G2 X-0.7834 Y-0.6652 I0.0142 J-1.2625
G2 X-0.7812 Y-0.6653 I-0.0169 J-0.2593
G1 X-0.7711 Y-0.666
G2 X-0.7696 Y-0.6661 I-0.019 J-0.2591
G2 X-0.695 Y-0.675 I-0.0739 J-0.9375
G2 X-0.6948 Y-0.6751 I-0.041 J-0.2566
G2 X-0.5905 Y-0.699 I-0.1279 J-0.7958
G2 X-0.5893 Y-0.6994 I-0.0749 J-0.2488
G2 X-0.4621 Y-0.7495 I-0.257 J-0.8393
G2 X-0.3989 Y-0.7824 I-0.4788 J-0.9953
G1 X-0.393 Y-0.7857
G2 X-0.3917 Y-0.7865 I-0.1271 J-0.2266
G1 X-0.3855 Y-0.79
G2 X-0.3836 Y-0.7911 I-0.1284 J-0.2259
G1 X-0.3709 Y-0.7985
G2 X-0.3686 Y-0.7998 I-0.1303 J-0.2248
G1 X-0.3555 Y-0.8076
G2 X-0.3541 Y-0.8084 I-0.1326 J-0.2235
G2 X-0.2459 Y-0.885 I-0.4587 J-0.7626
G2 X-0.2457 Y-0.8852 I-0.1655 J-0.2003
G2 X-0.1534 Y-0.972 I-0.6393 J-0.7718
G2 X-0.1527 Y-0.9728 I-0.1897 J-0.1776
G2 X-0.007 Y-1.17 I-0.8038 J-0.7464
G2 X0.144 Y-1.6218 I-1.0213 J-0.5924
G2 X0.1441 Y-1.6225 I-0.258 J-0.031
G1 X0.1576 Y-1.7369
G2 X-0.1005 Y-2.027 I-0.2581 J-0.0303
G1 X-0.9178
G2 X-0.9798 I-0.0291 J6.9206
G2 X-1.0409 Y-2.0269 I-0.0236 J7.1066
G2 X-1.0597 I-0.0066 J1.6143
G1 X-1.199 Y-2.0265
G2 X-1.4828 Y-2.0237 I0.0457 J19.0736
G2 X-1.4837 I0.0045 J0.2598
G1 X-1.521 Y-2.0229
G2 X-1.5218 I0.0054 J0.2598
G1 X-1.5313 Y-2.0227
G2 X-1.5324 I0.0062 J0.2598
G1 X-1.5728 Y-2.0215
G2 X-1.5741 I0.0073 J0.2597
G1 X-1.5838 Y-2.0212
G2 X-1.6087 Y-2.0202 I0.0402 J1.4129
G1 X-1.627 Y-2.0194
G2 X-1.6391 Y-2.0188 I0.0078 J0.2813
G1 X-1.6585 Y-2.0178
G2 X-1.6623 Y-2.0175 I0.0142 J0.2595
G1 X-1.6857 Y-2.0159
G2 X-1.6871 Y-2.0158 I0.0181 J0.2592
G2 X-1.7193 Y-2.0128 I0.0655 J0.8702
G2 X-1.7688 Y-2.0051 I0.0496 J0.4865
G2 X-1.8172 Y-1.9915 I0.0695 J0.339
G2 X-1.8489 Y-1.9777 I0.0946 J0.2614
G1 X-1.8068 Y-2.1021
G3 X-1.8118 Y-2.1038 I0.0835 J-0.2462
G3 X-1.8752 Y-2.1357 I0.1017 J-0.2808
G3 X-1.9961 Y-2.3558 I0.149 J-0.2251
G3 Y-2.3633 I0.26 J-0.0049
G3 X-1.9948 Y-2.3938 I0.4407 J0.0044
G3 X-1.9887 Y-2.4423 I0.5106 J0.0399
G3 X-1.9767 Y-2.5015 I1.0486 J0.1808
G3 X-1.9764 Y-2.503 I0.2533 J0.0586
G3 X-1.9516 Y-2.5952 I1.5959 J0.3794
G3 X-1.9077 Y-2.7255 I1.915 J0.5731
G3 X-1.9033 Y-2.7369 I0.5042 J0.1857
G1 X-1.8984 Y-2.7494
G3 X-1.897 Y-2.753 I0.2423 J0.0943
G1 X-1.8877 Y-2.7759
G3 X-1.8874 Y-2.7768 I0.2409 J0.0978
G3 X-1.8449 Y-2.8673 I0.9365 J0.3841
G3 X-1.8437 Y-2.8696 I0.2297 J0.1219
G3 X-1.7383 Y-3.0249 I0.8403 J0.4568
G3 X-1.626 Y-3.1399 I0.7705 J0.6401
G3 X-1.5159 Y-3.224 I0.687 J0.7846
G1 X-1.5158 Y-3.2241
G3 X-1.4148 Y-3.284 I0.6432 J0.969
G3 X-1.4141 Y-3.2844 I0.1212 J0.23
G3 X-1.2265 Y-3.363 I0.5569 J1.0653
G3 X-1.226 Y-3.3632 I0.0799 J0.2474
G1 X-1.2188 Y-3.3655
G3 X-1.217 Y-3.3661 I0.0793 J0.2476
G1 X-1.21 Y-3.3683
G3 X-1.2085 Y-3.3687 I0.0775 J0.2482
G3 X-0.9263 Y-3.4225 I0.3889 J1.2731
G3 X-0.6443 Y-3.4178 I0.117 J1.4372
G3 X-0.6431 Y-3.4177 I-0.0297 J0.2583
G1 X-0.6183 Y-3.4147
G3 X-0.6176 Y-3.4146 I-0.0309 J0.2582
G3 X-0.501 Y-3.3955 I-0.1759 J1.439
G3 X-0.5007 Y-3.3954 I-0.0525 J0.2547
G3 X-0.2899 Y-3.3292 I-0.2251 J1.0855
G3 X-0.254 Y-3.3133 I-0.5193 J1.2183
G3 X-0.2523 Y-3.3126 I-0.109 J0.236
G1 X-0.2389 Y-3.3062
G3 X-0.2381 Y-3.3059 I-0.1106 J0.2353
G3 X-0.1749 Y-3.2738 I-0.5864 J1.2365
G3 X-0.0769 Y-3.2181 I-1.1421 J2.1221
G3 X-0.0762 Y-3.2177 I-0.1338 J0.2229
G3 X-0.0079 Y-3.1756 I-2.2726 J3.761
G3 X-0.0068 Y-3.1748 I-0.1385 J0.22
G1 X0.0171 Y-3.1596
G3 X0.0189 Y-3.1585 I-0.1396 J0.2193
G1 X0.0605 Y-3.1316
G3 X0.0618 Y-3.1307 I-0.1414 J0.2182
G1 X0.0773 Y-3.1205
G3 X0.0779 Y-3.1202 I-0.1427 J0.2174
G1 X0.0914 Y-3.1112
G3 X0.0924 Y-3.1105 I-0.1432 J0.217
G1 X0.1398 Y-3.079
G3 X0.1407 Y-3.0783 I-0.1442 J0.2163
G1 X0.1643 Y-3.0624
G3 X0.1647 Y-3.0622 I-0.1452 J0.2157
G1 X0.1747 Y-3.0555
G3 X0.1912 Y-3.0443 I-0.3287 J0.5025
G2 X0.252 Y-3.008 I0.3208 J-0.4689
G2 X0.2572 Y-3.0055 I0.0931 J-0.184
G2 X0.2582 Y-3.008 I-0.0362 J-0.017
G2 X0.2619 Y-3.0254 I-0.0583 J-0.0213
G3 Y-3.0261 I0.2595 J0.0163
G2 X0.2613 Y-3.0442 I-0.0893 J-0.0059
G2 X0.2508 Y-3.0826 I-0.1544 J0.0214
G3 Y-3.0827 I0.2401 J-0.0997
G2 X0.2284 Y-3.1236 I-0.202 J0.0838
G2 X0.224 Y-3.1286 I-0.0363 J0.0276
G3 X0.2227 Y-3.1299 I0.1816 J-0.186
G1 X0.2184 Y-3.1342
G3 X0.2174 Y-3.1352 I0.1829 J-0.1848
G2 X0.217 Y-3.1356 I-0.0097 J0.0097
G3 X0.2143 Y-3.1381 I0.1756 J-0.1917
G2 X0.1925 Y-3.1572 I-0.2789 J0.296
G3 X0.1917 Y-3.1579 I0.1644 J-0.2014
G2 X0.1354 Y-3.2009 I-0.6449 J0.7838
G2 X0.0217 Y-3.2757 I-1.0821 J1.5224
G1 X-0.0022 Y-3.29
G2 X-0.1749 Y-3.3826 I-1.1911 J2.0143
G2 X-0.2183 Y-3.4028 I-0.9295 J1.9423
G1 X-0.2265 Y-3.4065
G1 X-0.2344 Y-3.4099
G2 X-0.2626 Y-3.4219 I-0.6352 J1.457
G3 X-0.2636 Y-3.4223 I0.0993 J-0.2403
G2 X-0.3434 Y-3.4517 I-0.379 J0.9072
G1 X-0.3482 Y-3.4532
G2 X-0.5149 Y-3.4941 I-0.4405 J1.4338
G1 X-0.515
G2 X-0.7795 Y-3.5244 I-0.3484 J1.8741
G1 X-0.7969 Y-3.5251
G2 X-0.8593 Y-3.5264 I-0.0848 J2.6422
G1 X-0.8839 Y-3.5263
G2 X-1.0462 Y-3.5178 I0.0147 J1.831
G2 X-1.2379 Y-3.4838 I0.1225 J1.2479
G2 X-1.5459 Y-3.3537 I0.2874 J1.1102
G2 X-1.7445 Y-3.2004 I0.6033 J0.9869
G2 X-1.8705 Y-3.0584 I0.8463 J0.878
G1 X-1.8764 Y-3.0506
G2 X-1.955 Y-2.9325 I1.0791 J0.803
G1 X-1.9585 Y-2.9265
G1 X-1.9619 Y-2.9207
G1 X-1.9651 Y-2.9151
G2 X-2.0545 Y-2.7288 I1.2967 J0.7365
G1 X-2.0571 Y-2.7221
G2 X-2.0909 Y-2.6271 I1.4384 J0.5649
G3 X-2.0917 Y-2.6246 I-0.2477 J-0.079
G2 X-2.0979 Y-2.6046 I0.604 J0.1995
G3 X-2.0987 Y-2.6021 I-0.2494 J-0.0734
G2 X-2.1192 Y-2.5287 I1.5389 J0.4692
G3 X-2.1194 Y-2.528 I-0.252 J-0.064
G2 X-2.1692 Y-2.2459 I1.8138 J0.4657
G2 X-2.1583 Y-1.8211 I1.7257 J0.1685
G2 X-2.1143 Y-1.6113 I1.8106 J-0.2702
G3 Y-1.6111 I-0.2509 J0.0682
G2 X-2.0464 Y-1.4052 I1.9465 J-0.5272
G3 X-2.0461 Y-1.4045 I-0.2422 J0.0945
G2 X-1.9398 Y-1.1821 I1.4974 J-0.5792
G1 Y-1.182
G2 X-1.8914 Y-1.1036 I1.3371 J-0.7701
G3 X-1.8912 Y-1.1033 I-0.2172 J0.143
G2 X-1.7967 Y-0.9755 I1.1775 J-0.7724
G2 X-1.7579 Y-0.9309 I1.1383 J-0.949
G1 X-1.7494 Y-0.9216
G1 X-1.7318 Y-0.903
G1 X-1.7147 Y-0.8855
G2 X-1.6522 Y-0.8274 I0.8355 J-0.8359
G3 X-1.652 Y-0.8272 I-0.1701 J0.1967
G2 X-1.5513 Y-0.7501 I0.6914 J-0.7982
G3 X-1.5512 Y-0.75 I-0.1454 J0.2155
G2 X-1.4995 Y-0.7176 I0.491 J-0.7265
G3 X-1.4992 Y-0.7175 I-0.1303 J0.225
G2 X-1.4455 Y-0.6888 I0.4406 J-0.7594
G2 X-1.3839 Y-0.6604 I0.6317 J-1.2895
G1 X-1.3574 Y-0.649
G2 X-1.2703 Y-0.6145 I0.8951 J-2.1325
G1 X-1.2657 Y-0.6128
G1 X-1.2434 Y-0.6048
G3 X-1.243 Y-0.6047 I-0.0876 J0.2448
G2 X-1.2328 Y-0.6012 I0.1205 J-0.3352
G3 X-1.2311 Y-0.6006 I-0.0805 J0.2472
G1 X-1.2286 Y-0.5998
G2 X-1.2091 Y-0.5936 I0.4883 J-1.4967
G1 X-1.2052 Y-0.5924
G1 X-1.2026 Y-0.5916
G1 X-1.1984 Y-0.5904
G1 X-1.1942 Y-0.5893
G2 X-1.1734 Y-0.5848 I0.079 J-0.3105
G1 X-1.157 Y-0.5819
G1 X-1.1416 Y-0.5795
G1 X-1.1355 Y-0.5787
G2 X-1.0151 Y-0.5678 I0.1963 J-1.5052
G3 X-1.0147 I-0.013 J0.2597
G1 X-1.0083 Y-0.5675
G2 X-0.9142 Y-0.5648 I0.109 J-2.2092
G2 X-0.7742 Y-0.5685 I0.0144 J-2.1316
G1 X-0.7567 Y-0.5697
G2 X-0.7282 Y-0.5721 I-0.1487 J-1.9388
G1 X-0.7163 Y-0.5733
G2 X-0.6503 Y-0.5829 I-0.0754 J-0.7495
G1 X-0.6442 Y-0.5842
G1 X-0.6302 Y-0.5876
G2 X-0.5777 Y-0.6037 I-0.1883 J-0.7073
G1 X-0.5776
G2 X-0.5263 Y-0.6229 I-0.4064 J-1.1674
G1 X-0.5021 Y-0.6328
G1 X-0.4797 Y-0.6425
G2 X-0.3188 Y-0.7236 I-0.7179 J-1.6242
G2 X-0.244 Y-0.7693 I-0.7496 J-1.3115
G1 X-0.2353 Y-0.775
G1 X-0.219 Y-0.7862
G2 X-0.178 Y-0.8165 I-0.51 J-0.7319
G2 X-0.069 Y-0.9179 I-0.6179 J-0.7737
G3 X-0.0684 Y-0.9185 I0.1909 J0.1765
G2 X-0.0236 Y-0.9694 I-0.8709 J-0.8108
G3 X-0.023 Y-0.9702 I0.2001 J0.166
G2 X0.0159 Y-1.0194 I-0.8495 J-0.7106
G3 X0.0161 Y-1.0197 I0.2086 J0.1553
G2 X0.1475 Y-1.2295 I-1.2167 J-0.9081
G3 X0.1476 Y-1.2297 I0.2309 J0.1196
G2 X0.283 Y-1.5813 I-1.5062 J-0.7819
G3 X0.2831 Y-1.5817 I0.2515 J0.0659
G2 X0.3039 Y-1.6719 I-1.4315 J-0.3774
G3 X0.304 Y-1.6727 I0.2551 J0.0504
G2 X0.3249 Y-1.8099 I-1.4436 J-0.29
G2 X0.3322 Y-1.9465 I-1.3297 J-0.1389
G3 Y-1.9478 I0.26 J0.0005
G2 X0.3286 Y-2.0145 I-0.5497 J-0.0038
G2 X0.3226 Y-2.0448 I-0.1914 J0.0222
G2 X0.3214 Y-2.0481 I-0.042 J0.0129
G1 X0.3179 Y-2.0504
G1 X0.317 Y-2.051
G3 X0.3165 Y-2.0513 I0.1385 J-0.22
G2 X0.313 Y-2.0532 I-0.0235 J0.0371
G3 X0.3103 Y-2.0546 I0.1184 J-0.2315
G3 X0.3101 Y-2.0548 I0.1201 J-0.2306
G2 X0.3019 Y-2.056 I-0.0273 J0.1578
G2 X0.2533 Y-2.0602 I-0.0976 J0.8501
G3 X0.2528 I0.0149 J-0.2596
G1 X0.2499 Y-2.0604
G2 X0.1395 Y-2.0644 I-0.1821 J3.4766
G1 X0.0873 Y-2.0654
G3 X0.0856 I0.005 J-0.26
G2 X0.0786 Y-2.0655 I-0.0088 J0.3424
G3 X0.0764 Y-2.0656 I0.0014 J-0.26
G1 X0.0522 Y-2.0659
G3 X0.0508 I0.0036 J-0.26
G2 X0.0426 Y-2.066 I-0.0114 J0.5866
G3 X0.0414 I0.0015 J-0.26
G2 X-0.3247 Y-2.0679 I-0.3589 J34.2164
G3 X-0.3249 I-0.0001 J-0.26
G1 X-0.6938 Y-2.0681
G1 X-0.7263
G1 X-0.7264
G1 X-0.7579
G3 X-0.7581 I0.0 J-0.26
G1 X-1.0029 Y-2.0683
G3 X-1.0035 I0.0002 J-0.26
G1 X-1.1871 Y-2.0688
G3 X-1.1876 I0.0007 J-0.26
G1 X-1.2221 Y-2.069
G3 X-1.2227 I0.0012 J-0.26
G1 X-1.3519 Y-2.0699
G3 X-1.3526 I0.0018 J-0.26
G3 X-1.4505 Y-2.0711 I0.1897 J-19.9692
G3 X-1.5992 Y-2.0747 I0.071 J-5.9227
G3 X-1.6044 Y-2.0749 I0.0061 J-0.2656
G3 X-1.6057 I0.0102 J-0.2655
G3 X-1.6069 Y-2.075 I0.0103 J-0.2654
G3 X-1.6082 I0.0104 J-0.2654
G3 X-1.6094 Y-2.0751 I0.0105 J-0.2653
G3 X-1.6106 I0.0106 J-0.2653
G3 X-1.6118 Y-2.0752 I0.0107 J-0.2652
G3 X-1.613 I0.0108 J-0.2652
G3 X-1.6142 Y-2.0753 I0.0109 J-0.2651
G3 X-1.6185 Y-2.0755 I0.011 J-0.2651
G3 X-1.6929 Y-2.0803 I0.0851 J-1.9036
G3 X-1.7524 Y-2.0881 I0.0482 J-0.6009
G3 X-1.7526 I0.0465 J-0.2558
G3 X-1.8045 Y-2.1013 I0.07 J-0.3839
G3 X-1.8068 Y-2.1021 I0.0813 J-0.247
G1 X-1.7811 Y-2.1778
G3 X-1.7846 Y-2.1791 I0.0578 J-0.1705
G3 X-1.831 Y-2.2024 I0.0745 J-0.2056
G3 X-1.9161 Y-2.3573 I0.1048 J-0.1584
G3 Y-2.3625 I0.18 J-0.0034
G3 X-1.915 Y-2.3875 I0.3607 J0.0036
G3 X-1.9098 Y-2.4286 I0.4308 J0.0336
G3 X-1.8988 Y-2.4834 I0.9698 J0.1671
G3 X-1.8985 Y-2.4845 I0.1754 J0.0406
G3 X-1.8749 Y-2.5722 I1.5181 J0.3609
G3 X-1.8327 Y-2.6976 I1.8383 J0.5501
G3 X-1.8288 Y-2.7077 I0.4292 J0.1578
G1 X-1.8239 Y-2.7204
G3 X-1.8229 Y-2.7229 I0.1677 J0.0653
G1 X-1.8136 Y-2.7458
G3 X-1.8133 Y-2.7464 I0.1668 J0.0677
G3 X-1.7742 Y-2.8298 I0.8625 J0.3537
G3 X-1.7734 Y-2.8313 I0.159 J0.0844
G3 X-1.6768 Y-2.9737 I0.77 J0.4186
G3 X-1.5734 Y-3.0796 I0.709 J0.5889
G3 X-1.4716 Y-3.1574 I0.6344 J0.7244
G3 X-1.3775 Y-3.2132 I0.5989 J0.9023
G3 X-1.377 Y-3.2135 I0.0839 J0.1592
G3 X-1.2019 Y-3.2869 I0.5198 J0.9944
G3 X-1.2016 Y-3.287 I0.0553 J0.1713
G1 X-1.1944 Y-3.2893
G3 X-1.1932 Y-3.2897 I0.0549 J0.1714
G1 X-1.1861 Y-3.2919
G3 X-1.1851 Y-3.2922 I0.0536 J0.1718
G3 X-0.9198 Y-3.3428 I0.3656 J1.1966
G3 X-0.6534 Y-3.3383 I0.1105 J1.3575
G3 X-0.6526 Y-3.3382 I-0.0206 J0.1788
G1 X-0.6278 Y-3.3353
G3 X-0.6273 Y-3.3352 I-0.0214 J0.1787
G3 X-0.5172 Y-3.3172 I-0.1662 J1.3596
G3 X-0.5169 Y-3.3171 I-0.0363 J0.1763
G3 X-0.3213 Y-3.2557 I-0.2088 J1.0072
G3 X-0.2875 Y-3.2407 I-0.4879 J1.1447
G3 X-0.2864 Y-3.2402 I-0.0755 J0.1634
G1 X-0.2729 Y-3.2338
G3 X-0.2724 Y-3.2336 I-0.0766 J0.1629
G3 X-0.2128 Y-3.2034 I-0.5521 J1.1643
G3 X-0.118 Y-3.1495 I-1.1042 J2.0517
G3 X-0.1176 Y-3.1492 I-0.0926 J0.1543
G3 X-0.0505 Y-3.1079 I-2.2312 J3.6925
G3 X-0.0497 Y-3.1074 I-0.0959 J0.1523
G1 X-0.0258 Y-3.0922
G3 X-0.0246 Y-3.0914 I-0.0967 J0.1518
G1 X0.017 Y-3.0644
G3 X0.0179 Y-3.0638 I-0.0979 J0.1511
G1 X0.0334 Y-3.0537
G3 X0.0338 Y-3.0534 I-0.0988 J0.1505
G1 X0.0474 Y-3.0444
G3 X0.048 Y-3.044 I-0.0992 J0.1502
G1 X0.0954 Y-3.0124
G3 X0.0961 Y-3.012 I-0.0998 J0.1498
G1 X0.1197 Y-2.9961
G3 X0.1199 Y-2.9959 I-0.1005 J0.1493
G1 X0.1304 Y-2.9888
G3 X0.1456 Y-2.9785 I-0.2845 J0.4358
G2 X0.2156 Y-2.9367 I0.3664 J-0.5346
G2 X0.238 Y-2.9266 I0.1294 J-0.2552
G3 X0.2396 Y-2.9259 I-0.0673 J0.1669
G2 X0.2696 Y-2.9171 I0.0555 J-0.1339
G2 X0.2774 Y-2.9167 I0.0057 J-0.036
G2 X0.2813 Y-2.9181 I-0.0015 J-0.011
G3 X0.2826 Y-2.9188 I0.0881 J0.1569
G2 X0.2907 Y-2.9242 I-0.0276 J-0.0502
G3 X0.2921 Y-2.9253 I0.1122 J0.1408
G2 X0.3045 Y-2.9363 I-0.078 J-0.0999
G3 X0.3057 Y-2.9376 I0.1284 J0.1262
G2 X0.3331 Y-2.9798 I-0.0848 J-0.0849
G2 X0.3417 Y-3.0203 I-0.1332 J-0.0494
G3 Y-3.0209 I0.1796 J0.0113
G2 X0.3405 Y-3.0552 I-0.1691 J-0.0111
G2 X0.3247 Y-3.1133 I-0.2337 J0.0324
G1 Y-3.1134
G2 X0.2933 Y-3.1704 I-0.2759 J0.1144
G2 X0.2799 Y-3.1859 I-0.1012 J0.0744
G3 X0.279 Y-3.1868 I0.1257 J-0.1288
G1 X0.2747 Y-3.191
G3 X0.274 Y-3.1917 I0.1266 J-0.1279
G2 X0.271 Y-3.1946 I-0.0663 J0.0662
G3 X0.2691 Y-3.1963 I0.1216 J-0.1327
G2 X0.243 Y-3.2192 I-0.3338 J0.3542
G3 X0.2425 Y-3.2197 I0.1138 J-0.1395
G2 X0.1818 Y-3.2661 I-0.6958 J0.8456
G2 X0.063 Y-3.3442 I-1.1285 J1.5876
G1 X0.0387 Y-3.3588
G2 X-0.1402 Y-3.4547 I-1.232 J2.083
G2 X-0.1856 Y-3.4758 I-0.9642 J2.0144
G1 X-0.1942 Y-3.4796
G1 X-0.2023 Y-3.4832
G2 X-0.2321 Y-3.4959 I-0.6672 J1.5302
G3 X-0.2328 Y-3.4961 I0.0687 J-0.1664
G2 X-0.3193 Y-3.528 I-0.4098 J0.981
G1 X-0.3245 Y-3.5296
G2 X-0.5003 Y-3.5728 I-0.4641 J1.5102
G1 X-0.5004
G2 X-0.7761 Y-3.6043 I-0.363 J1.9527
G1 X-0.794 Y-3.605
G2 X-0.8591 Y-3.6064 I-0.0877 J2.7221
G1 X-0.8843 Y-3.6063
G2 X-1.054 Y-3.5974 I0.0151 J1.911
G2 X-1.258 Y-3.5612 I0.1303 J1.3275
G2 X-1.5875 Y-3.422 I0.3074 J1.1876
G2 X-1.8 Y-3.258 I0.645 J1.0552
G2 X-1.9344 Y-3.1066 I0.9018 J0.9357
G1 X-1.9405 Y-3.0985
G2 X-2.0239 Y-2.9731 I1.1432 J0.851
G1 X-2.0276 Y-2.9668
G1 X-2.0311 Y-2.9608
G1 X-2.0346 Y-2.9548
G2 X-2.1288 Y-2.7582 I1.3662 J0.7762
G1 X-2.1315 Y-2.7514
G2 X-2.1671 Y-2.6514 I1.5128 J0.5942
G3 X-2.1677 Y-2.6497 I-0.1715 J-0.0547
G2 X-2.1747 Y-2.6271 I0.6799 J0.2245
G3 X-2.1752 Y-2.6254 I-0.1727 J-0.0508
G2 X-2.1967 Y-2.5483 I1.6154 J0.4926
G3 X-2.1968 Y-2.5479 I-0.1745 J-0.0443
G2 X-2.2488 Y-2.2537 I1.8913 J0.4856
G2 X-2.2374 Y-1.8093 I1.8053 J0.1763
G2 X-2.1915 Y-1.5904 I1.8897 J-0.282
G3 Y-1.5902 I-0.1737 J0.0472
G2 X-2.121 Y-1.3762 I2.0237 J-0.5481
G3 X-2.1208 Y-1.3757 I-0.1677 J0.0654
G2 X-2.0091 Y-1.1421 I1.572 J-0.608
G2 X-1.9583 Y-1.0596 I1.4065 J-0.8101
G3 X-1.9581 Y-1.0594 I-0.1503 J0.099
G2 X-1.8582 Y-0.9244 I1.2444 J-0.8163
G2 X-1.8171 Y-0.877 I1.1998 J-1.0002
G1 X-1.8079 Y-0.8671
G1 X-1.7894 Y-0.8475
G1 X-1.7715 Y-0.8292
G2 X-1.7045 Y-0.7669 I0.8923 J-0.8922
G3 X-1.7044 Y-0.7668 I-0.1177 J0.1362
G2 X-1.5961 Y-0.6838 I0.7438 J-0.8587
G3 X-1.596 Y-0.6837 I-0.1007 J0.1492
G2 X-1.5396 Y-0.6484 I0.5358 J-0.7928
G3 X-1.5394 Y-0.6483 I-0.0902 J0.1558
G2 X-1.4807 Y-0.6169 I0.4808 J-0.8286
G2 X-1.4155 Y-0.5869 I0.6669 J-1.3613
G1 X-1.3886 Y-0.5753
G2 X-1.2981 Y-0.5395 I0.9263 J-2.2061
G1 X-1.293 Y-0.5376
G1 X-1.2703 Y-0.5295
G3 X-1.2701 Y-0.5294 I-0.0606 J0.1695
G2 X-1.2576 Y-0.5251 I0.1475 J-0.4105
G3 X-1.2564 Y-0.5247 I-0.0557 J0.1712
G1 X-1.2536 Y-0.5238
G2 X-1.2325 Y-0.5171 I0.5133 J-1.5727
G1 X-1.2278 Y-0.5157
G1 X-1.2246 Y-0.5147
G1 X-1.2195 Y-0.5133
G1 X-1.2144 Y-0.5119
G2 X-1.1876 Y-0.506 I0.0992 J-0.3879
G1 X-1.1701 Y-0.503
G1 X-1.1698 Y-0.5029
G1 X-1.1533 Y-0.5004
G1 X-1.1462 Y-0.4994
G2 X-1.0191 Y-0.4879 I0.207 J-1.5845
G3 X-1.0188 I-0.009 J0.1798
G1 X-1.0123 Y-0.4876
G2 X-0.9147 Y-0.4848 I0.113 J-2.2891
G2 X-0.7691 Y-0.4886 I0.015 J-2.2116
G1 X-0.7509 Y-0.4899
G2 X-0.7205 Y-0.4924 I-0.1545 J-2.0186
G1 X-0.7084 Y-0.4937
G2 X-0.6344 Y-0.5044 I-0.0833 J-0.8291
G3 X-0.6342 Y-0.5045 I0.034 J0.1768
G3 X-0.634 I0.0388 J0.1758
G1 X-0.6262 Y-0.5063
G1 X-0.6104 Y-0.5101
G2 X-0.5513 Y-0.5282 I-0.208 J-0.7848
G2 X-0.4963 Y-0.5487 I-0.4327 J-1.243
G1 X-0.4711 Y-0.5591
G1 X-0.4478 Y-0.5691
G2 X-0.2792 Y-0.6541 I-0.7498 J-1.6975
G2 X-0.2 Y-0.7024 I-0.7892 J-1.381
G1 X-0.1907 Y-0.7086
G1 X-0.1736 Y-0.7203
G2 X-0.1283 Y-0.7538 I-0.5554 J-0.7978
G2 X-0.0102 Y-0.8636 I-0.6676 J-0.8364
G3 X-0.0098 Y-0.864 I0.1321 J0.1222
G2 X0.0379 Y-0.9183 I-0.9295 J-0.8653
G3 X0.0384 Y-0.9189 I0.1385 J0.1149
G2 X0.08 Y-0.9716 I-0.9108 J-0.7619
G3 X0.0802 Y-0.9718 I0.1444 J0.1075
G2 X0.2185 Y-1.1927 I-1.2808 J-0.956
G3 X0.2186 Y-1.1928 I0.1598 J0.0828
G2 X0.3604 Y-1.561 I-1.5772 J-0.8187
G3 Y-1.5613 I0.1741 J0.0456
G2 X0.3824 Y-1.6564 I-1.5088 J-0.3978
G3 X0.3825 Y-1.6569 I0.1766 J0.0349
G2 X0.4045 Y-1.8016 I-1.522 J-0.3058
